<?xml version="1.0" encoding="UTF-8"?>
<map version="1.10" tiledversion="1.11.2" orientation="orthogonal" renderorder="right-down" width="14" height="14" tilewidth="16" tileheight="16" infinite="0" nextlayerid="5" nextobjectid="4">
 <tileset firstgid="1" source="farmhouse_tiles..tsx"/>
 <layer id="1" name="floor" width="14" height="14">
  <data encoding="csv">
1,1,1,1,1,1,1,1,1,1,1,1,1,1,
1,1,2,3,4,5,6,7,8,9,10,11,1,1,
1,13,14,15,16,17,18,19,20,21,22,23,24,1,
1,25,26,27,28,29,30,31,32,33,34,35,36,1,
1,37,38,39,40,41,42,43,44,45,46,47,48,1,
1,49,50,51,52,53,54,55,56,57,58,59,60,1,
1,61,62,63,64,65,66,67,68,69,70,71,72,1,
1,73,74,75,76,77,78,79,80,81,82,83,84,1,
1,85,86,87,89,89,90,91,92,89,89,95,96,1,
1,97,98,99,101,101,102,103,104,89,89,107,108,1,
1,109,110,111,89,89,114,115,116,101,101,119,120,1,
1,121,122,123,101,101,126,127,128,129,130,131,132,1,
1,1,1,1,1,1,1,1,1,1,1,1,1,1,
1,1,1,1,1,1,1,1,1,1,1,1,1,1
</data>
 </layer>
 <layer id="2" name="something" width="14" height="14">
  <data encoding="csv">
0,0,0,0,0,0,0,0,0,0,0,0,0,0,
0,0,0,0,0,0,0,0,0,0,0,0,0,0,
0,0,0,0,0,0,0,0,0,0,0,0,0,0,
0,0,0,0,0,0,0,0,0,0,0,0,0,0,
0,0,0,0,0,0,0,0,0,0,0,0,0,0,
0,0,151,152,0,0,0,0,0,0,0,0,0,0,
0,0,163,164,0,0,0,0,0,0,0,0,0,0,
0,0,175,176,0,0,0,0,0,0,0,0,0,0,
0,0,0,0,0,0,0,0,0,93,94,0,0,0,
0,0,0,0,0,0,0,0,0,105,106,0,0,0,
0,0,0,0,0,0,0,0,0,117,118,0,0,0,
0,0,133,134,0,2147483782,139,139,139,0,0,2147483781,0,0,
0,0,0,0,0,0,0,0,0,0,0,0,0,0,
0,0,0,0,0,0,0,0,0,0,0,0,0,0
</data>
 </layer>
 <objectgroup id="3" name="bed">
  <object id="1" x="144.375" y="135.625" width="31.375" height="49.375"/>
 </objectgroup>
 <objectgroup id="4" name="door">
  <object id="2" x="64" y="192" width="16" height="32"/>
 </objectgroup>
</map>
