<?xml version="1.0" encoding="UTF-8"?>
<map version="1.10" tiledversion="1.11.2" orientation="orthogonal" renderorder="right-down" width="70" height="50" tilewidth="16" tileheight="16" infinite="0" nextlayerid="8" nextobjectid="2524">
 <tileset firstgid="1" source="outdoors_spring.tsx"/>
 <tileset firstgid="1976" source="tree.tsx"/>
 <tileset firstgid="2080" source="stone.tsx"/>
 <layer id="1" name="ground" width="70" height="50">
  <data encoding="csv">
276,276,276,276,276,276,276,276,276,276,276,276,276,276,276,276,276,276,276,228,228,228,228,228,228,228,228,228,228,228,228,228,228,228,228,228,228,228,228,228,228,228,228,228,228,228,228,276,276,276,276,276,276,276,176,176,176,176,176,176,176,176,176,176,176,176,176,176,176,176,
276,276,276,276,276,276,276,276,276,276,276,276,276,276,276,276,276,276,228,228,228,228,228,228,228,228,228,228,228,228,228,228,228,228,228,228,228,228,228,228,228,228,228,228,228,228,228,228,276,276,276,276,276,276,176,176,176,176,176,176,176,176,176,176,176,176,176,176,176,176,
276,276,276,276,276,276,276,276,276,276,276,276,276,276,276,276,276,228,228,228,228,228,228,228,228,228,228,228,228,228,228,228,228,228,228,228,228,228,228,228,228,228,228,228,228,228,228,228,276,276,276,276,276,276,176,176,176,176,176,176,176,176,176,176,176,176,176,176,176,176,
276,276,276,276,276,276,276,276,276,276,276,276,276,276,276,276,276,228,228,228,228,228,228,228,228,228,228,228,228,228,228,228,228,228,228,228,228,228,228,228,228,228,228,228,228,228,228,228,276,276,276,276,276,276,176,176,176,176,176,176,176,176,176,176,176,176,176,176,176,176,
276,276,276,276,276,276,276,276,276,276,276,276,276,276,276,276,228,228,228,228,228,228,228,228,228,228,228,228,228,228,228,228,228,228,228,228,228,228,228,228,228,228,228,228,228,228,228,228,228,276,276,276,276,276,176,176,176,176,176,176,176,176,176,176,176,176,176,176,176,176,
276,276,276,276,276,276,276,276,276,276,276,276,276,276,276,228,228,228,228,228,228,228,228,228,228,228,228,228,228,228,228,228,228,228,228,228,228,228,228,228,228,228,228,228,228,228,228,228,228,228,276,276,276,276,176,176,176,176,176,176,176,176,176,176,176,176,176,176,176,176,
276,276,276,276,276,276,276,276,276,276,276,276,276,276,276,228,228,228,228,228,228,228,228,228,228,228,228,228,228,228,228,228,228,228,228,228,228,228,228,228,228,228,228,228,228,228,228,228,228,228,276,276,276,276,176,176,176,176,176,176,176,176,176,176,176,176,176,176,176,176,
276,276,276,276,276,276,276,276,276,276,276,276,276,276,228,228,228,228,228,228,228,228,228,228,228,228,228,228,228,228,228,228,228,228,228,228,228,228,228,228,228,228,228,228,228,228,228,228,228,228,228,276,276,276,176,176,176,176,176,176,176,176,176,176,176,176,176,176,176,176,
276,276,276,276,276,276,276,276,276,276,276,276,276,228,228,228,228,228,228,228,228,228,228,228,228,228,228,228,228,228,228,228,228,228,228,228,228,228,228,228,228,228,228,228,228,228,228,228,228,228,228,276,276,276,176,176,176,176,176,176,176,176,176,176,176,176,176,176,176,176,
276,276,276,276,276,276,276,276,276,276,276,276,228,228,228,228,228,228,228,228,228,228,228,228,228,228,228,228,228,228,228,228,228,228,228,228,228,228,228,228,228,228,228,228,228,228,228,228,228,228,228,228,276,276,176,176,176,176,176,176,176,176,176,176,176,176,176,176,176,176,
276,276,276,276,276,276,276,276,276,276,276,276,228,228,228,228,228,228,228,228,228,228,228,228,228,228,228,228,228,228,228,228,228,228,228,228,228,228,228,228,228,228,228,228,228,228,228,228,228,228,228,227,227,276,176,176,176,176,176,176,176,176,176,176,176,176,176,176,176,176,
276,276,276,276,276,276,276,276,276,276,276,276,228,228,228,228,228,228,228,228,228,228,228,228,228,228,228,228,228,228,228,228,228,228,228,228,228,228,228,228,228,228,228,228,228,228,228,228,228,228,228,228,227,276,176,176,176,176,176,176,176,176,176,176,176,176,176,176,176,176,
276,276,276,276,276,276,276,276,276,276,276,276,228,228,228,228,228,228,228,228,228,228,228,228,228,228,228,228,228,228,228,228,228,228,228,228,228,228,228,228,228,228,228,228,228,228,228,228,228,228,227,228,227,227,176,176,176,176,176,176,176,176,176,176,176,176,176,176,176,176,
276,276,276,276,276,276,276,276,276,276,276,276,228,228,228,228,228,228,228,228,228,228,228,228,228,228,228,228,228,228,228,228,228,228,228,228,228,228,228,228,228,228,228,228,228,228,228,228,228,228,227,227,228,227,276,276,176,176,176,176,176,176,176,176,176,176,176,176,176,176,
276,276,276,276,276,276,276,276,276,276,276,276,228,228,228,228,228,228,228,228,228,228,228,228,228,228,228,228,228,228,228,228,228,228,228,228,228,228,228,228,228,228,228,228,228,228,228,228,228,228,228,227,227,227,227,276,176,176,176,176,176,176,176,176,176,176,176,176,176,176,
276,276,276,276,276,276,276,276,276,276,276,276,228,228,228,228,228,228,228,228,228,228,228,228,228,228,228,228,228,228,228,228,228,228,228,228,228,228,228,228,228,228,228,228,228,228,228,228,228,228,228,228,227,227,227,227,276,276,176,176,176,176,176,176,176,176,176,176,176,176,
276,276,276,276,276,276,276,276,276,276,276,276,228,228,228,228,228,228,228,228,228,228,228,228,228,228,228,228,228,228,228,228,228,228,228,228,228,228,228,228,228,228,228,228,228,228,228,228,228,228,228,228,227,227,227,227,227,276,276,176,176,176,176,176,176,176,176,176,176,176,
276,276,276,276,276,276,276,276,276,276,276,228,228,228,228,228,228,228,228,228,228,228,228,228,228,228,228,228,228,228,228,228,228,228,228,228,228,228,228,228,228,228,228,228,228,228,228,228,228,228,228,227,227,228,227,227,227,227,276,176,176,176,176,176,176,176,176,176,176,176,
276,276,276,276,276,276,276,276,276,276,228,228,228,228,228,228,228,228,228,228,228,228,228,228,228,228,228,228,228,228,228,228,228,228,228,228,228,228,228,228,228,228,228,228,228,228,228,228,228,228,228,227,227,227,227,227,227,227,227,276,176,176,176,176,176,176,176,176,176,176,
276,276,276,276,276,276,276,276,276,228,228,228,228,228,228,228,228,228,228,228,228,228,228,228,228,228,228,228,228,228,228,228,228,228,228,228,228,228,228,228,228,228,228,228,228,228,228,228,228,228,228,228,227,227,227,227,227,227,227,176,276,176,176,176,176,176,176,176,176,176,
276,276,276,276,276,276,276,276,276,228,228,228,228,228,228,228,228,228,228,228,228,228,228,228,228,228,228,228,228,228,228,228,228,228,228,228,228,228,228,228,228,228,228,228,228,228,228,228,228,228,228,228,227,227,227,227,227,227,227,227,176,276,176,176,176,176,176,176,176,176,
276,276,276,276,276,276,276,276,276,228,228,228,228,228,228,228,228,228,228,228,228,228,228,228,228,228,228,228,228,228,228,228,228,228,228,228,228,228,228,228,228,228,228,228,228,228,228,228,228,228,228,228,228,227,227,227,227,227,227,227,227,227,227,227,227,227,227,227,227,276,
276,276,276,276,276,276,276,276,228,228,228,228,228,228,228,228,228,228,228,228,228,228,228,228,228,228,228,228,228,228,228,228,228,228,228,228,228,228,228,228,228,228,228,228,228,228,228,228,228,228,228,228,228,227,227,227,227,227,227,227,227,227,227,227,227,227,227,227,227,227,
276,276,276,276,276,276,276,228,228,228,228,228,228,228,228,228,228,228,228,228,228,228,228,228,228,228,228,228,228,228,228,228,228,228,228,228,228,228,228,228,228,228,228,228,228,228,228,228,228,228,228,228,228,227,227,227,228,228,228,227,227,227,227,228,228,227,228,228,228,227,
276,276,276,276,276,276,228,228,228,228,228,228,228,228,228,228,228,228,228,228,228,228,228,228,228,228,228,228,228,228,228,228,228,228,228,228,228,228,228,228,228,228,228,228,228,228,228,228,228,228,228,228,227,228,228,228,228,228,228,227,227,228,227,228,228,227,227,228,228,228,
276,276,276,276,228,228,228,228,228,228,228,228,228,228,228,228,228,228,228,228,228,228,228,228,228,228,228,228,228,228,228,228,228,228,228,228,228,228,228,228,228,228,228,228,228,228,228,228,228,228,228,228,227,228,228,228,228,228,228,227,228,228,227,228,228,227,227,228,228,228,
276,276,276,276,276,276,276,276,276,276,228,228,228,228,228,228,228,228,228,228,228,228,228,228,228,228,228,228,228,228,228,228,228,228,228,228,228,228,228,228,228,228,228,228,228,228,228,228,228,228,228,228,227,228,228,228,228,227,227,227,227,227,227,228,228,228,227,227,228,228,
276,276,276,276,276,276,276,276,276,276,276,228,228,228,228,228,228,228,228,228,228,228,228,228,228,228,228,228,228,228,228,228,228,228,228,228,228,228,228,228,228,228,228,228,228,228,228,228,228,228,228,227,228,228,228,228,227,227,227,228,228,228,228,228,228,228,228,227,227,228,
276,276,276,276,276,276,276,276,276,276,276,276,228,228,228,228,228,228,228,228,228,228,228,228,228,228,228,228,228,228,228,228,228,228,228,228,228,228,228,228,228,228,228,228,228,228,228,228,228,228,228,227,228,228,228,227,227,228,228,228,228,228,228,228,228,228,227,227,227,227,
276,276,276,276,276,276,276,276,276,276,276,276,228,228,228,228,228,228,228,228,228,228,228,228,228,228,228,228,228,228,228,228,228,228,228,228,228,228,228,228,228,228,228,228,228,228,228,228,228,228,228,227,227,227,227,227,276,276,276,276,276,276,276,276,276,276,276,227,227,227,
276,276,276,276,276,276,276,276,276,276,276,276,228,228,228,228,228,228,228,228,228,228,228,228,228,228,228,228,228,228,228,228,228,228,228,228,228,228,228,228,228,228,228,228,228,228,228,228,228,228,227,227,227,227,276,276,276,276,276,276,276,276,276,276,276,276,276,276,227,227,
276,276,276,276,276,276,276,276,276,276,276,276,228,228,228,228,228,228,228,228,228,228,228,228,228,228,228,228,228,228,228,228,228,228,228,228,228,228,228,228,228,228,228,228,228,228,228,228,228,227,227,276,227,276,276,276,276,276,276,276,276,276,276,276,276,276,276,276,276,276,
276,276,276,276,276,276,276,276,276,276,276,276,228,228,228,228,228,228,228,228,228,228,228,228,228,228,228,228,228,228,228,228,228,228,228,228,228,228,228,228,228,228,228,228,228,228,228,227,227,228,227,227,276,276,276,276,276,276,276,276,276,276,276,276,276,276,276,276,276,276,
276,276,276,276,276,276,276,276,276,276,276,276,228,228,228,228,228,228,228,228,228,228,228,228,228,228,228,228,228,228,228,228,228,228,228,228,228,228,228,228,228,228,228,228,228,228,228,227,228,228,227,227,276,276,276,276,276,276,276,276,276,276,276,276,276,276,276,276,276,276,
276,276,276,276,276,276,276,276,276,276,276,276,228,228,228,228,228,228,228,228,228,228,228,228,228,228,228,228,228,228,228,228,228,228,228,228,228,228,228,228,228,228,228,228,228,228,227,227,228,227,227,276,276,276,276,276,276,276,276,276,276,276,276,276,276,276,276,276,276,276,
276,276,276,276,276,276,276,276,276,276,276,276,228,228,228,228,228,228,228,228,228,228,228,228,228,228,228,228,228,228,228,228,228,228,228,228,228,228,228,228,228,228,228,228,228,228,227,227,227,228,228,276,276,276,276,276,276,276,276,276,276,276,276,276,276,276,276,276,276,276,
276,276,276,276,276,276,276,276,276,276,276,276,276,228,228,228,228,228,228,228,228,228,228,228,228,228,228,228,228,228,228,228,228,228,228,228,228,228,228,228,228,228,228,228,228,228,227,228,228,228,227,276,276,276,276,276,276,276,276,276,276,276,276,276,276,276,276,276,276,276,
276,276,276,276,276,276,276,276,276,276,276,276,276,228,228,228,228,228,228,228,228,228,228,228,228,228,228,228,228,228,228,228,228,228,228,228,228,228,228,228,228,228,228,228,228,228,228,228,228,228,227,227,227,276,276,276,276,276,276,276,276,276,276,276,276,276,276,227,227,227,
276,276,276,276,276,276,276,276,276,276,276,276,276,276,276,228,228,228,228,228,228,228,228,228,228,228,228,228,228,228,228,228,228,228,228,228,228,228,228,228,228,228,228,228,228,228,228,228,228,228,227,227,227,227,276,227,276,276,276,276,276,276,276,276,276,276,276,227,227,227,
276,276,276,276,276,276,276,276,276,276,276,276,276,276,276,276,276,228,228,228,228,228,228,228,228,228,228,228,228,228,228,228,228,228,228,228,228,228,228,228,228,228,228,228,228,228,228,228,228,228,227,227,227,227,227,227,227,276,276,276,276,276,276,276,276,276,227,227,276,227,
276,276,276,276,276,276,276,276,276,276,276,276,276,276,276,276,276,276,276,276,276,276,228,228,228,228,228,228,228,228,228,228,228,228,228,228,228,228,228,228,228,228,228,228,228,228,228,228,228,228,227,227,227,227,227,227,227,227,227,276,276,276,276,276,276,227,227,227,227,227,
176,176,176,176,176,176,176,176,176,176,176,176,176,176,176,276,276,276,276,276,276,276,228,228,228,228,228,228,228,228,228,228,228,228,228,228,228,228,228,228,228,228,228,228,228,228,228,228,228,228,228,227,227,227,227,227,227,227,227,227,276,276,276,276,227,276,227,227,227,227,
176,176,176,176,176,176,176,176,176,176,176,176,176,176,176,276,276,276,276,276,276,276,228,228,228,228,228,228,228,228,228,228,228,228,228,228,228,228,228,228,228,228,228,228,228,228,228,228,228,228,228,227,227,227,227,228,227,227,228,227,228,228,276,227,227,227,227,228,227,227,
176,176,176,176,176,176,176,176,176,176,176,176,176,176,176,276,276,276,276,276,276,276,228,228,228,228,228,228,228,228,228,228,228,228,228,228,228,228,228,228,228,228,228,228,228,228,228,228,228,227,228,228,227,227,227,227,228,228,228,276,276,276,276,227,227,227,228,228,227,227,
176,176,176,176,176,176,176,176,176,176,176,176,176,176,176,276,276,276,276,276,276,276,228,228,276,276,276,228,228,228,228,228,228,228,228,228,228,228,228,228,228,228,228,228,228,228,228,228,228,227,228,228,227,228,228,227,228,228,276,228,228,228,228,227,227,228,228,228,227,228,
176,176,176,176,176,176,176,176,176,176,176,176,176,176,176,276,276,276,276,276,228,228,276,276,228,228,276,276,228,228,228,228,228,228,228,228,228,228,228,228,228,228,228,228,228,227,227,228,228,227,228,228,228,228,228,228,227,276,276,228,228,228,227,227,228,228,228,228,227,228,
176,176,176,176,176,176,176,176,176,176,176,176,176,176,176,176,176,176,276,176,176,276,276,176,176,176,176,276,276,228,228,228,228,228,228,228,228,228,228,228,228,228,228,228,228,227,227,228,228,227,228,228,228,228,228,276,276,227,228,228,228,227,227,228,228,228,228,228,228,228,
176,176,176,176,176,176,176,176,176,176,176,176,176,176,176,176,176,276,276,176,276,276,176,176,176,176,176,276,276,228,228,228,228,228,228,228,228,228,228,228,228,228,228,228,228,227,227,228,228,227,228,228,228,228,276,276,228,228,227,227,227,227,228,228,228,228,228,228,228,228,
176,176,176,176,176,176,176,176,176,176,176,176,176,176,176,176,276,276,276,276,276,176,176,176,176,176,176,276,276,228,228,228,228,228,228,228,228,228,228,228,228,228,228,228,228,227,227,176,227,227,176,176,176,276,176,176,176,176,176,176,176,176,176,176,176,176,176,176,176,176,
176,176,176,176,176,176,176,176,176,176,176,176,176,176,176,176,176,176,176,176,176,176,176,176,176,176,176,276,276,228,228,228,228,228,228,228,228,228,228,228,228,228,228,228,228,227,227,176,227,176,176,276,276,176,176,176,176,176,176,176,176,176,176,176,176,176,176,176,176,176
</data>
 </layer>
 <layer id="4" name="home" width="70" height="50">
  <data encoding="csv">
0,0,0,0,0,0,0,0,0,0,0,0,0,0,0,0,0,0,0,0,0,0,0,0,0,0,0,0,0,0,0,0,0,0,0,0,0,0,0,0,0,0,0,0,0,0,0,0,0,0,0,0,0,0,0,0,0,0,0,0,0,0,0,0,0,0,0,0,0,0,
0,0,0,0,0,0,0,0,0,0,0,0,0,0,0,0,0,0,0,0,0,0,0,0,0,0,0,0,0,0,0,0,0,0,0,0,0,0,0,0,0,0,0,0,0,0,0,0,0,0,0,0,0,0,0,0,0,0,0,0,0,0,0,0,0,0,0,0,0,0,
0,0,0,0,0,0,0,0,0,0,0,0,0,0,0,0,0,662,663,664,665,666,667,668,0,0,0,0,0,0,0,0,0,0,0,0,0,0,0,0,0,0,0,0,0,0,0,0,0,0,0,0,0,0,0,0,0,0,0,0,0,0,0,0,0,0,0,0,0,0,
0,0,0,0,0,0,0,0,0,0,0,0,0,0,0,0,0,687,688,689,690,691,692,693,0,0,0,0,0,0,0,0,0,0,0,0,0,0,0,0,0,0,0,0,0,0,0,0,0,0,0,0,0,0,0,0,0,0,0,0,0,0,0,0,0,0,0,0,0,0,
0,0,0,0,0,0,0,0,0,0,0,0,0,0,0,0,0,712,713,714,715,716,717,718,719,0,0,0,0,0,0,0,0,0,0,0,0,0,0,0,0,0,0,0,0,0,0,0,0,0,0,0,0,0,0,0,0,0,0,0,0,0,0,0,0,0,0,0,0,0,
0,0,0,0,0,0,0,0,0,0,0,0,0,0,0,0,0,737,738,739,740,741,742,743,744,745,0,0,0,0,0,0,0,0,0,0,0,0,0,0,0,0,0,0,0,0,0,0,0,0,0,0,0,0,0,0,0,0,0,0,0,0,0,0,0,0,0,0,0,0,
0,0,0,0,0,0,0,0,0,0,0,0,0,0,0,0,0,762,763,764,765,766,767,768,769,770,771,0,0,0,0,0,0,0,0,0,0,0,0,0,0,0,0,0,0,0,0,0,0,0,0,0,0,0,0,0,0,0,0,0,0,0,0,0,0,0,0,0,0,0,
0,0,0,0,0,0,0,0,0,0,0,0,0,0,0,0,0,787,788,789,790,791,792,793,794,795,796,0,0,0,0,0,0,0,0,0,0,0,0,0,0,0,0,0,0,0,0,0,0,0,0,0,0,0,0,0,0,0,0,0,0,0,0,0,0,0,0,0,0,0,
0,0,0,0,0,0,0,0,0,0,0,0,0,0,0,0,0,812,813,814,815,816,817,818,819,820,821,0,0,0,0,0,0,0,0,0,0,0,0,0,0,0,0,0,0,0,0,0,0,0,0,0,0,0,0,0,0,0,0,0,0,0,0,0,0,0,0,0,0,0,
0,0,0,0,0,0,0,0,0,0,0,0,0,0,0,0,0,837,838,839,840,841,842,843,844,845,846,0,0,0,0,0,0,0,0,0,0,0,0,0,0,0,0,0,0,0,0,0,0,0,0,0,0,0,0,0,0,0,0,0,0,0,0,0,0,0,0,0,0,0,
0,0,0,0,0,0,0,0,0,0,0,0,0,0,0,0,0,862,863,864,865,866,867,868,869,870,871,0,0,0,0,0,0,0,0,0,0,0,0,0,0,0,0,0,0,0,0,0,0,0,0,0,0,0,0,0,0,0,0,0,0,0,0,0,0,0,0,0,0,0,
0,0,0,0,0,0,0,0,0,0,0,0,0,0,0,0,0,887,888,889,890,891,892,893,894,895,896,0,0,0,0,0,0,0,0,0,0,0,0,0,0,0,0,0,0,0,0,0,0,0,0,0,0,0,0,0,0,0,0,0,0,0,0,0,0,0,0,0,0,0,
0,0,0,0,0,0,0,0,0,0,0,0,0,0,0,0,0,912,913,914,915,916,917,918,919,920,921,0,0,0,0,0,0,0,0,0,0,0,0,0,0,0,0,0,0,0,0,0,0,0,0,0,0,0,0,0,0,0,0,0,0,0,0,0,0,0,0,0,0,0,
0,0,0,0,0,0,0,0,0,0,0,0,0,0,0,0,0,0,0,0,0,0,0,0,0,0,0,0,0,0,0,0,0,0,0,0,0,0,0,0,0,0,0,0,0,0,0,0,0,0,0,0,0,0,0,0,0,0,0,0,0,0,0,0,0,0,0,0,0,0,
0,0,0,0,0,0,0,0,0,0,0,0,0,0,0,0,0,0,0,0,0,0,0,0,0,0,0,0,0,0,0,0,0,0,0,0,0,0,0,0,0,0,0,0,0,0,0,0,0,0,0,0,0,0,0,0,0,0,0,0,0,0,0,0,0,0,0,0,0,0,
0,0,0,0,0,0,0,0,0,0,0,0,0,0,0,0,0,0,0,0,0,0,0,0,0,0,0,0,0,0,0,0,0,0,0,0,0,0,0,0,0,0,0,0,0,0,0,0,0,0,0,0,0,0,0,0,0,0,0,0,0,0,0,0,0,0,0,0,0,0,
0,0,0,0,0,0,0,0,0,0,0,0,0,0,0,0,0,0,0,0,0,0,0,0,0,0,0,0,0,0,0,0,0,0,0,0,0,0,0,0,0,0,0,0,0,0,0,0,0,0,0,0,0,0,0,0,0,0,0,0,0,0,0,0,0,0,0,0,0,0,
0,0,0,0,0,0,0,0,0,0,0,0,0,0,0,0,0,0,0,0,0,0,0,0,0,0,0,0,0,0,0,0,0,0,0,0,0,0,0,0,0,0,0,0,0,0,0,0,0,0,0,0,0,0,0,0,0,0,0,0,0,0,0,0,0,0,0,0,0,0,
0,0,0,0,0,0,0,0,0,0,0,0,0,0,0,0,0,0,0,0,0,0,0,0,0,0,0,0,0,0,0,0,0,0,0,0,0,0,0,0,0,0,0,0,0,0,0,0,0,0,0,0,0,0,0,0,0,0,0,0,0,0,0,0,0,0,0,0,0,0,
0,0,0,0,0,0,0,0,0,0,0,0,0,0,0,0,0,0,0,0,0,0,0,0,0,0,0,0,0,0,0,0,0,0,0,0,0,0,0,0,0,0,0,0,0,0,0,0,0,0,0,0,0,0,0,0,0,0,0,0,0,0,0,0,0,0,0,0,0,0,
0,0,0,0,0,0,0,0,0,0,0,0,0,0,0,0,0,0,0,0,0,0,0,0,0,0,0,0,0,0,0,0,0,0,0,0,0,0,0,0,0,0,0,0,0,0,0,0,0,0,0,0,0,0,0,0,0,0,0,0,0,0,0,0,0,0,0,0,0,0,
0,0,0,0,0,0,0,0,0,0,0,0,0,0,0,0,0,0,0,0,0,0,0,0,0,0,0,0,0,0,0,0,0,0,0,0,0,0,0,0,0,0,0,0,0,0,0,0,0,0,0,0,0,0,0,0,0,0,0,0,0,0,0,0,0,0,0,0,0,0,
0,0,0,0,0,0,0,0,0,0,0,0,0,0,0,0,0,0,0,0,0,0,0,0,0,0,0,0,0,0,0,0,0,0,0,0,0,0,0,0,0,0,0,0,0,0,0,0,0,0,0,0,0,0,0,0,0,0,0,0,0,0,0,0,0,0,0,0,0,0,
0,0,0,0,0,0,0,0,0,0,0,0,0,0,0,0,0,0,0,0,0,0,0,0,0,0,0,0,0,0,0,0,0,0,0,0,0,0,0,0,0,0,0,0,0,0,0,0,0,0,0,0,0,0,0,0,0,0,0,0,0,0,0,0,0,0,0,0,0,0,
0,0,0,0,0,0,0,0,0,0,0,0,0,0,0,0,0,0,0,0,0,0,0,0,0,0,0,0,0,0,0,0,0,0,0,0,0,0,0,0,0,0,0,0,0,0,0,0,0,0,0,0,0,0,0,0,0,0,0,0,0,0,0,0,0,0,0,0,0,0,
0,0,0,0,0,0,0,0,0,0,0,0,0,0,0,0,0,0,0,0,0,0,0,0,0,0,0,0,0,0,0,0,0,0,0,0,0,0,0,0,0,0,0,0,0,0,0,0,0,0,0,0,0,0,0,0,0,0,0,0,0,0,0,0,0,0,0,0,0,0,
0,0,0,0,0,0,0,0,0,0,0,0,0,0,0,0,0,0,0,0,0,0,0,0,0,0,0,0,0,0,0,0,0,0,0,0,0,0,0,0,0,0,0,0,0,0,0,0,0,0,0,0,0,0,0,0,0,0,0,0,0,0,0,0,0,0,0,0,0,0,
0,0,0,0,0,0,0,0,0,0,0,0,0,0,0,0,0,0,0,0,0,0,0,0,0,0,0,0,0,0,0,0,0,0,0,0,0,0,0,0,0,0,0,0,0,0,0,0,0,0,0,0,0,0,0,0,0,0,0,0,0,0,0,0,0,0,0,0,0,0,
0,0,0,0,0,0,0,0,0,0,0,0,0,0,0,0,0,0,0,0,0,0,0,0,0,0,0,0,0,0,0,0,0,0,0,0,0,0,0,0,0,0,0,0,0,0,0,0,0,0,0,0,0,0,0,0,0,0,0,0,0,0,0,0,0,0,0,0,0,0,
0,0,0,0,0,0,0,0,0,0,0,0,0,0,0,0,0,0,0,0,0,0,0,0,0,0,0,0,0,0,0,0,0,0,0,0,0,0,0,0,0,0,0,0,0,0,0,0,0,0,0,0,0,0,0,0,0,0,0,0,0,0,0,0,0,0,0,0,0,0,
0,0,0,0,0,0,0,0,0,0,0,0,0,0,0,0,0,0,0,0,0,0,0,0,0,0,0,0,0,0,0,0,0,0,0,0,0,0,0,0,0,0,0,0,0,0,0,0,0,0,0,0,0,0,0,0,0,0,0,0,0,0,0,0,0,0,0,0,0,0,
0,0,0,0,0,0,0,0,0,0,0,0,0,0,0,0,0,0,0,0,0,0,0,0,0,0,0,0,0,0,0,0,0,0,0,0,0,0,0,0,0,0,0,0,0,0,0,0,0,0,0,0,0,0,0,0,0,0,0,0,0,0,0,0,0,0,0,0,0,0,
0,0,0,0,0,0,0,0,0,0,0,0,0,0,0,0,0,0,0,0,0,0,0,0,0,0,0,0,0,0,0,0,0,0,0,0,0,0,0,0,0,0,0,0,0,0,0,0,0,0,0,0,0,0,0,0,0,0,0,0,0,0,0,0,0,0,0,0,0,0,
0,0,0,0,0,0,0,0,0,0,0,0,0,0,0,0,0,0,0,0,0,0,0,0,0,0,0,0,0,0,0,0,0,0,0,0,0,0,0,0,0,0,0,0,0,0,0,0,0,0,0,0,0,0,0,0,0,0,0,0,0,0,0,0,0,0,0,0,0,0,
0,0,0,0,0,0,0,0,0,0,0,0,0,0,0,0,0,0,0,0,0,0,0,0,0,0,0,0,0,0,0,0,0,0,0,0,0,0,0,0,0,0,0,0,0,0,0,0,0,0,0,0,0,0,0,0,0,0,0,0,0,0,0,0,0,0,0,0,0,0,
0,0,0,0,0,0,0,0,0,0,0,0,0,0,0,0,0,0,0,0,0,0,0,0,0,0,0,0,0,0,0,0,0,0,0,0,0,0,0,0,0,0,0,0,0,0,0,0,0,0,0,0,0,0,0,0,0,0,0,0,0,0,0,0,0,0,0,0,0,0,
0,0,0,0,0,0,0,0,0,0,0,0,0,0,0,0,0,0,0,0,0,0,0,0,0,0,0,0,0,0,0,0,0,0,0,0,0,0,0,0,0,0,0,0,0,0,0,0,0,0,0,0,0,0,0,0,0,0,0,0,0,0,0,0,0,0,0,0,0,0,
0,0,0,0,0,0,0,0,0,0,0,0,0,0,0,0,0,0,0,0,0,0,0,0,0,0,0,0,0,0,0,0,0,0,0,0,0,0,0,0,0,0,0,0,0,0,0,0,0,0,0,0,0,0,0,0,0,0,0,0,0,0,0,0,0,0,0,0,0,0,
0,0,0,0,0,0,0,0,0,0,0,0,0,0,0,0,0,0,0,0,0,0,0,0,0,0,0,0,0,0,0,0,0,0,0,0,0,0,0,0,0,0,0,0,0,0,0,0,0,0,0,0,0,0,0,0,0,0,0,0,0,0,0,0,0,0,0,0,0,0,
0,0,0,0,0,0,0,0,0,0,0,0,0,0,0,0,0,0,0,0,0,0,0,0,0,0,0,0,0,0,0,0,0,0,0,0,0,0,0,0,0,0,0,0,0,0,0,0,0,0,0,0,0,0,0,0,0,0,0,0,0,0,0,0,0,0,0,0,0,0,
0,0,0,0,0,0,0,0,0,0,0,0,0,0,0,0,0,0,0,0,0,0,0,0,0,0,0,0,0,0,0,0,0,0,0,0,0,0,0,0,0,0,0,0,0,0,0,0,0,0,0,0,0,0,0,0,0,0,0,0,0,0,0,0,0,0,0,0,0,0,
0,0,0,0,0,0,0,0,0,0,0,0,0,0,0,0,0,0,0,0,0,0,0,0,0,0,0,0,0,0,0,0,0,0,0,0,0,0,0,0,0,0,0,0,0,0,0,0,0,0,0,0,0,0,0,0,0,0,0,0,0,0,0,0,0,0,0,0,0,0,
0,0,0,0,0,0,0,0,0,0,0,0,0,0,0,0,0,0,0,0,0,0,0,0,0,0,0,0,0,0,0,0,0,0,0,0,0,0,0,0,0,0,0,0,0,0,0,0,0,0,0,0,0,0,0,0,0,0,0,0,0,0,0,0,0,0,0,0,0,0,
0,0,0,0,0,0,0,0,0,0,0,0,0,0,0,0,0,0,0,0,0,0,0,0,0,0,0,0,0,0,0,0,0,0,0,0,0,0,0,0,0,0,0,0,0,0,0,0,0,0,0,0,0,0,0,0,0,0,0,0,0,0,0,0,0,0,0,0,0,0,
0,0,0,0,0,0,0,0,0,0,0,0,0,0,0,0,0,0,0,0,0,0,0,0,0,0,0,0,0,0,0,0,0,0,0,0,0,0,0,0,0,0,0,0,0,0,0,0,0,0,0,0,0,0,0,0,0,0,0,0,0,0,0,0,0,0,0,0,0,0,
0,0,0,0,0,0,0,0,0,0,0,0,0,0,0,0,0,0,0,0,0,0,0,0,0,0,0,0,0,0,0,0,0,0,0,0,0,0,0,0,0,0,0,0,0,0,0,0,0,0,0,0,0,0,0,0,0,0,0,0,0,0,0,0,0,0,0,0,0,0,
0,0,0,0,0,0,0,0,0,0,0,0,0,0,0,0,0,0,0,0,0,0,0,0,0,0,0,0,0,0,0,0,0,0,0,0,0,0,0,0,0,0,0,0,0,0,0,0,0,0,0,0,0,0,0,0,0,0,0,0,0,0,0,0,0,0,0,0,0,0,
0,0,0,0,0,0,0,0,0,0,0,0,0,0,0,0,0,0,0,0,0,0,0,0,0,0,0,0,0,0,0,0,0,0,0,0,0,0,0,0,0,0,0,0,0,0,0,0,0,0,0,0,0,0,0,0,0,0,0,0,0,0,0,0,0,0,0,0,0,0,
0,0,0,0,0,0,0,0,0,0,0,0,0,0,0,0,0,0,0,0,0,0,0,0,0,0,0,0,0,0,0,0,0,0,0,0,0,0,0,0,0,0,0,0,0,0,0,0,0,0,0,0,0,0,0,0,0,0,0,0,0,0,0,0,0,0,0,0,0,0,
0,0,0,0,0,0,0,0,0,0,0,0,0,0,0,0,0,0,0,0,0,0,0,0,0,0,0,0,0,0,0,0,0,0,0,0,0,0,0,0,0,0,0,0,0,0,0,0,0,0,0,0,0,0,0,0,0,0,0,0,0,0,0,0,0,0,0,0,0,0
</data>
 </layer>
 <objectgroup id="5" name="grass">
  <object id="133" gid="306" x="80" y="304" width="16" height="16"/>
  <object id="134" gid="306" x="80" y="320" width="16" height="16"/>
  <object id="135" gid="306" x="96" y="352" width="16" height="16"/>
  <object id="136" gid="306" x="128" y="368" width="16" height="16"/>
  <object id="137" gid="306" x="128" y="368" width="16" height="16"/>
  <object id="138" gid="306" x="112" y="304" width="16" height="16"/>
  <object id="139" gid="306" x="96" y="304" width="16" height="16"/>
  <object id="140" gid="306" x="144" y="368" width="16" height="16"/>
  <object id="141" gid="306" x="112" y="336" width="16" height="16"/>
  <object id="142" gid="306" x="64" y="336" width="16" height="16"/>
  <object id="143" gid="306" x="32" y="352" width="16" height="16"/>
  <object id="144" gid="306" x="48" y="368" width="16" height="16"/>
  <object id="145" gid="306" x="64" y="384" width="16" height="16"/>
  <object id="146" gid="306" x="80" y="384" width="16" height="16"/>
  <object id="147" gid="306" x="64" y="336" width="16" height="16"/>
  <object id="148" gid="306" x="64" y="352" width="16" height="16"/>
  <object id="149" gid="306" x="80" y="352" width="16" height="16"/>
  <object id="153" gid="306" x="0" y="416" width="16" height="16"/>
  <object id="154" gid="306" x="0" y="416" width="16" height="16"/>
  <object id="160" gid="306" x="16" y="576" width="16" height="16"/>
  <object id="165" gid="306" x="0" y="576" width="16" height="16"/>
  <object id="168" gid="306" x="144" y="736" width="16" height="16"/>
  <object id="169" gid="306" x="80" y="688" width="16" height="16"/>
  <object id="170" gid="306" x="16" y="672" width="16" height="16"/>
  <object id="171" gid="306" x="16" y="704" width="16" height="16"/>
  <object id="173" gid="306" x="64" y="704" width="16" height="16"/>
  <object id="189" gid="306" x="560" y="720" width="16" height="16"/>
  <object id="191" gid="306" x="816" y="640" width="16" height="16"/>
  <object id="192" gid="306" x="768" y="640" width="16" height="16"/>
  <object id="193" gid="306" x="640" y="624" width="16" height="16"/>
  <object id="194" gid="306" x="608" y="672" width="16" height="16"/>
  <object id="195" gid="306" x="624" y="720" width="16" height="16"/>
  <object id="198" gid="306" x="672" y="640" width="16" height="16"/>
  <object id="199" gid="306" x="640" y="592" width="16" height="16"/>
  <object id="200" gid="306" x="640" y="480" width="16" height="16"/>
  <object id="201" gid="306" x="656" y="496" width="16" height="16"/>
  <object id="202" gid="306" x="432" y="48" width="16" height="16"/>
  <object id="203" gid="306" x="432" y="48" width="16" height="16"/>
  <object id="204" gid="306" x="496" y="112" width="16" height="16"/>
  <object id="205" gid="306" x="480" y="96" width="16" height="16"/>
  <object id="206" gid="306" x="464" y="80" width="16" height="16"/>
  <object id="207" gid="306" x="448" y="128" width="16" height="16"/>
  <object id="208" gid="306" x="448" y="128" width="16" height="16"/>
  <object id="209" gid="306" x="208" y="96" width="16" height="16"/>
  <object id="210" gid="306" x="160" y="128" width="16" height="16"/>
  <object id="211" gid="306" x="96" y="192" width="16" height="16"/>
  <object id="212" gid="306" x="80" y="176" width="16" height="16"/>
  <object id="213" gid="306" x="80" y="160" width="16" height="16"/>
  <object id="214" gid="306" x="80" y="160" width="16" height="16"/>
  <object id="215" gid="306" x="48" y="96" width="16" height="16"/>
  <object id="220" gid="306" x="64" y="224" width="16" height="16"/>
  <object id="221" gid="306" x="80" y="224" width="16" height="16"/>
  <object id="222" gid="306" x="112" y="256" width="16" height="16"/>
  <object id="223" gid="306" x="176" y="272" width="16" height="16"/>
  <object id="224" gid="306" x="240" y="272" width="16" height="16"/>
  <object id="225" gid="306" x="288" y="320" width="16" height="16"/>
  <object id="226" gid="306" x="288" y="352" width="16" height="16"/>
  <object id="227" gid="306" x="336" y="368" width="16" height="16"/>
  <object id="228" gid="306" x="704" y="320" width="16" height="16"/>
  <object id="229" gid="306" x="720" y="352" width="16" height="16"/>
  <object id="230" gid="306" x="448" y="464" width="16" height="16"/>
  <object id="274" gid="306" x="176" y="352" width="16" height="16"/>
  <object id="275" gid="306" x="144" y="368" width="16" height="16"/>
  <object id="276" gid="306" x="144" y="384" width="16" height="16"/>
  <object id="277" gid="306" x="176" y="384" width="16" height="16"/>
  <object id="278" gid="306" x="192" y="384" width="16" height="16"/>
  <object id="279" gid="306" x="144" y="368" width="16" height="16"/>
  <object id="280" gid="306" x="160" y="368" width="16" height="16"/>
  <object id="281" gid="306" x="176" y="368" width="16" height="16"/>
  <object id="282" gid="306" x="192" y="384" width="16" height="16"/>
  <object id="283" gid="306" x="192" y="384" width="16" height="16"/>
  <object id="284" gid="306" x="176" y="384" width="16" height="16"/>
  <object id="285" gid="306" x="160" y="400" width="16" height="16"/>
  <object id="286" gid="306" x="192" y="400" width="16" height="16"/>
  <object id="287" gid="306" x="208" y="400" width="16" height="16"/>
  <object id="289" gid="306" x="432" y="400" width="16" height="16"/>
  <object id="290" gid="306" x="416" y="400" width="16" height="16"/>
  <object id="291" gid="306" x="400" y="384" width="16" height="16"/>
  <object id="292" gid="306" x="400" y="384" width="16" height="16"/>
  <object id="293" gid="306" x="384" y="384" width="16" height="16"/>
  <object id="331" gid="306" x="176" y="400" width="16" height="16"/>
  <object id="332" gid="306" x="176" y="432" width="16" height="16"/>
  <object id="333" gid="306" x="176" y="416" width="16" height="16"/>
  <object id="334" gid="306" x="192" y="416" width="16" height="16"/>
  <object id="335" gid="306" x="208" y="416" width="16" height="16"/>
  <object id="336" gid="306" x="160" y="384" width="16" height="16"/>
  <object id="337" gid="306" x="192" y="368" width="16" height="16"/>
  <object id="338" gid="306" x="144" y="352" width="16" height="16"/>
  <object id="339" gid="306" x="160" y="352" width="16" height="16"/>
  <object id="340" gid="306" x="128" y="352" width="16" height="16"/>
  <object id="341" gid="306" x="128" y="336" width="16" height="16"/>
  <object id="342" gid="306" x="96" y="320" width="16" height="16"/>
  <object id="343" gid="306" x="112" y="320" width="16" height="16"/>
  <object id="344" gid="306" x="96" y="336" width="16" height="16"/>
  <object id="345" gid="306" x="176" y="368" width="16" height="16"/>
  <object id="346" gid="306" x="192" y="352" width="16" height="16"/>
  <object id="347" gid="306" x="160" y="336" width="16" height="16"/>
  <object id="348" gid="306" x="192" y="336" width="16" height="16"/>
  <object id="349" gid="306" x="176" y="336" width="16" height="16"/>
  <object id="350" gid="306" x="240" y="256" width="16" height="16"/>
  <object id="351" gid="306" x="224" y="272" width="16" height="16"/>
  <object id="352" gid="306" x="224" y="272" width="16" height="16"/>
  <object id="353" gid="306" x="240" y="288" width="16" height="16"/>
  <object id="354" gid="306" x="256" y="304" width="16" height="16"/>
  <object id="355" gid="306" x="256" y="304" width="16" height="16"/>
  <object id="356" gid="306" x="256" y="272" width="16" height="16"/>
  <object id="360" gid="305" x="128" y="320" width="16" height="16"/>
  <object id="361" gid="305" x="144" y="336" width="16" height="16"/>
  <object id="362" gid="305" x="80" y="336" width="16" height="16"/>
  <object id="363" gid="305" x="112" y="352" width="16" height="16"/>
  <object id="364" gid="305" x="48" y="384" width="16" height="16"/>
  <object id="365" gid="305" x="32" y="368" width="16" height="16"/>
  <object id="366" gid="305" x="32" y="352" width="16" height="16"/>
  <object id="367" gid="305" x="48" y="352" width="16" height="16"/>
  <object id="368" gid="305" x="32" y="336" width="16" height="16"/>
  <object id="369" gid="305" x="256" y="288" width="16" height="16"/>
  <object id="370" gid="305" x="272" y="304" width="16" height="16"/>
  <object id="371" gid="305" x="240" y="304" width="16" height="16"/>
  <object id="372" gid="305" x="256" y="320" width="16" height="16"/>
  <object id="373" gid="305" x="288" y="320" width="16" height="16"/>
  <object id="374" gid="305" x="272" y="320" width="16" height="16"/>
  <object id="375" gid="305" x="272" y="336" width="16" height="16"/>
  <object id="376" gid="305" x="288" y="336" width="16" height="16"/>
  <object id="377" gid="305" x="304" y="320" width="16" height="16"/>
  <object id="378" gid="305" x="304" y="352" width="16" height="16"/>
  <object id="379" gid="305" x="304" y="352" width="16" height="16"/>
  <object id="380" gid="305" x="304" y="336" width="16" height="16"/>
  <object id="381" gid="305" x="304" y="368" width="16" height="16"/>
  <object id="382" gid="305" x="336" y="368" width="16" height="16"/>
  <object id="383" gid="305" x="328.667" y="455.333" width="16" height="16"/>
  <object id="384" gid="305" x="320" y="384" width="16" height="16"/>
  <object id="385" gid="305" x="320" y="368" width="16" height="16"/>
  <object id="386" gid="305" x="336" y="368" width="16" height="16"/>
  <object id="387" gid="305" x="336" y="384" width="16" height="16"/>
  <object id="388" gid="305" x="336" y="384" width="16" height="16"/>
  <object id="389" gid="305" x="352" y="400" width="16" height="16"/>
  <object id="390" gid="305" x="352" y="400" width="16" height="16"/>
  <object id="391" gid="305" x="352" y="400" width="16" height="16"/>
  <object id="392" gid="305" x="352" y="368" width="16" height="16"/>
  <object id="393" gid="305" x="352" y="384" width="16" height="16"/>
  <object id="394" gid="305" x="368" y="400" width="16" height="16"/>
  <object id="395" gid="305" x="368" y="416" width="16" height="16"/>
  <object id="396" gid="305" x="336" y="416" width="16" height="16"/>
  <object id="397" gid="305" x="336" y="400" width="16" height="16"/>
  <object id="398" gid="305" x="288" y="448" width="16" height="16"/>
  <object id="399" gid="305" x="304" y="448" width="16" height="16"/>
  <object id="400" gid="305" x="304" y="448" width="16" height="16"/>
  <object id="401" gid="305" x="304" y="432" width="16" height="16"/>
  <object id="402" gid="305" x="320" y="448" width="16" height="16"/>
  <object id="403" gid="305" x="288" y="432" width="16" height="16"/>
  <object id="404" gid="305" x="272" y="432" width="16" height="16"/>
  <object id="405" gid="305" x="256" y="448" width="16" height="16"/>
  <object id="406" gid="305" x="256" y="464" width="16" height="16"/>
  <object id="407" gid="305" x="272" y="464" width="16" height="16"/>
  <object id="408" gid="305" x="288" y="464" width="16" height="16"/>
  <object id="409" gid="305" x="288" y="480" width="16" height="16"/>
  <object id="410" gid="305" x="304" y="464" width="16" height="16"/>
  <object id="411" gid="305" x="336" y="464" width="16" height="16"/>
  <object id="412" gid="305" x="272" y="448" width="16" height="16"/>
  <object id="413" gid="305" x="288" y="448" width="16" height="16"/>
  <object id="414" gid="305" x="320" y="480" width="16" height="16"/>
  <object id="415" gid="305" x="320" y="480" width="16" height="16"/>
  <object id="416" gid="305" x="320" y="496" width="16" height="16"/>
  <object id="417" gid="305" x="304" y="480" width="16" height="16"/>
  <object id="418" gid="305" x="304" y="496" width="16" height="16"/>
  <object id="419" gid="305" x="320" y="464" width="16" height="16"/>
  <object id="420" gid="305" x="336" y="480" width="16" height="16"/>
  <object id="421" gid="305" x="336" y="496" width="16" height="16"/>
  <object id="422" gid="305" x="320" y="512" width="16" height="16"/>
  <object id="423" gid="305" x="352" y="496" width="16" height="16"/>
  <object id="424" gid="305" x="256" y="432" width="16" height="16"/>
  <object id="425" gid="305" x="256" y="416" width="16" height="16"/>
  <object id="426" gid="305" x="256" y="224" width="16" height="16"/>
  <object id="427" gid="305" x="240" y="240" width="16" height="16"/>
  <object id="428" gid="305" x="160" y="128" width="16" height="16"/>
  <object id="429" gid="305" x="128" y="144" width="16" height="16"/>
  <object id="430" gid="305" x="160" y="128" width="16" height="16"/>
  <object id="431" gid="305" x="144" y="128" width="16" height="16"/>
  <object id="432" gid="305" x="144" y="144" width="16" height="16"/>
  <object id="433" gid="305" x="128" y="144" width="16" height="16"/>
  <object id="434" gid="305" x="112" y="176" width="16" height="16"/>
  <object id="435" gid="305" x="112" y="176" width="16" height="16"/>
  <object id="436" gid="305" x="96" y="160" width="16" height="16"/>
  <object id="437" gid="305" x="96" y="160" width="16" height="16"/>
  <object id="438" gid="305" x="96" y="176" width="16" height="16"/>
  <object id="439" gid="305" x="96" y="176" width="16" height="16"/>
  <object id="440" gid="305" x="112" y="160" width="16" height="16"/>
  <object id="441" gid="305" x="112" y="176" width="16" height="16"/>
  <object id="442" gid="305" x="128" y="160" width="16" height="16"/>
  <object id="443" gid="305" x="96" y="144" width="16" height="16"/>
  <object id="444" gid="305" x="112" y="144" width="16" height="16"/>
  <object id="445" gid="305" x="112" y="144" width="16" height="16"/>
  <object id="446" gid="305" x="128" y="128" width="16" height="16"/>
  <object id="447" gid="305" x="176" y="128" width="16" height="16"/>
  <object id="448" gid="305" x="192" y="128" width="16" height="16"/>
  <object id="450" gid="305" x="272" y="672" width="16" height="16"/>
  <object id="451" gid="305" x="224" y="624" width="16" height="16"/>
  <object id="452" gid="305" x="192" y="608" width="16" height="16"/>
  <object id="453" gid="305" x="208" y="640" width="16" height="16"/>
  <object id="454" gid="305" x="224" y="656" width="16" height="16"/>
  <object id="455" gid="305" x="240" y="656" width="16" height="16"/>
  <object id="456" gid="305" x="256" y="672" width="16" height="16"/>
  <object id="457" gid="305" x="256" y="672" width="16" height="16"/>
  <object id="458" gid="305" x="256" y="640" width="16" height="16"/>
  <object id="478" gid="305" x="624" y="720" width="16" height="16"/>
  <object id="479" gid="305" x="640" y="720" width="16" height="16"/>
  <object id="480" gid="305" x="640" y="704" width="16" height="16"/>
  <object id="481" gid="305" x="640" y="688" width="16" height="16"/>
  <object id="482" gid="305" x="624" y="704" width="16" height="16"/>
  <object id="483" gid="305" x="608" y="704" width="16" height="16"/>
  <object id="484" gid="305" x="592" y="720" width="16" height="16"/>
  <object id="485" gid="305" x="608" y="720" width="16" height="16"/>
  <object id="486" gid="305" x="576" y="720" width="16" height="16"/>
  <object id="487" gid="305" x="608" y="704" width="16" height="16"/>
  <object id="488" gid="305" x="592" y="704" width="16" height="16"/>
  <object id="489" gid="305" x="608" y="672" width="16" height="16"/>
  <object id="490" gid="305" x="592" y="688" width="16" height="16"/>
  <object id="491" gid="305" x="656" y="608" width="16" height="16"/>
  <object id="492" gid="305" x="640" y="608" width="16" height="16"/>
  <object id="493" gid="305" x="656" y="624" width="16" height="16"/>
  <object id="494" gid="305" x="656" y="640" width="16" height="16"/>
  <object id="495" gid="305" x="624" y="592" width="16" height="16"/>
  <object id="496" gid="305" x="624" y="592" width="16" height="16"/>
  <object id="497" gid="305" x="624" y="608" width="16" height="16"/>
  <object id="498" gid="305" x="608" y="608" width="16" height="16"/>
  <object id="499" gid="305" x="608" y="592" width="16" height="16"/>
  <object id="500" gid="305" x="608" y="592" width="16" height="16"/>
  <object id="501" gid="305" x="592" y="608" width="16" height="16"/>
  <object id="502" gid="305" x="592" y="592" width="16" height="16"/>
  <object id="503" gid="305" x="592" y="624" width="16" height="16"/>
  <object id="504" gid="305" x="608" y="624" width="16" height="16"/>
  <object id="505" gid="305" x="640" y="624" width="16" height="16"/>
  <object id="506" gid="305" x="720" y="608" width="16" height="16"/>
  <object id="507" gid="305" x="736" y="608" width="16" height="16"/>
  <object id="508" gid="305" x="752" y="624" width="16" height="16"/>
  <object id="509" gid="305" x="768" y="640" width="16" height="16"/>
  <object id="511" gid="305" x="784" y="640" width="16" height="16"/>
  <object id="512" gid="305" x="768" y="624" width="16" height="16"/>
  <object id="513" gid="305" x="752" y="608" width="16" height="16"/>
  <object id="514" gid="305" x="752" y="592" width="16" height="16"/>
  <object id="515" gid="305" x="736" y="592" width="16" height="16"/>
  <object id="516" gid="305" x="720" y="592" width="16" height="16"/>
  <object id="517" gid="305" x="736" y="576" width="16" height="16"/>
  <object id="518" gid="305" x="736" y="576" width="16" height="16"/>
  <object id="519" gid="305" x="736" y="576" width="16" height="16"/>
  <object id="520" gid="305" x="384" y="400" width="16" height="16"/>
  <object id="521" gid="305" x="400" y="400" width="16" height="16"/>
  <object id="541" gid="305" x="48" y="224" width="16" height="16"/>
  <object id="542" gid="305" x="48" y="208" width="16" height="16"/>
  <object id="543" gid="305" x="48" y="208" width="16" height="16"/>
  <object id="544" gid="305" x="32" y="208" width="16" height="16"/>
  <object id="545" gid="305" x="16" y="224" width="16" height="16"/>
  <object id="546" gid="305" x="48" y="240" width="16" height="16"/>
  <object id="547" gid="305" x="48" y="240" width="16" height="16"/>
  <object id="548" gid="305" x="32" y="240" width="16" height="16"/>
  <object id="549" gid="305" x="16" y="240" width="16" height="16"/>
  <object id="551" gid="305" x="480" y="368" width="16" height="16"/>
  <object id="552" gid="305" x="496" y="368" width="16" height="16"/>
  <object id="553" gid="305" x="496" y="352" width="16" height="16"/>
  <object id="554" gid="305" x="464" y="352" width="16" height="16"/>
  <object id="555" gid="305" x="464" y="368" width="16" height="16"/>
  <object id="556" gid="305" x="480" y="352" width="16" height="16"/>
  <object id="557" gid="305" x="464" y="336" width="16" height="16"/>
  <object id="562" gid="305" x="848" y="688" width="16" height="16"/>
  <object id="565" gid="305" x="848" y="672" width="16" height="16"/>
  <object id="582" gid="306" x="290.167" y="303.5" width="16" height="16"/>
  <object id="583" gid="306" x="338.167" y="351.5" width="16" height="16"/>
  <object id="584" gid="306" x="338.167" y="383.5" width="16" height="16"/>
  <object id="585" gid="306" x="290.167" y="287.5" width="16" height="16"/>
  <object id="586" gid="306" x="274.167" y="303.5" width="16" height="16"/>
  <object id="587" gid="306" x="274.167" y="303.5" width="16" height="16"/>
  <object id="588" gid="306" x="290.167" y="319.5" width="16" height="16"/>
  <object id="589" gid="306" x="306.167" y="335.5" width="16" height="16"/>
  <object id="590" gid="306" x="306.167" y="335.5" width="16" height="16"/>
  <object id="591" gid="306" x="306.167" y="303.5" width="16" height="16"/>
  <object id="592" gid="305" x="306.167" y="319.5" width="16" height="16"/>
  <object id="593" gid="305" x="322.167" y="335.5" width="16" height="16"/>
  <object id="594" gid="305" x="290.167" y="335.5" width="16" height="16"/>
  <object id="595" gid="305" x="306.167" y="351.5" width="16" height="16"/>
  <object id="596" gid="305" x="338.167" y="351.5" width="16" height="16"/>
  <object id="597" gid="305" x="322.167" y="351.5" width="16" height="16"/>
  <object id="598" gid="305" x="322.167" y="367.5" width="16" height="16"/>
  <object id="599" gid="305" x="338.167" y="367.5" width="16" height="16"/>
  <object id="600" gid="305" x="354.167" y="351.5" width="16" height="16"/>
  <object id="601" gid="305" x="354.167" y="383.5" width="16" height="16"/>
  <object id="602" gid="305" x="354.167" y="383.5" width="16" height="16"/>
  <object id="603" gid="305" x="354.167" y="367.5" width="16" height="16"/>
  <object id="604" gid="305" x="370.167" y="383.5" width="16" height="16"/>
  <object id="605" gid="305" x="290.167" y="271.5" width="16" height="16"/>
  <object id="606" gid="160" x="247.167" y="293.5" width="16" height="16"/>
  <object id="607" gid="160" x="335.167" y="392.5" width="16" height="16"/>
  <object id="608" gid="160" x="294.167" y="380.5" width="16" height="16"/>
  <object id="609" gid="160" x="263.167" y="309.5" width="16" height="16"/>
  <object id="610" gid="131" x="281.167" y="379.5" width="16" height="16"/>
  <object id="611" gid="131" x="266.667" y="313.5" width="16" height="16"/>
  <object id="652" gid="305" x="331.333" y="504" width="16" height="16"/>
  <object id="680" gid="305" x="841" y="687" width="16" height="16"/>
  <object id="681" gid="305" x="841" y="703" width="16" height="16"/>
  <object id="682" gid="306" x="656" y="640" width="16" height="16"/>
  <object id="683" gid="306" x="672" y="624" width="16" height="16"/>
  <object id="684" gid="306" x="720" y="608" width="16" height="16"/>
  <object id="685" gid="305" x="672" y="640" width="16" height="16"/>
  <object id="686" gid="305" x="672" y="656" width="16" height="16"/>
  <object id="687" gid="305" x="672" y="672" width="16" height="16"/>
  <object id="688" gid="305" x="688" y="672" width="16" height="16"/>
  <object id="689" gid="305" x="688" y="672" width="16" height="16"/>
  <object id="690" gid="305" x="688" y="640" width="16" height="16"/>
  <object id="691" gid="305" x="688" y="656" width="16" height="16"/>
  <object id="692" gid="305" x="704" y="672" width="16" height="16"/>
  <object id="693" gid="305" x="704" y="640" width="16" height="16"/>
  <object id="694" gid="305" x="704" y="672" width="16" height="16"/>
  <object id="695" gid="305" x="720" y="656" width="16" height="16"/>
  <object id="696" gid="305" x="704" y="656" width="16" height="16"/>
  <object id="697" gid="305" x="704" y="704" width="16" height="16"/>
  <object id="698" gid="305" x="704" y="688" width="16" height="16"/>
  <object id="699" gid="305" x="704" y="704" width="16" height="16"/>
  <object id="700" gid="305" x="720" y="704" width="16" height="16"/>
  <object id="701" gid="305" x="720" y="672" width="16" height="16"/>
  <object id="702" gid="305" x="720" y="656" width="16" height="16"/>
  <object id="704" gid="305" x="704" y="608" width="16" height="16"/>
  <object id="705" gid="305" x="736" y="640" width="16" height="16"/>
  <object id="706" gid="305" x="720" y="640" width="16" height="16"/>
  <object id="707" gid="305" x="736" y="608" width="16" height="16"/>
  <object id="708" gid="305" x="736" y="624" width="16" height="16"/>
  <object id="709" gid="305" x="752" y="624" width="16" height="16"/>
  <object id="710" gid="305" x="752" y="640" width="16" height="16"/>
  <object id="711" gid="306" x="665" y="655" width="16" height="16"/>
  <object id="712" gid="306" x="681" y="639" width="16" height="16"/>
  <object id="713" gid="306" x="729" y="623" width="16" height="16"/>
  <object id="714" gid="305" x="681" y="655" width="16" height="16"/>
  <object id="715" gid="305" x="681" y="671" width="16" height="16"/>
  <object id="716" gid="305" x="681" y="687" width="16" height="16"/>
  <object id="717" gid="305" x="697" y="687" width="16" height="16"/>
  <object id="718" gid="305" x="697" y="687" width="16" height="16"/>
  <object id="719" gid="305" x="697" y="655" width="16" height="16"/>
  <object id="720" gid="305" x="697" y="671" width="16" height="16"/>
  <object id="721" gid="305" x="713" y="687" width="16" height="16"/>
  <object id="722" gid="305" x="713" y="655" width="16" height="16"/>
  <object id="723" gid="305" x="713" y="687" width="16" height="16"/>
  <object id="724" gid="305" x="729" y="671" width="16" height="16"/>
  <object id="725" gid="305" x="713" y="671" width="16" height="16"/>
  <object id="726" gid="305" x="713" y="719" width="16" height="16"/>
  <object id="727" gid="305" x="713" y="703" width="16" height="16"/>
  <object id="728" gid="305" x="713" y="719" width="16" height="16"/>
  <object id="729" gid="305" x="729" y="719" width="16" height="16"/>
  <object id="730" gid="305" x="729" y="687" width="16" height="16"/>
  <object id="731" gid="305" x="729" y="671" width="16" height="16"/>
  <object id="732" gid="305" x="729" y="703" width="16" height="16"/>
  <object id="733" gid="305" x="713" y="623" width="16" height="16"/>
  <object id="734" gid="305" x="745" y="655" width="16" height="16"/>
  <object id="735" gid="305" x="729" y="655" width="16" height="16"/>
  <object id="736" gid="305" x="745" y="623" width="16" height="16"/>
  <object id="737" gid="305" x="745" y="639" width="16" height="16"/>
  <object id="738" gid="306" x="1024" y="576" width="16" height="16"/>
  <object id="739" gid="306" x="1040" y="560" width="16" height="16"/>
  <object id="740" gid="306" x="1088" y="544" width="16" height="16"/>
  <object id="741" gid="305" x="1040" y="576" width="16" height="16"/>
  <object id="742" gid="305" x="1040" y="592" width="16" height="16"/>
  <object id="743" gid="305" x="1040" y="608" width="16" height="16"/>
  <object id="744" gid="305" x="1056" y="608" width="16" height="16"/>
  <object id="745" gid="305" x="1056" y="608" width="16" height="16"/>
  <object id="746" gid="305" x="1056" y="576" width="16" height="16"/>
  <object id="747" gid="305" x="1056" y="592" width="16" height="16"/>
  <object id="748" gid="305" x="1072" y="608" width="16" height="16"/>
  <object id="749" gid="305" x="1072" y="576" width="16" height="16"/>
  <object id="750" gid="305" x="1072" y="608" width="16" height="16"/>
  <object id="751" gid="305" x="1088" y="592" width="16" height="16"/>
  <object id="752" gid="305" x="1072" y="592" width="16" height="16"/>
  <object id="753" gid="305" x="1072" y="640" width="16" height="16"/>
  <object id="754" gid="305" x="1072" y="624" width="16" height="16"/>
  <object id="755" gid="305" x="1072" y="640" width="16" height="16"/>
  <object id="756" gid="305" x="1088" y="640" width="16" height="16"/>
  <object id="757" gid="305" x="1088" y="608" width="16" height="16"/>
  <object id="758" gid="305" x="1088" y="592" width="16" height="16"/>
  <object id="759" gid="305" x="1088" y="720" width="16" height="16"/>
  <object id="760" gid="305" x="1072" y="544" width="16" height="16"/>
  <object id="761" gid="305" x="1104" y="576" width="16" height="16"/>
  <object id="762" gid="305" x="1088" y="576" width="16" height="16"/>
  <object id="763" gid="305" x="1104" y="544" width="16" height="16"/>
  <object id="764" gid="305" x="1104" y="560" width="16" height="16"/>
  <object id="765" gid="305" x="1120" y="560" width="16" height="16"/>
  <object id="766" gid="305" x="1120" y="576" width="16" height="16"/>
  <object id="767" gid="306" x="1033" y="591" width="16" height="16"/>
  <object id="768" gid="306" x="1049" y="575" width="16" height="16"/>
  <object id="769" gid="306" x="1097" y="559" width="16" height="16"/>
  <object id="770" gid="305" x="1049" y="591" width="16" height="16"/>
  <object id="771" gid="305" x="1049" y="607" width="16" height="16"/>
  <object id="772" gid="305" x="1049" y="623" width="16" height="16"/>
  <object id="773" gid="305" x="1065" y="623" width="16" height="16"/>
  <object id="774" gid="305" x="1065" y="623" width="16" height="16"/>
  <object id="775" gid="305" x="1065" y="591" width="16" height="16"/>
  <object id="776" gid="305" x="1065" y="607" width="16" height="16"/>
  <object id="777" gid="305" x="1081" y="623" width="16" height="16"/>
  <object id="778" gid="305" x="1081" y="591" width="16" height="16"/>
  <object id="779" gid="305" x="1081" y="623" width="16" height="16"/>
  <object id="780" gid="305" x="1097" y="607" width="16" height="16"/>
  <object id="781" gid="305" x="1081" y="607" width="16" height="16"/>
  <object id="782" gid="305" x="1081" y="655" width="16" height="16"/>
  <object id="783" gid="305" x="1081" y="639" width="16" height="16"/>
  <object id="784" gid="305" x="1081" y="655" width="16" height="16"/>
  <object id="785" gid="305" x="1097" y="655" width="16" height="16"/>
  <object id="786" gid="305" x="1097" y="623" width="16" height="16"/>
  <object id="787" gid="305" x="1097" y="607" width="16" height="16"/>
  <object id="788" gid="305" x="1097" y="639" width="16" height="16"/>
  <object id="789" gid="305" x="1081" y="559" width="16" height="16"/>
  <object id="790" gid="305" x="1113" y="591" width="16" height="16"/>
  <object id="791" gid="305" x="1097" y="591" width="16" height="16"/>
  <object id="792" gid="305" x="1113" y="559" width="16" height="16"/>
  <object id="793" gid="305" x="1113" y="575" width="16" height="16"/>
  <object id="794" gid="306" x="928" y="592" width="16" height="16"/>
  <object id="795" gid="306" x="944" y="576" width="16" height="16"/>
  <object id="796" gid="306" x="992" y="560" width="16" height="16"/>
  <object id="797" gid="305" x="944" y="592" width="16" height="16"/>
  <object id="798" gid="305" x="944" y="608" width="16" height="16"/>
  <object id="799" gid="305" x="944" y="624" width="16" height="16"/>
  <object id="800" gid="305" x="960" y="624" width="16" height="16"/>
  <object id="801" gid="305" x="960" y="624" width="16" height="16"/>
  <object id="802" gid="305" x="960" y="592" width="16" height="16"/>
  <object id="803" gid="305" x="960" y="608" width="16" height="16"/>
  <object id="804" gid="305" x="976" y="624" width="16" height="16"/>
  <object id="805" gid="305" x="976" y="592" width="16" height="16"/>
  <object id="806" gid="305" x="976" y="624" width="16" height="16"/>
  <object id="807" gid="305" x="992" y="608" width="16" height="16"/>
  <object id="808" gid="305" x="976" y="608" width="16" height="16"/>
  <object id="809" gid="305" x="976" y="656" width="16" height="16"/>
  <object id="810" gid="305" x="976" y="640" width="16" height="16"/>
  <object id="811" gid="305" x="976" y="656" width="16" height="16"/>
  <object id="812" gid="305" x="992" y="656" width="16" height="16"/>
  <object id="813" gid="305" x="992" y="624" width="16" height="16"/>
  <object id="814" gid="305" x="992" y="608" width="16" height="16"/>
  <object id="815" gid="305" x="992" y="736" width="16" height="16"/>
  <object id="816" gid="305" x="976" y="560" width="16" height="16"/>
  <object id="817" gid="305" x="1008" y="592" width="16" height="16"/>
  <object id="818" gid="305" x="992" y="592" width="16" height="16"/>
  <object id="819" gid="305" x="1008" y="560" width="16" height="16"/>
  <object id="820" gid="305" x="1008" y="576" width="16" height="16"/>
  <object id="821" gid="305" x="1024" y="576" width="16" height="16"/>
  <object id="822" gid="305" x="1024" y="592" width="16" height="16"/>
  <object id="823" gid="306" x="937" y="607" width="16" height="16"/>
  <object id="824" gid="306" x="953" y="591" width="16" height="16"/>
  <object id="825" gid="306" x="1001" y="575" width="16" height="16"/>
  <object id="826" gid="305" x="953" y="607" width="16" height="16"/>
  <object id="827" gid="305" x="953" y="623" width="16" height="16"/>
  <object id="828" gid="305" x="953" y="639" width="16" height="16"/>
  <object id="829" gid="305" x="969" y="639" width="16" height="16"/>
  <object id="830" gid="305" x="969" y="639" width="16" height="16"/>
  <object id="831" gid="305" x="969" y="607" width="16" height="16"/>
  <object id="832" gid="305" x="969" y="623" width="16" height="16"/>
  <object id="833" gid="305" x="985" y="639" width="16" height="16"/>
  <object id="834" gid="305" x="985" y="607" width="16" height="16"/>
  <object id="835" gid="305" x="985" y="639" width="16" height="16"/>
  <object id="836" gid="305" x="1001" y="623" width="16" height="16"/>
  <object id="837" gid="305" x="985" y="623" width="16" height="16"/>
  <object id="838" gid="305" x="985" y="671" width="16" height="16"/>
  <object id="839" gid="305" x="985" y="655" width="16" height="16"/>
  <object id="840" gid="305" x="985" y="671" width="16" height="16"/>
  <object id="841" gid="305" x="1001" y="671" width="16" height="16"/>
  <object id="842" gid="305" x="1001" y="639" width="16" height="16"/>
  <object id="843" gid="305" x="1001" y="623" width="16" height="16"/>
  <object id="844" gid="305" x="1001" y="655" width="16" height="16"/>
  <object id="845" gid="305" x="985" y="575" width="16" height="16"/>
  <object id="846" gid="305" x="1017" y="607" width="16" height="16"/>
  <object id="847" gid="305" x="1001" y="607" width="16" height="16"/>
  <object id="848" gid="305" x="1017" y="575" width="16" height="16"/>
  <object id="849" gid="305" x="1017" y="591" width="16" height="16"/>
  <object id="1074" gid="306" x="944" y="208" width="16" height="16"/>
  <object id="1075" gid="306" x="960" y="192" width="16" height="16"/>
  <object id="1077" gid="305" x="960" y="208" width="16" height="16"/>
  <object id="1078" gid="305" x="960" y="224" width="16" height="16"/>
  <object id="1079" gid="305" x="960" y="240" width="16" height="16"/>
  <object id="1080" gid="305" x="976" y="240" width="16" height="16"/>
  <object id="1081" gid="305" x="976" y="240" width="16" height="16"/>
  <object id="1082" gid="305" x="976" y="208" width="16" height="16"/>
  <object id="1083" gid="305" x="976" y="224" width="16" height="16"/>
  <object id="1084" gid="305" x="992" y="240" width="16" height="16"/>
  <object id="1085" gid="305" x="992" y="208" width="16" height="16"/>
  <object id="1086" gid="305" x="992" y="240" width="16" height="16"/>
  <object id="1087" gid="305" x="1008" y="224" width="16" height="16"/>
  <object id="1088" gid="305" x="992" y="224" width="16" height="16"/>
  <object id="1089" gid="305" x="992" y="272" width="16" height="16"/>
  <object id="1090" gid="305" x="992" y="256" width="16" height="16"/>
  <object id="1091" gid="305" x="992" y="272" width="16" height="16"/>
  <object id="1092" gid="305" x="1008" y="272" width="16" height="16"/>
  <object id="1093" gid="305" x="1008" y="240" width="16" height="16"/>
  <object id="1094" gid="305" x="1008" y="224" width="16" height="16"/>
  <object id="1095" gid="305" x="1008" y="352" width="16" height="16"/>
  <object id="1097" gid="305" x="1024" y="208" width="16" height="16"/>
  <object id="1098" gid="305" x="1008" y="208" width="16" height="16"/>
  <object id="1100" gid="305" x="1024" y="192" width="16" height="16"/>
  <object id="1101" gid="305" x="1040" y="192" width="16" height="16"/>
  <object id="1102" gid="305" x="1040" y="208" width="16" height="16"/>
  <object id="1103" gid="306" x="953" y="223" width="16" height="16"/>
  <object id="1104" gid="306" x="969" y="207" width="16" height="16"/>
  <object id="1105" gid="306" x="1017" y="191" width="16" height="16"/>
  <object id="1106" gid="305" x="969" y="223" width="16" height="16"/>
  <object id="1107" gid="305" x="969" y="239" width="16" height="16"/>
  <object id="1108" gid="305" x="969" y="255" width="16" height="16"/>
  <object id="1109" gid="305" x="985" y="255" width="16" height="16"/>
  <object id="1110" gid="305" x="985" y="255" width="16" height="16"/>
  <object id="1111" gid="305" x="985" y="223" width="16" height="16"/>
  <object id="1112" gid="305" x="985" y="239" width="16" height="16"/>
  <object id="1113" gid="305" x="1001" y="255" width="16" height="16"/>
  <object id="1114" gid="305" x="1001" y="223" width="16" height="16"/>
  <object id="1115" gid="305" x="1001" y="255" width="16" height="16"/>
  <object id="1116" gid="305" x="1017" y="239" width="16" height="16"/>
  <object id="1117" gid="305" x="1001" y="239" width="16" height="16"/>
  <object id="1118" gid="305" x="1001" y="287" width="16" height="16"/>
  <object id="1119" gid="305" x="1001" y="271" width="16" height="16"/>
  <object id="1120" gid="305" x="1001" y="287" width="16" height="16"/>
  <object id="1121" gid="305" x="1017" y="287" width="16" height="16"/>
  <object id="1122" gid="305" x="1017" y="255" width="16" height="16"/>
  <object id="1123" gid="305" x="1017" y="239" width="16" height="16"/>
  <object id="1124" gid="305" x="1017" y="271" width="16" height="16"/>
  <object id="1125" gid="305" x="1001" y="191" width="16" height="16"/>
  <object id="1126" gid="305" x="1033" y="223" width="16" height="16"/>
  <object id="1127" gid="305" x="1017" y="223" width="16" height="16"/>
  <object id="1128" gid="305" x="1033" y="191" width="16" height="16"/>
  <object id="1129" gid="305" x="1033" y="207" width="16" height="16"/>
  <object id="1130" gid="306" x="960" y="544" width="16" height="16"/>
  <object id="1131" gid="306" x="976" y="528" width="16" height="16"/>
  <object id="1132" gid="306" x="1024" y="512" width="16" height="16"/>
  <object id="1133" gid="305" x="976" y="544" width="16" height="16"/>
  <object id="1134" gid="305" x="976" y="560" width="16" height="16"/>
  <object id="1135" gid="305" x="976" y="576" width="16" height="16"/>
  <object id="1136" gid="305" x="992" y="576" width="16" height="16"/>
  <object id="1137" gid="305" x="992" y="576" width="16" height="16"/>
  <object id="1138" gid="305" x="992" y="544" width="16" height="16"/>
  <object id="1139" gid="305" x="992" y="560" width="16" height="16"/>
  <object id="1140" gid="305" x="1008" y="576" width="16" height="16"/>
  <object id="1141" gid="305" x="1008" y="544" width="16" height="16"/>
  <object id="1142" gid="305" x="1008" y="576" width="16" height="16"/>
  <object id="1143" gid="305" x="1024" y="560" width="16" height="16"/>
  <object id="1144" gid="305" x="1008" y="560" width="16" height="16"/>
  <object id="1145" gid="305" x="1008" y="608" width="16" height="16"/>
  <object id="1146" gid="305" x="1008" y="592" width="16" height="16"/>
  <object id="1147" gid="305" x="1008" y="608" width="16" height="16"/>
  <object id="1148" gid="305" x="1024" y="608" width="16" height="16"/>
  <object id="1149" gid="305" x="1024" y="576" width="16" height="16"/>
  <object id="1150" gid="305" x="1024" y="560" width="16" height="16"/>
  <object id="1151" gid="305" x="1024" y="688" width="16" height="16"/>
  <object id="1152" gid="305" x="1008" y="512" width="16" height="16"/>
  <object id="1153" gid="305" x="1040" y="544" width="16" height="16"/>
  <object id="1154" gid="305" x="1024" y="544" width="16" height="16"/>
  <object id="1155" gid="305" x="1040" y="512" width="16" height="16"/>
  <object id="1156" gid="305" x="1040" y="528" width="16" height="16"/>
  <object id="1157" gid="305" x="1056" y="528" width="16" height="16"/>
  <object id="1158" gid="305" x="1056" y="544" width="16" height="16"/>
  <object id="1159" gid="306" x="969" y="559" width="16" height="16"/>
  <object id="1160" gid="306" x="985" y="543" width="16" height="16"/>
  <object id="1161" gid="306" x="1033" y="527" width="16" height="16"/>
  <object id="1162" gid="305" x="985" y="559" width="16" height="16"/>
  <object id="1163" gid="305" x="985" y="575" width="16" height="16"/>
  <object id="1164" gid="305" x="985" y="591" width="16" height="16"/>
  <object id="1165" gid="305" x="1001" y="591" width="16" height="16"/>
  <object id="1166" gid="305" x="1001" y="591" width="16" height="16"/>
  <object id="1167" gid="305" x="1001" y="559" width="16" height="16"/>
  <object id="1168" gid="305" x="1001" y="575" width="16" height="16"/>
  <object id="1169" gid="305" x="1017" y="591" width="16" height="16"/>
  <object id="1170" gid="305" x="1017" y="559" width="16" height="16"/>
  <object id="1171" gid="305" x="1017" y="591" width="16" height="16"/>
  <object id="1172" gid="305" x="1033" y="575" width="16" height="16"/>
  <object id="1173" gid="305" x="1017" y="575" width="16" height="16"/>
  <object id="1174" gid="305" x="1017" y="623" width="16" height="16"/>
  <object id="1175" gid="305" x="1017" y="607" width="16" height="16"/>
  <object id="1176" gid="305" x="1017" y="623" width="16" height="16"/>
  <object id="1177" gid="305" x="1033" y="623" width="16" height="16"/>
  <object id="1178" gid="305" x="1033" y="591" width="16" height="16"/>
  <object id="1179" gid="305" x="1033" y="575" width="16" height="16"/>
  <object id="1180" gid="305" x="1033" y="607" width="16" height="16"/>
  <object id="1181" gid="305" x="1017" y="527" width="16" height="16"/>
  <object id="1182" gid="305" x="1049" y="559" width="16" height="16"/>
  <object id="1183" gid="305" x="1033" y="559" width="16" height="16"/>
  <object id="1184" gid="305" x="1049" y="527" width="16" height="16"/>
  <object id="1185" gid="305" x="1049" y="543" width="16" height="16"/>
  <object id="1363" gid="306" x="71.303" y="805.227" width="16" height="16"/>
  <object id="1383" gid="305" x="55.303" y="805.227" width="16" height="16"/>
  <object id="1386" gid="305" x="87.303" y="805.227" width="16" height="16"/>
  <object id="1473" gid="306" x="135.303" y="805.227" width="16" height="16"/>
  <object id="1474" gid="306" x="183.303" y="789.227" width="16" height="16"/>
  <object id="1493" gid="305" x="167.303" y="789.227" width="16" height="16"/>
  <object id="1496" gid="305" x="199.303" y="789.227" width="16" height="16"/>
  <object id="1497" gid="305" x="199.303" y="805.227" width="16" height="16"/>
  <object id="1498" gid="305" x="215.303" y="805.227" width="16" height="16"/>
  <object id="1502" gid="306" x="192.303" y="804.227" width="16" height="16"/>
  <object id="1522" gid="305" x="176.303" y="804.227" width="16" height="16"/>
  <object id="1525" gid="305" x="208.303" y="804.227" width="16" height="16"/>
  <object id="1649" gid="305" x="896" y="191" width="16" height="16"/>
  <object id="1650" gid="305" x="896" y="207" width="16" height="16"/>
  <object id="1651" gid="305" x="912" y="207" width="16" height="16"/>
  <object id="1652" gid="305" x="912" y="207" width="16" height="16"/>
  <object id="1654" gid="305" x="912" y="191" width="16" height="16"/>
  <object id="1655" gid="305" x="928" y="207" width="16" height="16"/>
  <object id="1657" gid="305" x="928" y="207" width="16" height="16"/>
  <object id="1658" gid="305" x="944" y="191" width="16" height="16"/>
  <object id="1659" gid="305" x="928" y="191" width="16" height="16"/>
  <object id="1660" gid="305" x="928" y="239" width="16" height="16"/>
  <object id="1661" gid="305" x="928" y="223" width="16" height="16"/>
  <object id="1662" gid="305" x="928" y="239" width="16" height="16"/>
  <object id="1663" gid="305" x="944" y="239" width="16" height="16"/>
  <object id="1664" gid="305" x="944" y="207" width="16" height="16"/>
  <object id="1665" gid="305" x="944" y="191" width="16" height="16"/>
  <object id="1673" gid="306" x="889" y="190" width="16" height="16"/>
  <object id="1676" gid="305" x="905" y="190" width="16" height="16"/>
  <object id="1677" gid="305" x="905" y="206" width="16" height="16"/>
  <object id="1678" gid="305" x="905" y="222" width="16" height="16"/>
  <object id="1679" gid="305" x="921" y="222" width="16" height="16"/>
  <object id="1680" gid="305" x="921" y="222" width="16" height="16"/>
  <object id="1681" gid="305" x="921" y="190" width="16" height="16"/>
  <object id="1682" gid="305" x="921" y="206" width="16" height="16"/>
  <object id="1683" gid="305" x="937" y="222" width="16" height="16"/>
  <object id="1684" gid="305" x="937" y="190" width="16" height="16"/>
  <object id="1685" gid="305" x="937" y="222" width="16" height="16"/>
  <object id="1686" gid="305" x="953" y="206" width="16" height="16"/>
  <object id="1687" gid="305" x="937" y="206" width="16" height="16"/>
  <object id="1688" gid="305" x="937" y="254" width="16" height="16"/>
  <object id="1689" gid="305" x="937" y="238" width="16" height="16"/>
  <object id="1690" gid="305" x="937" y="254" width="16" height="16"/>
  <object id="1691" gid="305" x="953" y="254" width="16" height="16"/>
  <object id="1692" gid="305" x="953" y="222" width="16" height="16"/>
  <object id="1693" gid="305" x="953" y="206" width="16" height="16"/>
  <object id="1694" gid="305" x="953" y="238" width="16" height="16"/>
  <object id="1696" gid="305" x="969" y="190" width="16" height="16"/>
  <object id="1697" gid="305" x="953" y="190" width="16" height="16"/>
  <object id="1704" gid="305" x="1026" y="192" width="16" height="16"/>
  <object id="1705" gid="305" x="1026" y="208" width="16" height="16"/>
  <object id="1706" gid="305" x="1042" y="208" width="16" height="16"/>
  <object id="1707" gid="305" x="1042" y="208" width="16" height="16"/>
  <object id="1709" gid="305" x="1042" y="192" width="16" height="16"/>
  <object id="1710" gid="305" x="1058" y="208" width="16" height="16"/>
  <object id="1712" gid="305" x="1058" y="208" width="16" height="16"/>
  <object id="1713" gid="305" x="1074" y="192" width="16" height="16"/>
  <object id="1714" gid="305" x="1058" y="192" width="16" height="16"/>
  <object id="1715" gid="305" x="1058" y="240" width="16" height="16"/>
  <object id="1716" gid="305" x="1058" y="224" width="16" height="16"/>
  <object id="1717" gid="305" x="1058" y="240" width="16" height="16"/>
  <object id="1718" gid="305" x="1074" y="240" width="16" height="16"/>
  <object id="1719" gid="305" x="1074" y="208" width="16" height="16"/>
  <object id="1720" gid="305" x="1074" y="192" width="16" height="16"/>
  <object id="1721" gid="305" x="1074" y="320" width="16" height="16"/>
  <object id="1729" gid="306" x="1019" y="191" width="16" height="16"/>
  <object id="1732" gid="305" x="1035" y="191" width="16" height="16"/>
  <object id="1733" gid="305" x="1035" y="207" width="16" height="16"/>
  <object id="1734" gid="305" x="1035" y="223" width="16" height="16"/>
  <object id="1735" gid="305" x="1051" y="223" width="16" height="16"/>
  <object id="1736" gid="305" x="1051" y="223" width="16" height="16"/>
  <object id="1737" gid="305" x="1051" y="191" width="16" height="16"/>
  <object id="1738" gid="305" x="1051" y="207" width="16" height="16"/>
  <object id="1739" gid="305" x="1067" y="223" width="16" height="16"/>
  <object id="1740" gid="305" x="1067" y="191" width="16" height="16"/>
  <object id="1741" gid="305" x="1067" y="223" width="16" height="16"/>
  <object id="1742" gid="305" x="1083" y="207" width="16" height="16"/>
  <object id="1743" gid="305" x="1067" y="207" width="16" height="16"/>
  <object id="1744" gid="305" x="1067" y="255" width="16" height="16"/>
  <object id="1745" gid="305" x="1067" y="239" width="16" height="16"/>
  <object id="1746" gid="305" x="1067" y="255" width="16" height="16"/>
  <object id="1747" gid="305" x="1083" y="255" width="16" height="16"/>
  <object id="1748" gid="305" x="1083" y="223" width="16" height="16"/>
  <object id="1749" gid="305" x="1083" y="207" width="16" height="16"/>
  <object id="1750" gid="305" x="1083" y="239" width="16" height="16"/>
  <object id="1752" gid="305" x="1099" y="191" width="16" height="16"/>
  <object id="1753" gid="305" x="1083" y="191" width="16" height="16"/>
  <object id="1756" gid="306" x="946" y="192" width="16" height="16"/>
  <object id="1759" gid="305" x="962" y="192" width="16" height="16"/>
  <object id="1760" gid="305" x="962" y="208" width="16" height="16"/>
  <object id="1761" gid="305" x="962" y="224" width="16" height="16"/>
  <object id="1762" gid="305" x="978" y="224" width="16" height="16"/>
  <object id="1763" gid="305" x="978" y="224" width="16" height="16"/>
  <object id="1764" gid="305" x="978" y="192" width="16" height="16"/>
  <object id="1765" gid="305" x="978" y="208" width="16" height="16"/>
  <object id="1766" gid="305" x="994" y="224" width="16" height="16"/>
  <object id="1767" gid="305" x="994" y="192" width="16" height="16"/>
  <object id="1768" gid="305" x="994" y="224" width="16" height="16"/>
  <object id="1769" gid="305" x="1010" y="208" width="16" height="16"/>
  <object id="1770" gid="305" x="994" y="208" width="16" height="16"/>
  <object id="1771" gid="305" x="994" y="256" width="16" height="16"/>
  <object id="1772" gid="305" x="994" y="240" width="16" height="16"/>
  <object id="1773" gid="305" x="994" y="256" width="16" height="16"/>
  <object id="1774" gid="305" x="1010" y="256" width="16" height="16"/>
  <object id="1775" gid="305" x="1010" y="224" width="16" height="16"/>
  <object id="1776" gid="305" x="1010" y="208" width="16" height="16"/>
  <object id="1778" gid="305" x="1026" y="192" width="16" height="16"/>
  <object id="1779" gid="305" x="1010" y="192" width="16" height="16"/>
  <object id="1783" gid="305" x="1042" y="192" width="16" height="16"/>
  <object id="1784" gid="306" x="955" y="207" width="16" height="16"/>
  <object id="1785" gid="306" x="971" y="191" width="16" height="16"/>
  <object id="1787" gid="305" x="971" y="207" width="16" height="16"/>
  <object id="1788" gid="305" x="971" y="223" width="16" height="16"/>
  <object id="1789" gid="305" x="971" y="239" width="16" height="16"/>
  <object id="1790" gid="305" x="987" y="239" width="16" height="16"/>
  <object id="1791" gid="305" x="987" y="239" width="16" height="16"/>
  <object id="1792" gid="305" x="987" y="207" width="16" height="16"/>
  <object id="1793" gid="305" x="987" y="223" width="16" height="16"/>
  <object id="1794" gid="305" x="1003" y="239" width="16" height="16"/>
  <object id="1795" gid="305" x="1003" y="207" width="16" height="16"/>
  <object id="1796" gid="305" x="1003" y="239" width="16" height="16"/>
  <object id="1797" gid="305" x="1019" y="223" width="16" height="16"/>
  <object id="1798" gid="305" x="1003" y="223" width="16" height="16"/>
  <object id="1799" gid="305" x="1003" y="271" width="16" height="16"/>
  <object id="1800" gid="305" x="1003" y="255" width="16" height="16"/>
  <object id="1801" gid="305" x="1003" y="271" width="16" height="16"/>
  <object id="1802" gid="305" x="1019" y="271" width="16" height="16"/>
  <object id="1803" gid="305" x="1019" y="239" width="16" height="16"/>
  <object id="1804" gid="305" x="1019" y="223" width="16" height="16"/>
  <object id="1805" gid="305" x="1019" y="255" width="16" height="16"/>
  <object id="1807" gid="305" x="1035" y="207" width="16" height="16"/>
  <object id="1808" gid="305" x="1019" y="207" width="16" height="16"/>
  <object id="1810" gid="305" x="1035" y="191" width="16" height="16"/>
  <object id="1866" gid="306" x="1090" y="208" width="16" height="16"/>
  <object id="1867" gid="306" x="1106" y="192" width="16" height="16"/>
  <object id="1869" gid="305" x="1106" y="208" width="16" height="16"/>
  <object id="1870" gid="305" x="1106" y="224" width="16" height="16"/>
  <object id="1871" gid="305" x="1106" y="240" width="16" height="16"/>
  <object id="1894" gid="306" x="1099" y="223" width="16" height="16"/>
  <object id="1921" gid="306" x="1010" y="272" width="16" height="16"/>
  <object id="1922" gid="306" x="1026" y="256" width="16" height="16"/>
  <object id="1923" gid="306" x="1074" y="240" width="16" height="16"/>
  <object id="1924" gid="305" x="1026" y="272" width="16" height="16"/>
  <object id="1925" gid="305" x="1026" y="288" width="16" height="16"/>
  <object id="1926" gid="305" x="1026" y="304" width="16" height="16"/>
  <object id="1927" gid="305" x="1042" y="304" width="16" height="16"/>
  <object id="1928" gid="305" x="1042" y="304" width="16" height="16"/>
  <object id="1929" gid="305" x="1042" y="272" width="16" height="16"/>
  <object id="1930" gid="305" x="1042" y="288" width="16" height="16"/>
  <object id="1931" gid="305" x="1058" y="304" width="16" height="16"/>
  <object id="1932" gid="305" x="1058" y="272" width="16" height="16"/>
  <object id="1933" gid="305" x="1058" y="304" width="16" height="16"/>
  <object id="1934" gid="305" x="1074" y="288" width="16" height="16"/>
  <object id="1935" gid="305" x="1058" y="288" width="16" height="16"/>
  <object id="1936" gid="305" x="1058" y="336" width="16" height="16"/>
  <object id="1937" gid="305" x="1058" y="320" width="16" height="16"/>
  <object id="1938" gid="305" x="1058" y="336" width="16" height="16"/>
  <object id="1939" gid="305" x="1074" y="336" width="16" height="16"/>
  <object id="1940" gid="305" x="1074" y="304" width="16" height="16"/>
  <object id="1941" gid="305" x="1074" y="288" width="16" height="16"/>
  <object id="1942" gid="305" x="1058" y="240" width="16" height="16"/>
  <object id="1943" gid="305" x="1090" y="272" width="16" height="16"/>
  <object id="1944" gid="305" x="1074" y="272" width="16" height="16"/>
  <object id="1945" gid="305" x="1090" y="240" width="16" height="16"/>
  <object id="1946" gid="305" x="1090" y="256" width="16" height="16"/>
  <object id="1947" gid="305" x="1106" y="256" width="16" height="16"/>
  <object id="1948" gid="305" x="1106" y="272" width="16" height="16"/>
  <object id="1949" gid="306" x="1019" y="287" width="16" height="16"/>
  <object id="1950" gid="306" x="1035" y="271" width="16" height="16"/>
  <object id="1952" gid="305" x="1035" y="287" width="16" height="16"/>
  <object id="1953" gid="305" x="1035" y="303" width="16" height="16"/>
  <object id="1954" gid="305" x="1035" y="319" width="16" height="16"/>
  <object id="1955" gid="305" x="1051" y="319" width="16" height="16"/>
  <object id="1956" gid="305" x="1051" y="319" width="16" height="16"/>
  <object id="1957" gid="305" x="1051" y="287" width="16" height="16"/>
  <object id="1958" gid="305" x="1051" y="303" width="16" height="16"/>
  <object id="1959" gid="305" x="1067" y="319" width="16" height="16"/>
  <object id="1960" gid="305" x="1067" y="287" width="16" height="16"/>
  <object id="1961" gid="305" x="1067" y="319" width="16" height="16"/>
  <object id="1962" gid="305" x="1083" y="303" width="16" height="16"/>
  <object id="1963" gid="305" x="1067" y="303" width="16" height="16"/>
  <object id="1964" gid="305" x="1067" y="351" width="16" height="16"/>
  <object id="1965" gid="305" x="1067" y="335" width="16" height="16"/>
  <object id="1966" gid="305" x="1067" y="351" width="16" height="16"/>
  <object id="1967" gid="305" x="1083" y="351" width="16" height="16"/>
  <object id="1968" gid="305" x="1083" y="319" width="16" height="16"/>
  <object id="1969" gid="305" x="1083" y="303" width="16" height="16"/>
  <object id="1970" gid="305" x="1083" y="335" width="16" height="16"/>
  <object id="1971" gid="305" x="1067" y="255" width="16" height="16"/>
  <object id="1972" gid="305" x="1099" y="287" width="16" height="16"/>
  <object id="1973" gid="305" x="1083" y="287" width="16" height="16"/>
  <object id="1974" gid="305" x="1099" y="255" width="16" height="16"/>
  <object id="1975" gid="305" x="1099" y="271" width="16" height="16"/>
  <object id="1976" gid="306" x="1026" y="240" width="16" height="16"/>
  <object id="1977" gid="306" x="1042" y="240" width="16" height="16"/>
  <object id="1978" gid="306" x="1042" y="256" width="16" height="16"/>
  <object id="1979" gid="306" x="992" y="288" width="16" height="16"/>
  <object id="1986" gid="306" x="128" y="644.227" width="16" height="16"/>
  <object id="1987" gid="306" x="144" y="628.227" width="16" height="16"/>
  <object id="1988" gid="306" x="192" y="612.227" width="16" height="16"/>
  <object id="1989" gid="305" x="144" y="644.227" width="16" height="16"/>
  <object id="1990" gid="305" x="144" y="660.227" width="16" height="16"/>
  <object id="1991" gid="305" x="144" y="676.227" width="16" height="16"/>
  <object id="1992" gid="305" x="160" y="676.227" width="16" height="16"/>
  <object id="1993" gid="305" x="160" y="676.227" width="16" height="16"/>
  <object id="1994" gid="305" x="160" y="644.227" width="16" height="16"/>
  <object id="1995" gid="305" x="160" y="660.227" width="16" height="16"/>
  <object id="1996" gid="305" x="176" y="676.227" width="16" height="16"/>
  <object id="1997" gid="305" x="176" y="644.227" width="16" height="16"/>
  <object id="1998" gid="305" x="176" y="676.227" width="16" height="16"/>
  <object id="1999" gid="305" x="192" y="660.227" width="16" height="16"/>
  <object id="2000" gid="305" x="176" y="660.227" width="16" height="16"/>
  <object id="2001" gid="305" x="176" y="708.227" width="16" height="16"/>
  <object id="2002" gid="305" x="176" y="692.227" width="16" height="16"/>
  <object id="2003" gid="305" x="176" y="708.227" width="16" height="16"/>
  <object id="2004" gid="305" x="192" y="708.227" width="16" height="16"/>
  <object id="2005" gid="305" x="192" y="676.227" width="16" height="16"/>
  <object id="2006" gid="305" x="192" y="660.227" width="16" height="16"/>
  <object id="2007" gid="305" x="176" y="612.227" width="16" height="16"/>
  <object id="2008" gid="305" x="208" y="644.227" width="16" height="16"/>
  <object id="2009" gid="305" x="192" y="644.227" width="16" height="16"/>
  <object id="2010" gid="305" x="208" y="612.227" width="16" height="16"/>
  <object id="2011" gid="305" x="208" y="628.227" width="16" height="16"/>
  <object id="2012" gid="305" x="224" y="628.227" width="16" height="16"/>
  <object id="2013" gid="305" x="224" y="644.227" width="16" height="16"/>
  <object id="2014" gid="306" x="137" y="659.227" width="16" height="16"/>
  <object id="2015" gid="306" x="153" y="643.227" width="16" height="16"/>
  <object id="2016" gid="306" x="201" y="627.227" width="16" height="16"/>
  <object id="2017" gid="305" x="153" y="659.227" width="16" height="16"/>
  <object id="2018" gid="305" x="153" y="675.227" width="16" height="16"/>
  <object id="2019" gid="305" x="153" y="691.227" width="16" height="16"/>
  <object id="2020" gid="305" x="169" y="691.227" width="16" height="16"/>
  <object id="2021" gid="305" x="169" y="691.227" width="16" height="16"/>
  <object id="2022" gid="305" x="169" y="659.227" width="16" height="16"/>
  <object id="2023" gid="305" x="169" y="675.227" width="16" height="16"/>
  <object id="2024" gid="305" x="185" y="691.227" width="16" height="16"/>
  <object id="2025" gid="305" x="185" y="659.227" width="16" height="16"/>
  <object id="2026" gid="305" x="185" y="691.227" width="16" height="16"/>
  <object id="2027" gid="305" x="201" y="675.227" width="16" height="16"/>
  <object id="2028" gid="305" x="185" y="675.227" width="16" height="16"/>
  <object id="2029" gid="305" x="185" y="723.227" width="16" height="16"/>
  <object id="2030" gid="305" x="185" y="707.227" width="16" height="16"/>
  <object id="2031" gid="305" x="185" y="723.227" width="16" height="16"/>
  <object id="2032" gid="305" x="201" y="723.227" width="16" height="16"/>
  <object id="2033" gid="305" x="201" y="691.227" width="16" height="16"/>
  <object id="2034" gid="305" x="201" y="675.227" width="16" height="16"/>
  <object id="2035" gid="305" x="201" y="707.227" width="16" height="16"/>
  <object id="2036" gid="305" x="185" y="627.227" width="16" height="16"/>
  <object id="2037" gid="305" x="217" y="659.227" width="16" height="16"/>
  <object id="2038" gid="305" x="201" y="659.227" width="16" height="16"/>
  <object id="2039" gid="305" x="217" y="627.227" width="16" height="16"/>
  <object id="2040" gid="305" x="217" y="643.227" width="16" height="16"/>
  <object id="2041" gid="306" x="258" y="645.227" width="16" height="16"/>
  <object id="2042" gid="306" x="274" y="629.227" width="16" height="16"/>
  <object id="2044" gid="305" x="274" y="645.227" width="16" height="16"/>
  <object id="2045" gid="305" x="274" y="661.227" width="16" height="16"/>
  <object id="2046" gid="305" x="274" y="677.227" width="16" height="16"/>
  <object id="2047" gid="305" x="290" y="677.227" width="16" height="16"/>
  <object id="2048" gid="305" x="290" y="677.227" width="16" height="16"/>
  <object id="2049" gid="305" x="290" y="645.227" width="16" height="16"/>
  <object id="2050" gid="305" x="290" y="661.227" width="16" height="16"/>
  <object id="2051" gid="305" x="306" y="677.227" width="16" height="16"/>
  <object id="2052" gid="305" x="306" y="645.227" width="16" height="16"/>
  <object id="2053" gid="305" x="306" y="677.227" width="16" height="16"/>
  <object id="2054" gid="305" x="322" y="661.227" width="16" height="16"/>
  <object id="2055" gid="305" x="306" y="661.227" width="16" height="16"/>
  <object id="2056" gid="305" x="306" y="709.227" width="16" height="16"/>
  <object id="2057" gid="305" x="306" y="693.227" width="16" height="16"/>
  <object id="2058" gid="305" x="306" y="709.227" width="16" height="16"/>
  <object id="2059" gid="305" x="322" y="709.227" width="16" height="16"/>
  <object id="2060" gid="305" x="322" y="677.227" width="16" height="16"/>
  <object id="2061" gid="305" x="322" y="661.227" width="16" height="16"/>
  <object id="2062" gid="305" x="322" y="789.23" width="16" height="16"/>
  <object id="2063" gid="305" x="306" y="613.227" width="16" height="16"/>
  <object id="2070" gid="306" x="267" y="660.227" width="16" height="16"/>
  <object id="2071" gid="306" x="283" y="644.227" width="16" height="16"/>
  <object id="2073" gid="305" x="283" y="660.227" width="16" height="16"/>
  <object id="2074" gid="305" x="283" y="676.227" width="16" height="16"/>
  <object id="2075" gid="305" x="283" y="692.227" width="16" height="16"/>
  <object id="2076" gid="305" x="299" y="692.227" width="16" height="16"/>
  <object id="2077" gid="305" x="299" y="692.227" width="16" height="16"/>
  <object id="2078" gid="305" x="299" y="660.227" width="16" height="16"/>
  <object id="2079" gid="305" x="299" y="676.227" width="16" height="16"/>
  <object id="2080" gid="305" x="315" y="692.227" width="16" height="16"/>
  <object id="2081" gid="305" x="315" y="660.227" width="16" height="16"/>
  <object id="2082" gid="305" x="315" y="692.227" width="16" height="16"/>
  <object id="2083" gid="305" x="331" y="676.227" width="16" height="16"/>
  <object id="2084" gid="305" x="315" y="676.227" width="16" height="16"/>
  <object id="2085" gid="305" x="315" y="724.227" width="16" height="16"/>
  <object id="2086" gid="305" x="315" y="708.227" width="16" height="16"/>
  <object id="2087" gid="305" x="315" y="724.227" width="16" height="16"/>
  <object id="2088" gid="305" x="331" y="724.227" width="16" height="16"/>
  <object id="2089" gid="305" x="331" y="692.227" width="16" height="16"/>
  <object id="2090" gid="305" x="331" y="676.227" width="16" height="16"/>
  <object id="2091" gid="305" x="331" y="708.227" width="16" height="16"/>
  <object id="2092" gid="305" x="315" y="628.227" width="16" height="16"/>
  <object id="2093" gid="305" x="347" y="660.227" width="16" height="16"/>
  <object id="2094" gid="305" x="331" y="660.227" width="16" height="16"/>
  <object id="2097" gid="306" x="194" y="661.227" width="16" height="16"/>
  <object id="2098" gid="306" x="210" y="645.227" width="16" height="16"/>
  <object id="2099" gid="306" x="258" y="629.227" width="16" height="16"/>
  <object id="2100" gid="305" x="210" y="661.227" width="16" height="16"/>
  <object id="2101" gid="305" x="210" y="677.227" width="16" height="16"/>
  <object id="2102" gid="305" x="210" y="693.227" width="16" height="16"/>
  <object id="2103" gid="305" x="226" y="693.227" width="16" height="16"/>
  <object id="2104" gid="305" x="226" y="693.227" width="16" height="16"/>
  <object id="2105" gid="305" x="226" y="661.227" width="16" height="16"/>
  <object id="2106" gid="305" x="226" y="677.227" width="16" height="16"/>
  <object id="2107" gid="305" x="242" y="693.227" width="16" height="16"/>
  <object id="2108" gid="305" x="242" y="661.227" width="16" height="16"/>
  <object id="2109" gid="305" x="242" y="693.227" width="16" height="16"/>
  <object id="2110" gid="305" x="258" y="677.227" width="16" height="16"/>
  <object id="2111" gid="305" x="242" y="677.227" width="16" height="16"/>
  <object id="2112" gid="305" x="242" y="725.227" width="16" height="16"/>
  <object id="2113" gid="305" x="242" y="709.227" width="16" height="16"/>
  <object id="2114" gid="305" x="242" y="725.227" width="16" height="16"/>
  <object id="2115" gid="305" x="258" y="725.227" width="16" height="16"/>
  <object id="2116" gid="305" x="258" y="693.227" width="16" height="16"/>
  <object id="2117" gid="305" x="258" y="677.227" width="16" height="16"/>
  <object id="2118" gid="305" x="242" y="629.227" width="16" height="16"/>
  <object id="2119" gid="305" x="274" y="661.227" width="16" height="16"/>
  <object id="2120" gid="305" x="258" y="661.227" width="16" height="16"/>
  <object id="2121" gid="305" x="274" y="629.227" width="16" height="16"/>
  <object id="2122" gid="305" x="274" y="645.227" width="16" height="16"/>
  <object id="2123" gid="305" x="290" y="645.227" width="16" height="16"/>
  <object id="2124" gid="305" x="290" y="661.227" width="16" height="16"/>
  <object id="2125" gid="306" x="203" y="676.227" width="16" height="16"/>
  <object id="2126" gid="306" x="219" y="660.227" width="16" height="16"/>
  <object id="2127" gid="306" x="267" y="644.227" width="16" height="16"/>
  <object id="2128" gid="305" x="219" y="676.227" width="16" height="16"/>
  <object id="2129" gid="305" x="219" y="692.227" width="16" height="16"/>
  <object id="2130" gid="305" x="219" y="708.227" width="16" height="16"/>
  <object id="2131" gid="305" x="235" y="708.227" width="16" height="16"/>
  <object id="2132" gid="305" x="235" y="708.227" width="16" height="16"/>
  <object id="2133" gid="305" x="235" y="676.227" width="16" height="16"/>
  <object id="2134" gid="305" x="235" y="692.227" width="16" height="16"/>
  <object id="2135" gid="305" x="251" y="708.227" width="16" height="16"/>
  <object id="2136" gid="305" x="251" y="676.227" width="16" height="16"/>
  <object id="2137" gid="305" x="251" y="708.227" width="16" height="16"/>
  <object id="2138" gid="305" x="267" y="692.227" width="16" height="16"/>
  <object id="2139" gid="305" x="251" y="692.227" width="16" height="16"/>
  <object id="2140" gid="305" x="251" y="740.227" width="16" height="16"/>
  <object id="2141" gid="305" x="251" y="724.227" width="16" height="16"/>
  <object id="2142" gid="305" x="251" y="740.227" width="16" height="16"/>
  <object id="2143" gid="305" x="267" y="740.227" width="16" height="16"/>
  <object id="2144" gid="305" x="267" y="708.227" width="16" height="16"/>
  <object id="2145" gid="305" x="267" y="692.227" width="16" height="16"/>
  <object id="2146" gid="305" x="267" y="724.227" width="16" height="16"/>
  <object id="2147" gid="305" x="251" y="644.227" width="16" height="16"/>
  <object id="2148" gid="305" x="283" y="676.227" width="16" height="16"/>
  <object id="2149" gid="305" x="267" y="676.227" width="16" height="16"/>
  <object id="2150" gid="305" x="283" y="644.227" width="16" height="16"/>
  <object id="2151" gid="305" x="283" y="660.227" width="16" height="16"/>
  <object id="2154" gid="306" x="434" y="597.227" width="16" height="16"/>
  <object id="2157" gid="305" x="386" y="661.227" width="16" height="16"/>
  <object id="2158" gid="305" x="402" y="661.227" width="16" height="16"/>
  <object id="2159" gid="305" x="402" y="661.227" width="16" height="16"/>
  <object id="2162" gid="305" x="418" y="661.227" width="16" height="16"/>
  <object id="2163" gid="305" x="418" y="629.227" width="16" height="16"/>
  <object id="2164" gid="305" x="418" y="661.227" width="16" height="16"/>
  <object id="2165" gid="305" x="434" y="645.227" width="16" height="16"/>
  <object id="2166" gid="305" x="418" y="645.227" width="16" height="16"/>
  <object id="2167" gid="305" x="418" y="693.227" width="16" height="16"/>
  <object id="2168" gid="305" x="418" y="677.227" width="16" height="16"/>
  <object id="2169" gid="305" x="418" y="693.227" width="16" height="16"/>
  <object id="2170" gid="305" x="434" y="693.227" width="16" height="16"/>
  <object id="2171" gid="305" x="434" y="661.227" width="16" height="16"/>
  <object id="2172" gid="305" x="434" y="645.227" width="16" height="16"/>
  <object id="2173" gid="305" x="418" y="597.227" width="16" height="16"/>
  <object id="2174" gid="305" x="450" y="629.227" width="16" height="16"/>
  <object id="2175" gid="305" x="434" y="629.227" width="16" height="16"/>
  <object id="2176" gid="305" x="450" y="597.227" width="16" height="16"/>
  <object id="2177" gid="305" x="450" y="613.227" width="16" height="16"/>
  <object id="2178" gid="305" x="466" y="613.227" width="16" height="16"/>
  <object id="2179" gid="305" x="466" y="629.227" width="16" height="16"/>
  <object id="2182" gid="306" x="443" y="612.227" width="16" height="16"/>
  <object id="2184" gid="305" x="395" y="660.227" width="16" height="16"/>
  <object id="2185" gid="305" x="395" y="676.227" width="16" height="16"/>
  <object id="2186" gid="305" x="411" y="676.227" width="16" height="16"/>
  <object id="2187" gid="305" x="411" y="676.227" width="16" height="16"/>
  <object id="2189" gid="305" x="411" y="660.227" width="16" height="16"/>
  <object id="2190" gid="305" x="427" y="676.227" width="16" height="16"/>
  <object id="2191" gid="305" x="427" y="644.227" width="16" height="16"/>
  <object id="2192" gid="305" x="427" y="676.227" width="16" height="16"/>
  <object id="2193" gid="305" x="443" y="660.227" width="16" height="16"/>
  <object id="2194" gid="305" x="427" y="660.227" width="16" height="16"/>
  <object id="2195" gid="305" x="427" y="708.227" width="16" height="16"/>
  <object id="2196" gid="305" x="427" y="692.227" width="16" height="16"/>
  <object id="2197" gid="305" x="427" y="708.227" width="16" height="16"/>
  <object id="2198" gid="305" x="443" y="708.227" width="16" height="16"/>
  <object id="2199" gid="305" x="443" y="676.227" width="16" height="16"/>
  <object id="2200" gid="305" x="443" y="660.227" width="16" height="16"/>
  <object id="2201" gid="305" x="443" y="692.227" width="16" height="16"/>
  <object id="2202" gid="305" x="427" y="612.227" width="16" height="16"/>
  <object id="2203" gid="305" x="459" y="644.227" width="16" height="16"/>
  <object id="2204" gid="305" x="443" y="644.227" width="16" height="16"/>
  <object id="2205" gid="305" x="459" y="612.227" width="16" height="16"/>
  <object id="2206" gid="305" x="459" y="628.227" width="16" height="16"/>
  <object id="2207" gid="306" x="338" y="677.227" width="16" height="16"/>
  <object id="2208" gid="306" x="354" y="661.227" width="16" height="16"/>
  <object id="2210" gid="305" x="354" y="677.227" width="16" height="16"/>
  <object id="2211" gid="305" x="354" y="693.227" width="16" height="16"/>
  <object id="2212" gid="305" x="354" y="709.227" width="16" height="16"/>
  <object id="2213" gid="305" x="370" y="709.227" width="16" height="16"/>
  <object id="2214" gid="305" x="370" y="709.227" width="16" height="16"/>
  <object id="2215" gid="305" x="370" y="677.227" width="16" height="16"/>
  <object id="2216" gid="305" x="370" y="693.227" width="16" height="16"/>
  <object id="2217" gid="305" x="386" y="709.227" width="16" height="16"/>
  <object id="2218" gid="305" x="386" y="677.227" width="16" height="16"/>
  <object id="2219" gid="305" x="386" y="709.227" width="16" height="16"/>
  <object id="2220" gid="305" x="402" y="693.227" width="16" height="16"/>
  <object id="2221" gid="305" x="386" y="693.227" width="16" height="16"/>
  <object id="2222" gid="305" x="386" y="741.227" width="16" height="16"/>
  <object id="2223" gid="305" x="386" y="725.227" width="16" height="16"/>
  <object id="2224" gid="305" x="386" y="741.227" width="16" height="16"/>
  <object id="2225" gid="305" x="402" y="741.227" width="16" height="16"/>
  <object id="2226" gid="305" x="402" y="709.227" width="16" height="16"/>
  <object id="2227" gid="305" x="402" y="693.227" width="16" height="16"/>
  <object id="2229" gid="305" x="418" y="677.227" width="16" height="16"/>
  <object id="2230" gid="305" x="402" y="677.227" width="16" height="16"/>
  <object id="2231" gid="305" x="418" y="645.227" width="16" height="16"/>
  <object id="2232" gid="305" x="418" y="661.227" width="16" height="16"/>
  <object id="2233" gid="305" x="434" y="661.227" width="16" height="16"/>
  <object id="2234" gid="305" x="434" y="677.227" width="16" height="16"/>
  <object id="2235" gid="306" x="347" y="692.227" width="16" height="16"/>
  <object id="2236" gid="306" x="363" y="676.227" width="16" height="16"/>
  <object id="2237" gid="306" x="411" y="660.227" width="16" height="16"/>
  <object id="2238" gid="305" x="363" y="692.227" width="16" height="16"/>
  <object id="2239" gid="305" x="363" y="708.227" width="16" height="16"/>
  <object id="2240" gid="305" x="363" y="724.227" width="16" height="16"/>
  <object id="2241" gid="305" x="379" y="724.227" width="16" height="16"/>
  <object id="2242" gid="305" x="379" y="724.227" width="16" height="16"/>
  <object id="2243" gid="305" x="379" y="692.227" width="16" height="16"/>
  <object id="2244" gid="305" x="379" y="708.227" width="16" height="16"/>
  <object id="2245" gid="305" x="395" y="724.227" width="16" height="16"/>
  <object id="2246" gid="305" x="395" y="692.227" width="16" height="16"/>
  <object id="2247" gid="305" x="395" y="724.227" width="16" height="16"/>
  <object id="2248" gid="305" x="411" y="708.227" width="16" height="16"/>
  <object id="2249" gid="305" x="395" y="708.227" width="16" height="16"/>
  <object id="2250" gid="305" x="395" y="756.23" width="16" height="16"/>
  <object id="2251" gid="305" x="395" y="740.227" width="16" height="16"/>
  <object id="2252" gid="305" x="395" y="756.23" width="16" height="16"/>
  <object id="2253" gid="305" x="411" y="756.23" width="16" height="16"/>
  <object id="2254" gid="305" x="411" y="724.227" width="16" height="16"/>
  <object id="2255" gid="305" x="411" y="708.227" width="16" height="16"/>
  <object id="2256" gid="305" x="411" y="740.227" width="16" height="16"/>
  <object id="2257" gid="305" x="395" y="660.227" width="16" height="16"/>
  <object id="2258" gid="305" x="427" y="692.227" width="16" height="16"/>
  <object id="2259" gid="305" x="411" y="692.227" width="16" height="16"/>
  <object id="2260" gid="305" x="427" y="660.227" width="16" height="16"/>
  <object id="2261" gid="305" x="427" y="676.227" width="16" height="16"/>
  <object id="2262" gid="306" x="258" y="741.227" width="16" height="16"/>
  <object id="2263" gid="306" x="274" y="725.227" width="16" height="16"/>
  <object id="2264" gid="306" x="322" y="709.227" width="16" height="16"/>
  <object id="2265" gid="305" x="274" y="741.227" width="16" height="16"/>
  <object id="2266" gid="305" x="274" y="757.23" width="16" height="16"/>
  <object id="2267" gid="305" x="274" y="773.23" width="16" height="16"/>
  <object id="2268" gid="305" x="290" y="773.23" width="16" height="16"/>
  <object id="2269" gid="305" x="290" y="773.23" width="16" height="16"/>
  <object id="2270" gid="305" x="290" y="741.227" width="16" height="16"/>
  <object id="2271" gid="305" x="290" y="757.23" width="16" height="16"/>
  <object id="2272" gid="305" x="306" y="773.23" width="16" height="16"/>
  <object id="2273" gid="305" x="306" y="741.227" width="16" height="16"/>
  <object id="2274" gid="305" x="306" y="773.23" width="16" height="16"/>
  <object id="2275" gid="305" x="322" y="757.23" width="16" height="16"/>
  <object id="2276" gid="305" x="306" y="757.23" width="16" height="16"/>
  <object id="2277" gid="305" x="306" y="805.23" width="16" height="16"/>
  <object id="2278" gid="305" x="306" y="789.23" width="16" height="16"/>
  <object id="2279" gid="305" x="306" y="805.23" width="16" height="16"/>
  <object id="2280" gid="305" x="322" y="805.23" width="16" height="16"/>
  <object id="2281" gid="305" x="322" y="773.23" width="16" height="16"/>
  <object id="2282" gid="305" x="322" y="757.23" width="16" height="16"/>
  <object id="2283" gid="305" x="306" y="709.227" width="16" height="16"/>
  <object id="2284" gid="305" x="338" y="741.227" width="16" height="16"/>
  <object id="2285" gid="305" x="322" y="741.227" width="16" height="16"/>
  <object id="2286" gid="305" x="338" y="709.227" width="16" height="16"/>
  <object id="2287" gid="305" x="338" y="725.227" width="16" height="16"/>
  <object id="2288" gid="305" x="354" y="725.227" width="16" height="16"/>
  <object id="2289" gid="305" x="354" y="741.227" width="16" height="16"/>
  <object id="2290" gid="306" x="267" y="756.23" width="16" height="16"/>
  <object id="2291" gid="306" x="283" y="740.227" width="16" height="16"/>
  <object id="2292" gid="306" x="331" y="724.227" width="16" height="16"/>
  <object id="2293" gid="305" x="283" y="756.23" width="16" height="16"/>
  <object id="2294" gid="305" x="283" y="772.23" width="16" height="16"/>
  <object id="2295" gid="305" x="283" y="788.23" width="16" height="16"/>
  <object id="2296" gid="305" x="299" y="788.23" width="16" height="16"/>
  <object id="2297" gid="305" x="299" y="788.23" width="16" height="16"/>
  <object id="2298" gid="305" x="299" y="756.23" width="16" height="16"/>
  <object id="2299" gid="305" x="299" y="772.23" width="16" height="16"/>
  <object id="2300" gid="305" x="315" y="788.23" width="16" height="16"/>
  <object id="2301" gid="305" x="315" y="756.23" width="16" height="16"/>
  <object id="2302" gid="305" x="315" y="788.23" width="16" height="16"/>
  <object id="2303" gid="305" x="331" y="772.23" width="16" height="16"/>
  <object id="2304" gid="305" x="315" y="772.23" width="16" height="16"/>
  <object id="2306" gid="305" x="315" y="804.23" width="16" height="16"/>
  <object id="2309" gid="305" x="331" y="788.23" width="16" height="16"/>
  <object id="2310" gid="305" x="331" y="772.23" width="16" height="16"/>
  <object id="2311" gid="305" x="331" y="804.23" width="16" height="16"/>
  <object id="2312" gid="305" x="315" y="724.227" width="16" height="16"/>
  <object id="2313" gid="305" x="347" y="756.23" width="16" height="16"/>
  <object id="2314" gid="305" x="331" y="756.23" width="16" height="16"/>
  <object id="2315" gid="305" x="347" y="724.227" width="16" height="16"/>
  <object id="2316" gid="305" x="347" y="740.227" width="16" height="16"/>
  <object id="2317" gid="306" x="274" y="709.227" width="16" height="16"/>
  <object id="2318" gid="306" x="290" y="709.227" width="16" height="16"/>
  <object id="2319" gid="306" x="290" y="725.227" width="16" height="16"/>
  <object id="2320" gid="306" x="306" y="725.227" width="16" height="16"/>
  <object id="2322" gid="306" x="370" y="661.227" width="16" height="16"/>
  <object id="2323" gid="306" x="242" y="645.227" width="16" height="16"/>
  <object id="2324" gid="306" x="370" y="741.227" width="16" height="16"/>
 </objectgroup>
 <objectgroup id="6" name="stone">
  <object id="313" gid="2122" x="272" y="448" width="32" height="32"/>
  <object id="314" gid="2122" x="352" y="480" width="32" height="32"/>
  <object id="316" gid="2122" x="576" y="384" width="32" height="32"/>
  <object id="318" gid="2122" x="0" y="304" width="32" height="32"/>
  <object id="320" gid="2122" x="608" y="688" width="32" height="32"/>
  <object id="321" gid="2122" x="512" y="512" width="32" height="32"/>
  <object id="322" gid="2122" x="128" y="688" width="32" height="32"/>
  <object id="325" gid="2122" x="672" y="336" width="32" height="32"/>
  <object id="326" gid="2122" x="400" y="416" width="32" height="32"/>
  <object id="327" gid="2122" x="336" y="368" width="32" height="32"/>
  <object id="328" gid="2122" x="256" y="352" width="32" height="32"/>
  <object id="2478" gid="2122" x="288" y="768" width="32" height="32"/>
  <object id="2483" gid="1977" x="496" y="176" width="48" height="96"/>
  <object id="2488" gid="1977" x="48" y="304" width="48" height="96"/>
  <object id="2489" gid="1977" x="528" y="208" width="48" height="96"/>
  <object id="2491" gid="1977" x="960" y="160" width="48" height="96"/>
  <object id="2492" gid="1977" x="1040" y="224" width="48" height="96"/>
  <object id="2496" gid="1977" x="1040" y="128" width="48" height="96"/>
  <object id="2497" gid="1977" x="1024" y="128" width="48" height="96"/>
  <object id="2498" gid="1977" x="976" y="240" width="48" height="96"/>
  <object id="2499" gid="1977" x="1040" y="336" width="48" height="96"/>
  <object id="2513" gid="1977" x="624" y="144" width="48" height="96"/>
  <object id="2514" gid="1977" x="562" y="104" width="48" height="96"/>
  <object id="2515" gid="1977" x="576" y="176" width="48" height="96"/>
  <object id="2516" gid="1977" x="736" y="272" width="48" height="96"/>
  <object id="2517" gid="1977" x="672" y="224" width="48" height="96"/>
 </objectgroup>
 <objectgroup id="2" name="tree">
  <object id="8" gid="160" x="112" y="213" width="16" height="16"/>
  <object id="9" gid="160" x="90" y="176" width="16" height="16"/>
  <object id="10" gid="160" x="101" y="198" width="16" height="16"/>
  <object id="11" gid="160" x="77" y="160" width="16" height="16"/>
  <object id="12" gid="160" x="197" y="262" width="16" height="16"/>
  <object id="13" gid="160" x="285" y="361" width="16" height="16"/>
  <object id="14" gid="160" x="271" y="380" width="16" height="16"/>
  <object id="15" gid="160" x="234" y="396" width="16" height="16"/>
  <object id="16" gid="160" x="175" y="358" width="16" height="16"/>
  <object id="17" gid="160" x="147" y="291" width="16" height="16"/>
  <object id="18" gid="160" x="244" y="349" width="16" height="16"/>
  <object id="19" gid="160" x="168" y="277" width="16" height="16"/>
  <object id="20" gid="160" x="213" y="278" width="16" height="16"/>
  <object id="21" gid="160" x="103" y="197" width="16" height="16"/>
  <object id="40" gid="131" x="231" y="348" width="16" height="16"/>
  <object id="41" gid="131" x="216.5" y="282" width="16" height="16"/>
  <object id="42" gid="131" x="95.5" y="382.5" width="16" height="16"/>
  <object id="43" gid="131" x="88" y="388" width="16" height="16"/>
  <object id="44" gid="131" x="98.5" y="418.5" width="16" height="16"/>
  <object id="76" x="213" y="363"/>
  <object id="80" gid="1977" x="16" y="224" width="48" height="96"/>
  <object id="84" gid="1977" x="176" y="528" width="48" height="96"/>
  <object id="85" gid="1977" x="464" y="656" width="48" height="96"/>
  <object id="86" gid="1977" x="592" y="608" width="48" height="96"/>
  <object id="87" gid="1977" x="464" y="352" width="48" height="96"/>
  <object id="88" gid="1977" x="640" y="304" width="48" height="96"/>
  <object id="89" gid="1977" x="160" y="352" width="48" height="96"/>
  <object id="90" gid="1977" x="80" y="496" width="48" height="96"/>
  <object id="91" gid="1977" x="80" y="656" width="48" height="96"/>
  <object id="93" gid="1977" x="720" y="592" width="48" height="96"/>
  <object id="94" gid="1977" x="576" y="224" width="48" height="96"/>
  <object id="95" gid="1977" x="0" y="96" width="48" height="96"/>
 </objectgroup>
 <objectgroup id="7" name="pool">
  <object id="2325" gid="335" x="896" y="576" width="16" height="16"/>
  <object id="2326" gid="335" x="912" y="560" width="16" height="16"/>
  <object id="2327" gid="335" x="912" y="576" width="16" height="16"/>
  <object id="2328" gid="335" x="912" y="576" width="16" height="16"/>
  <object id="2329" gid="335" x="928" y="560" width="16" height="16"/>
  <object id="2330" gid="335" x="928" y="576" width="16" height="16"/>
  <object id="2331" gid="335" x="928" y="576" width="16" height="16"/>
  <object id="2332" gid="335" x="944" y="560" width="16" height="16"/>
  <object id="2333" gid="335" x="944" y="576" width="16" height="16"/>
  <object id="2334" gid="335" x="960" y="576" width="16" height="16"/>
  <object id="2335" gid="335" x="976" y="576" width="16" height="16"/>
  <object id="2336" gid="335" x="976" y="576" width="16" height="16"/>
  <object id="2337" gid="335" x="976" y="560" width="16" height="16"/>
  <object id="2338" gid="335" x="944" y="560" width="16" height="16"/>
  <object id="2339" gid="335" x="944" y="560" width="16" height="16"/>
  <object id="2340" gid="335" x="944" y="560" width="16" height="16"/>
  <object id="2341" gid="335" x="960" y="528" width="16" height="16"/>
  <object id="2342" gid="335" x="960" y="528" width="16" height="16"/>
  <object id="2343" gid="335" x="928" y="544" width="16" height="16"/>
  <object id="2344" gid="335" x="928" y="544" width="16" height="16"/>
  <object id="2345" gid="335" x="928" y="560" width="16" height="16"/>
  <object id="2346" gid="335" x="944" y="560" width="16" height="16"/>
  <object id="2347" gid="335" x="944" y="544" width="16" height="16"/>
  <object id="2348" gid="335" x="960" y="560" width="16" height="16"/>
  <object id="2349" gid="335" x="960" y="544" width="16" height="16"/>
  <object id="2350" gid="335" x="976" y="544" width="16" height="16"/>
  <object id="2351" gid="335" x="896" y="528" width="16" height="16"/>
  <object id="2352" gid="335" x="928" y="528" width="16" height="16"/>
  <object id="2353" gid="335" x="912" y="544" width="16" height="16"/>
  <object id="2354" gid="335" x="896" y="560" width="16" height="16"/>
  <object id="2355" gid="335" x="896" y="560" width="16" height="16"/>
  <object id="2356" gid="335" x="880" y="560" width="16" height="16"/>
  <object id="2357" gid="335" x="896" y="576" width="16" height="16"/>
  <object id="2358" gid="335" x="928" y="592" width="16" height="16"/>
  <object id="2359" gid="335" x="944" y="592" width="16" height="16"/>
  <object id="2360" gid="335" x="944" y="592" width="16" height="16"/>
  <object id="2361" gid="335" x="960" y="592" width="16" height="16"/>
  <object id="2362" gid="335" x="992" y="544" width="16" height="16"/>
  <object id="2363" gid="335" x="1008" y="560" width="16" height="16"/>
  <object id="2364" gid="335" x="1008" y="576" width="16" height="16"/>
  <object id="2365" gid="335" x="992" y="576" width="16" height="16"/>
  <object id="2366" gid="335" x="992" y="560" width="16" height="16"/>
  <object id="2367" gid="335" x="1024" y="560" width="16" height="16"/>
  <object id="2369" gid="306" x="945.5" y="559.333" width="16" height="16"/>
  <object id="2370" gid="306" x="961.5" y="543.333" width="16" height="16"/>
  <object id="2371" gid="305" x="961.5" y="559.333" width="16" height="16"/>
  <object id="2372" gid="306" x="970.5" y="558.333" width="16" height="16"/>
  <object id="2373" gid="335" x="913.5" y="543.333" width="16" height="16"/>
  <object id="2374" gid="335" x="929.5" y="527.333" width="16" height="16"/>
  <object id="2375" gid="335" x="929.5" y="543.333" width="16" height="16"/>
  <object id="2376" gid="335" x="929.5" y="543.333" width="16" height="16"/>
  <object id="2377" gid="335" x="945.5" y="527.333" width="16" height="16"/>
  <object id="2378" gid="335" x="945.5" y="543.333" width="16" height="16"/>
  <object id="2379" gid="335" x="945.5" y="543.333" width="16" height="16"/>
  <object id="2380" gid="335" x="961.5" y="527.333" width="16" height="16"/>
  <object id="2381" gid="335" x="961.5" y="543.333" width="16" height="16"/>
  <object id="2382" gid="335" x="961.5" y="527.333" width="16" height="16"/>
  <object id="2383" gid="335" x="961.5" y="527.333" width="16" height="16"/>
  <object id="2384" gid="335" x="961.5" y="527.333" width="16" height="16"/>
  <object id="2385" gid="335" x="945.5" y="511.333" width="16" height="16"/>
  <object id="2386" gid="335" x="945.5" y="511.333" width="16" height="16"/>
  <object id="2387" gid="335" x="945.5" y="527.333" width="16" height="16"/>
  <object id="2388" gid="335" x="961.5" y="527.333" width="16" height="16"/>
  <object id="2389" gid="335" x="961.5" y="511.333" width="16" height="16"/>
  <object id="2390" gid="335" x="961.5" y="495.333" width="16" height="16"/>
  <object id="2391" gid="335" x="945.5" y="495.333" width="16" height="16"/>
  <object id="2392" gid="335" x="929.5" y="511.333" width="16" height="16"/>
  <object id="2393" gid="335" x="913.5" y="527.333" width="16" height="16"/>
  <object id="2394" gid="335" x="913.5" y="527.333" width="16" height="16"/>
  <object id="2395" gid="335" x="897.5" y="527.333" width="16" height="16"/>
  <object id="2396" gid="335" x="913.5" y="543.333" width="16" height="16"/>
  <object id="2397" gid="335" x="945.5" y="559.333" width="16" height="16"/>
  <object id="2398" gid="335" x="961.5" y="559.333" width="16" height="16"/>
  <object id="2399" gid="335" x="961.5" y="559.333" width="16" height="16"/>
  <object id="2449" gid="335" x="896" y="560.667" width="16" height="16"/>
  <object id="2450" gid="335" x="880" y="528.667" width="16" height="16"/>
  <object id="2451" gid="335" x="896" y="544.667" width="16" height="16"/>
  <object id="2452" gid="335" x="880" y="560.667" width="16" height="16"/>
  <object id="2453" gid="335" x="880" y="560.667" width="16" height="16"/>
  <object id="2454" gid="335" x="864" y="560.667" width="16" height="16"/>
  <object id="2455" gid="335" x="897.5" y="544" width="16" height="16"/>
  <object id="2456" gid="335" x="897.5" y="528" width="16" height="16"/>
  <object id="2457" gid="335" x="897.5" y="528" width="16" height="16"/>
  <object id="2458" gid="335" x="881.5" y="528" width="16" height="16"/>
  <object id="2459" gid="335" x="897.5" y="544" width="16" height="16"/>
  <object id="2460" gid="335" x="880" y="544" width="16" height="16"/>
  <object id="2461" gid="335" x="912" y="512" width="16" height="16"/>
  <object id="2462" gid="335" x="928" y="496" width="16" height="16"/>
  <object id="2463" gid="335" x="976" y="496" width="16" height="16"/>
  <object id="2464" gid="335" x="976" y="528" width="16" height="16"/>
  <object id="2465" gid="335" x="976" y="512" width="16" height="16"/>
  <object id="2466" gid="335" x="992" y="528" width="16" height="16"/>
  <object id="2467" gid="335" x="992" y="496" width="16" height="16"/>
  <object id="2468" gid="335" x="992" y="512" width="16" height="16"/>
  <object id="2469" gid="335" x="1008" y="512" width="16" height="16"/>
  <object id="2470" gid="335" x="1008" y="528" width="16" height="16"/>
  <object id="2471" gid="335" x="1008" y="544" width="16" height="16"/>
  <object id="2472" gid="335" x="1024" y="544" width="16" height="16"/>
  <object id="2473" gid="335" x="1024" y="528" width="16" height="16"/>
  <object id="2474" gid="335" x="1024" y="512" width="16" height="16"/>
  <object id="2475" gid="335" x="976" y="544" width="16" height="16"/>
  <object id="2476" gid="335" x="960" y="560" width="16" height="16"/>
 </objectgroup>
</map>
