<?xml version="1.0" encoding="UTF-8"?>
<map version="1.10" tiledversion="1.11.2" orientation="orthogonal" renderorder="right-down" width="85" height="60" tilewidth="16" tileheight="16" infinite="0" nextlayerid="10" nextobjectid="32">
 <tileset firstgid="1" source="spring_town.tsx"/>
 <tileset firstgid="1985" source="outdoors_spring.tsx"/>
 <layer id="9" name="图块层 3" width="85" height="60">
  <data encoding="csv">
737,737,737,737,737,737,737,737,737,737,737,737,737,737,737,737,737,737,737,737,737,737,737,737,737,737,737,737,737,737,737,737,737,737,737,737,737,737,737,737,737,737,737,737,737,737,737,737,737,737,737,737,737,737,737,737,737,737,737,737,737,737,737,737,737,737,737,737,737,737,737,737,737,737,737,737,737,737,737,737,737,737,737,737,737,
737,737,737,737,737,737,737,737,737,737,737,737,737,737,737,737,737,737,737,737,737,737,737,737,737,737,737,737,737,737,737,737,737,737,737,737,737,737,737,737,737,737,737,737,737,737,737,737,737,737,737,737,737,737,737,737,737,737,737,737,737,737,737,737,737,737,737,737,737,737,737,737,737,737,737,737,737,737,737,737,737,737,737,737,737,
737,737,737,737,737,737,737,737,737,737,737,737,737,737,737,737,737,737,737,737,737,737,737,737,737,737,737,737,737,737,737,737,737,737,737,737,737,737,737,737,737,737,737,737,737,737,737,737,737,737,737,737,737,737,737,737,737,737,737,737,737,737,737,737,737,737,737,737,737,737,737,737,737,737,737,737,737,737,737,737,737,737,737,737,737,
737,737,737,737,737,737,737,737,737,737,737,737,737,737,737,737,737,737,737,737,737,737,737,737,737,737,737,737,737,737,737,737,737,737,737,737,737,737,737,737,737,737,737,737,737,737,737,737,737,737,737,737,737,737,737,737,737,737,737,737,737,737,737,737,737,737,737,737,737,737,737,737,737,737,737,737,737,737,737,737,737,737,737,737,737,
737,737,737,737,737,737,737,737,737,737,737,737,737,737,737,737,737,737,737,737,737,737,737,737,737,737,737,737,737,737,737,737,737,737,737,737,737,737,737,737,737,737,737,737,737,737,737,737,737,737,737,737,737,737,737,737,737,737,737,737,737,737,737,737,737,737,737,737,737,737,737,737,737,737,737,737,737,737,737,737,737,737,737,737,737,
737,737,737,737,737,737,737,737,737,737,737,737,737,737,737,737,737,737,737,737,737,737,737,737,737,737,737,737,737,737,737,737,737,737,737,737,737,737,737,737,737,737,737,737,737,737,737,737,737,737,737,737,737,737,737,737,737,737,737,737,737,737,737,737,737,737,737,737,737,737,737,737,737,737,737,737,737,737,737,737,737,737,737,737,737,
737,737,737,737,737,737,737,737,737,737,737,737,737,737,737,737,737,737,737,737,737,737,737,737,737,737,737,737,737,737,737,737,737,737,737,737,737,737,737,737,737,737,737,737,737,737,737,737,737,737,737,737,737,737,737,737,737,737,737,737,737,737,737,737,737,737,737,737,737,737,737,737,737,737,737,737,737,737,737,737,737,737,737,737,737,
737,737,737,737,737,737,737,737,737,737,737,737,737,737,737,737,737,737,737,737,737,737,737,737,737,737,737,737,737,737,737,737,737,737,737,737,737,737,737,737,737,737,737,737,737,737,737,737,737,737,737,737,737,737,737,737,737,737,737,737,737,737,737,737,737,737,737,737,737,737,737,737,737,737,737,737,737,737,737,737,737,737,737,737,737,
737,737,737,737,737,737,737,737,737,737,737,737,737,737,737,737,737,737,737,737,737,737,737,737,737,737,737,737,737,737,737,737,737,737,737,737,737,737,737,737,737,737,737,737,737,737,737,737,737,737,737,737,737,737,737,737,737,737,737,737,737,737,737,737,737,737,737,737,737,737,737,737,737,737,737,737,737,737,737,737,737,737,737,737,737,
737,737,737,737,737,737,737,737,737,737,737,737,737,737,737,737,737,737,737,737,737,737,737,737,737,737,737,737,737,737,737,737,737,737,737,737,737,737,737,737,737,737,737,737,737,737,737,737,737,737,737,737,737,737,737,737,737,737,737,737,737,737,737,737,737,737,737,737,737,737,737,737,737,737,737,737,737,737,737,737,737,737,737,737,737,
737,737,737,737,737,737,737,737,737,737,737,737,737,737,737,737,737,737,737,737,737,737,737,737,737,737,737,737,737,737,737,737,737,737,737,737,737,737,737,737,737,737,737,737,737,737,737,737,737,737,737,737,737,737,737,737,737,737,737,737,737,737,737,737,737,737,737,737,737,737,737,737,737,737,737,737,737,737,737,737,737,737,737,737,737,
737,737,737,737,737,737,737,737,737,737,737,737,737,737,737,737,737,737,737,737,737,737,737,737,737,737,737,737,737,737,737,737,737,737,737,737,737,737,737,737,737,737,737,737,737,737,737,737,737,737,737,737,737,737,737,737,737,737,737,737,737,737,737,737,737,737,737,737,737,737,737,737,737,737,737,737,737,737,737,737,737,737,737,737,737,
737,737,737,737,737,737,737,737,737,737,737,737,737,737,737,737,737,737,737,737,737,737,737,737,737,737,737,737,737,737,737,737,737,737,737,737,737,737,737,737,737,737,737,737,737,737,737,737,737,737,737,737,737,737,737,737,737,737,737,737,737,737,737,737,737,737,737,737,737,737,737,737,737,737,737,737,737,737,737,737,737,737,737,737,737,
737,737,737,737,737,737,737,737,737,737,737,737,737,737,737,737,737,737,737,737,737,737,737,737,737,737,737,737,737,737,737,737,737,737,737,737,737,737,737,737,737,737,737,737,737,737,737,737,737,737,737,737,737,737,737,737,737,737,737,737,737,737,737,737,737,737,737,737,737,737,737,737,737,737,737,737,737,737,737,737,737,737,737,737,737,
737,737,737,737,737,737,737,737,737,737,737,737,737,737,737,737,737,737,737,737,737,737,737,737,737,737,737,737,737,737,737,737,737,737,737,737,737,737,737,737,737,737,737,737,737,737,737,737,737,737,737,737,737,737,737,737,737,737,737,737,737,737,737,737,737,737,737,737,737,737,737,737,737,737,737,737,737,737,737,737,737,737,737,737,737,
737,737,737,737,737,737,737,737,737,737,737,737,737,737,737,737,737,737,737,737,737,737,737,737,737,737,737,737,737,737,737,737,737,737,737,737,737,737,737,737,737,737,737,737,737,737,737,737,737,737,737,737,737,737,737,737,737,737,737,737,737,737,737,737,737,737,737,737,737,737,737,737,737,737,737,737,737,737,737,737,737,737,737,737,737,
737,737,737,737,737,737,737,737,737,737,737,737,737,737,737,737,737,737,737,737,737,737,737,737,737,737,737,737,737,737,737,737,737,737,737,737,737,737,737,737,737,737,737,737,737,737,737,737,737,737,737,737,737,737,737,737,737,737,737,737,737,737,737,737,737,737,737,737,737,737,737,737,737,737,737,737,737,737,737,737,737,737,737,737,737,
737,737,737,737,737,737,737,737,737,737,737,737,737,737,737,737,737,737,737,737,737,737,737,737,737,737,737,737,737,737,737,737,737,737,737,737,737,737,737,737,737,737,737,737,737,737,737,737,737,737,737,737,737,737,737,737,737,737,737,737,737,737,737,737,737,737,737,737,737,737,737,737,737,737,737,737,737,737,737,737,737,737,737,737,737,
737,737,737,737,737,737,737,737,737,737,737,737,737,737,737,737,737,737,737,737,737,737,737,737,737,737,737,737,737,737,737,737,737,737,737,737,737,737,737,737,737,737,737,737,737,737,737,737,737,737,737,737,737,737,737,737,737,737,737,737,737,737,737,737,737,737,737,737,737,737,737,737,737,737,737,737,737,737,737,737,737,737,737,737,737,
737,737,737,737,737,737,737,737,737,737,737,737,737,737,737,737,737,737,737,737,737,737,737,737,737,737,737,737,737,737,737,737,737,737,737,737,737,737,737,737,737,737,737,737,737,737,737,737,737,737,737,737,737,737,737,737,737,737,737,737,737,737,737,737,737,737,737,737,737,737,737,737,737,737,737,737,737,737,737,737,737,737,737,737,737,
737,737,737,737,737,737,737,737,737,737,737,737,737,737,737,737,737,737,737,737,737,737,737,737,737,737,737,737,737,737,737,737,737,737,737,737,737,737,737,737,737,737,737,737,737,737,737,737,737,737,737,737,737,737,737,737,737,737,737,737,737,737,737,737,737,737,737,737,737,737,737,737,737,737,737,737,737,737,737,737,737,737,737,737,737,
737,737,737,737,737,737,737,737,737,737,737,737,737,737,737,737,737,737,737,737,737,737,737,737,737,737,737,737,737,737,737,737,737,737,737,737,737,737,737,737,737,737,737,737,737,737,737,737,737,737,737,737,737,737,737,737,737,737,737,737,737,737,737,737,737,737,737,737,737,737,737,737,737,737,737,737,737,737,737,737,737,737,737,737,737,
737,737,737,737,737,737,737,737,737,737,737,737,737,737,737,737,737,737,737,737,737,737,737,737,737,737,737,737,737,737,737,737,737,737,737,737,737,737,737,737,737,737,737,737,737,737,737,737,737,737,737,737,737,737,737,737,737,737,737,737,737,737,737,737,737,737,737,737,737,737,737,737,737,737,737,737,737,737,737,737,737,737,737,737,737,
737,737,737,737,737,737,737,737,737,737,737,737,737,737,737,737,737,737,737,737,737,737,737,737,737,737,737,737,737,737,737,737,737,737,737,737,737,737,737,737,737,737,737,737,737,737,737,737,737,737,737,737,737,737,737,737,737,737,737,737,737,737,737,737,737,737,737,737,737,737,737,737,737,737,737,737,737,737,737,737,737,737,737,737,737,
737,737,737,737,737,737,737,737,737,737,737,737,737,737,737,737,737,737,737,737,737,737,737,737,737,737,737,737,737,737,737,737,737,737,737,737,737,737,737,737,737,737,737,737,737,737,737,737,737,737,737,737,737,737,737,737,737,737,737,737,737,737,737,737,737,737,737,737,737,737,737,737,737,737,737,737,737,737,737,737,737,737,737,737,737,
737,737,737,737,737,737,737,737,737,737,737,737,737,737,737,737,737,737,737,737,737,737,737,737,737,737,737,737,737,737,737,737,737,737,737,737,737,737,737,737,737,737,737,737,737,737,737,737,737,737,737,737,737,737,737,737,737,737,737,737,737,737,737,737,737,737,737,737,737,737,737,737,737,737,737,737,737,737,737,737,737,737,737,737,737,
737,737,737,737,737,737,737,737,737,737,737,737,737,737,737,737,737,737,737,737,737,737,737,737,737,737,737,737,737,737,737,737,737,737,737,737,737,737,737,737,737,737,737,737,737,737,737,737,737,737,737,737,737,737,737,737,737,737,737,737,737,737,737,737,737,737,737,737,737,737,737,737,737,737,737,737,737,737,737,737,737,737,737,737,737,
737,737,737,737,737,737,737,737,737,737,737,737,737,737,737,737,737,737,737,737,737,737,737,737,737,737,737,737,737,737,737,737,737,737,737,737,737,737,737,737,737,737,737,737,737,737,737,737,737,737,737,737,737,737,737,737,737,737,737,737,737,737,737,737,737,737,737,737,737,737,737,737,737,737,737,737,737,737,737,737,737,737,737,737,737,
737,737,737,737,737,737,737,737,737,737,737,737,737,737,737,737,737,737,737,737,737,737,737,737,737,737,737,737,737,737,737,737,737,737,737,737,737,737,737,737,737,737,737,737,737,737,737,737,737,737,737,737,737,737,737,737,737,737,737,737,737,737,737,737,737,737,737,737,737,737,737,737,737,737,737,737,737,737,737,737,737,737,737,737,737,
737,737,737,737,737,737,737,737,737,737,737,737,737,737,737,737,737,737,737,737,737,737,737,737,737,737,737,737,737,737,737,737,737,737,737,737,737,737,737,737,737,737,737,737,737,737,737,737,737,737,737,737,737,737,737,737,737,737,737,737,737,737,737,737,737,737,737,737,737,737,737,737,737,737,737,737,737,737,737,737,737,737,737,737,737,
737,737,737,737,737,737,737,737,737,737,737,737,737,737,737,737,737,737,737,737,737,737,737,737,737,737,737,737,737,737,737,737,737,737,737,737,737,737,737,737,737,737,737,737,737,737,737,737,737,737,737,737,737,737,737,737,737,737,737,737,737,737,737,737,737,737,737,737,737,737,737,737,737,737,737,737,737,737,737,737,737,737,737,737,737,
737,737,737,737,737,737,737,737,737,737,737,737,737,737,737,737,737,737,737,737,737,737,737,737,737,737,737,737,737,737,737,737,737,737,737,737,737,737,737,737,737,737,737,737,737,737,737,737,737,737,737,737,737,737,737,737,737,737,737,737,737,737,737,737,737,737,737,737,737,737,737,737,737,737,737,737,737,737,737,737,737,737,737,737,737,
737,737,737,737,737,737,737,737,737,737,737,737,737,737,737,737,737,737,737,737,737,737,737,737,737,737,737,737,737,737,737,737,737,737,737,737,737,737,737,737,737,737,737,737,737,737,737,737,737,737,737,737,737,737,737,737,737,737,737,737,737,737,737,737,737,737,737,737,737,737,737,737,737,737,737,737,737,737,737,737,737,737,737,737,737,
737,737,737,737,737,737,737,737,737,737,737,737,737,737,737,737,737,737,737,737,737,737,737,737,737,737,737,737,737,737,737,737,737,737,737,737,737,737,737,737,737,737,737,737,737,737,737,737,737,737,737,737,737,737,737,737,737,737,737,737,737,737,737,737,737,737,737,737,737,737,737,737,737,737,737,737,737,737,737,737,737,737,737,737,737,
737,737,737,737,737,737,737,737,737,737,737,737,737,737,737,737,737,737,737,737,737,737,737,737,737,737,737,737,737,737,737,737,737,737,737,737,737,737,737,737,737,737,737,737,737,737,737,737,737,737,737,737,737,737,737,737,737,737,737,737,737,737,737,737,737,737,737,737,737,737,737,737,737,737,737,737,737,737,737,737,737,737,737,737,737,
737,737,737,737,737,737,737,737,737,737,737,737,737,737,737,737,737,737,737,737,737,737,737,737,737,737,737,737,737,737,737,737,737,737,737,737,737,737,737,737,737,737,737,737,737,737,737,737,737,737,737,737,737,737,737,737,737,737,737,737,737,737,737,737,737,737,737,737,737,737,737,737,737,737,737,737,737,737,737,737,737,737,737,737,737,
737,737,737,737,737,737,737,737,737,737,737,737,737,737,737,737,737,737,737,737,737,737,737,737,737,737,737,737,737,737,737,737,737,737,737,737,737,737,737,737,737,737,737,737,737,737,737,737,737,737,737,737,737,737,737,737,737,737,737,737,737,737,737,737,737,737,737,737,737,737,737,737,737,737,737,737,737,737,737,737,737,737,737,737,737,
737,737,737,737,737,737,737,737,737,737,737,737,737,737,737,737,737,737,737,737,737,737,737,737,737,737,737,737,737,737,737,737,737,737,737,737,737,737,737,737,737,737,737,737,737,737,737,737,737,737,737,737,737,737,737,737,737,737,737,737,737,737,737,737,737,737,737,737,737,737,737,737,737,737,737,737,737,737,737,737,737,737,737,737,737,
737,737,737,737,737,737,737,737,737,737,737,737,737,737,737,737,737,737,737,737,737,737,737,737,737,737,737,737,737,737,737,737,737,737,737,737,737,737,737,737,737,737,737,737,737,737,737,737,737,737,737,737,737,737,737,737,737,737,737,737,737,737,737,737,737,737,737,737,737,737,737,737,737,737,737,737,737,737,737,737,737,737,737,737,737,
737,737,737,737,737,737,737,737,737,737,737,737,737,737,737,737,737,737,737,737,737,737,737,737,737,737,737,737,737,737,737,737,737,737,737,737,737,737,737,737,737,737,737,737,737,737,737,737,737,737,737,737,737,737,737,737,737,737,737,737,737,737,737,737,737,737,737,737,737,737,737,737,737,737,737,737,737,737,737,737,737,737,737,737,737,
737,737,737,737,737,737,737,737,737,737,737,737,737,737,737,737,737,737,737,737,737,737,737,737,737,737,737,737,737,737,737,737,737,737,737,737,737,737,737,737,737,737,737,737,737,737,737,737,737,737,737,737,737,737,737,737,737,737,737,737,737,737,737,737,737,737,737,737,737,737,737,737,737,737,737,737,737,737,737,737,737,737,737,737,737,
737,737,737,737,737,737,737,737,737,737,737,737,737,737,737,737,737,737,737,737,737,737,737,737,737,737,737,737,737,737,737,737,737,737,737,737,737,737,737,737,737,737,737,737,737,737,737,737,737,737,737,737,737,737,737,737,737,737,737,737,737,737,737,737,737,737,737,737,737,737,737,737,737,737,737,737,737,737,737,737,737,737,737,737,737,
737,737,737,737,737,737,737,737,737,737,737,737,737,737,737,737,737,737,737,737,737,737,737,737,737,737,737,737,737,737,737,737,737,737,737,737,737,737,737,737,737,737,737,737,737,737,737,737,737,737,737,737,737,737,737,737,737,737,737,737,737,737,737,737,737,737,737,737,737,737,737,737,737,737,737,737,737,737,737,737,737,737,737,737,737,
737,737,737,737,737,737,737,737,737,737,737,737,737,737,737,737,737,737,737,737,737,737,737,737,737,737,737,737,737,737,737,737,737,737,737,737,737,737,737,737,737,737,737,737,737,737,737,737,737,737,737,737,737,737,737,737,737,737,737,737,737,737,737,737,737,737,737,737,737,737,737,737,737,737,737,737,737,737,737,737,737,737,737,737,737,
737,737,737,737,737,737,737,737,737,737,737,737,737,737,737,737,737,737,737,737,737,737,737,737,737,737,737,737,737,737,737,737,737,737,737,737,737,737,737,737,737,737,737,737,737,737,737,737,737,737,737,737,737,737,737,737,737,737,737,737,737,737,737,737,737,737,737,737,737,737,737,737,737,737,737,737,737,737,737,737,737,737,737,737,737,
737,737,737,737,737,737,737,737,737,737,737,737,737,737,737,737,737,737,737,737,737,737,737,737,737,737,737,737,737,737,737,737,737,737,737,737,737,737,737,737,737,737,737,737,737,737,737,737,737,737,737,737,737,737,737,737,737,737,737,737,737,737,737,737,737,737,737,737,737,737,737,737,737,737,737,737,737,737,737,737,737,737,737,737,737,
737,737,737,737,737,737,737,737,737,737,737,737,737,737,737,737,737,737,737,737,737,737,737,737,737,737,737,737,737,737,737,737,737,737,737,737,737,737,737,737,737,737,737,737,737,737,737,737,737,737,737,737,737,737,737,737,737,737,737,737,737,737,737,737,737,737,737,737,737,737,737,737,737,737,737,737,737,737,737,737,737,737,737,737,737,
737,737,737,737,737,737,737,737,737,737,737,737,737,737,737,737,737,737,737,737,737,737,737,737,737,737,737,737,737,737,737,737,737,737,737,737,737,737,737,737,737,737,737,737,737,737,737,737,737,737,737,737,737,737,737,737,737,737,737,737,737,737,737,737,737,737,737,737,737,737,737,737,737,737,737,737,737,737,737,737,737,737,737,737,737,
737,737,737,737,737,737,737,737,737,737,737,737,737,737,737,737,737,737,737,737,737,737,737,737,737,737,737,737,737,737,737,737,737,737,737,737,737,737,737,737,737,737,737,737,737,737,737,737,737,737,737,737,737,737,737,737,737,737,737,737,737,737,737,737,737,737,737,737,737,737,737,737,737,737,737,737,737,737,737,737,737,737,737,737,737,
737,737,737,737,737,737,737,737,737,737,737,737,737,737,737,737,737,737,737,737,737,737,737,737,737,737,737,737,737,737,737,737,737,737,737,737,737,737,737,737,737,737,737,737,737,737,737,737,737,737,737,737,737,737,737,737,737,737,737,737,737,737,737,737,737,737,737,737,737,737,737,737,737,737,737,737,737,737,737,737,737,737,737,737,737,
737,737,737,737,737,737,737,737,737,737,737,737,737,737,737,737,737,737,737,737,737,737,737,737,737,737,737,737,737,737,737,737,737,737,737,737,737,737,737,737,737,737,737,737,737,737,737,737,737,737,737,737,737,737,737,737,737,737,737,737,737,737,737,737,737,737,737,737,737,737,737,737,737,737,737,737,737,737,737,737,737,737,737,737,737,
737,737,737,737,737,737,737,737,737,737,737,737,737,737,737,737,737,737,737,737,737,737,737,737,737,737,737,737,737,737,737,737,737,737,737,737,737,737,737,737,737,737,737,737,737,737,737,737,737,737,737,737,737,737,737,737,737,737,737,737,737,737,737,737,737,737,737,737,737,737,737,737,737,737,737,737,737,737,737,737,737,737,737,737,737,
737,737,737,737,737,737,737,737,737,737,737,737,737,737,737,737,737,737,737,737,737,737,737,737,737,737,737,737,737,737,737,737,737,737,737,737,737,737,737,737,737,737,737,737,737,737,737,737,737,737,737,737,737,737,737,737,737,737,737,737,737,737,737,737,737,737,737,737,737,737,737,737,737,737,737,737,737,737,737,737,737,737,737,737,737,
737,737,737,737,737,737,737,737,737,737,737,737,737,737,737,737,737,737,737,737,737,737,737,737,737,737,737,737,737,737,737,737,737,737,737,737,737,737,737,737,737,737,737,737,737,737,737,737,737,737,737,737,737,737,737,737,737,737,737,737,737,737,737,737,737,737,737,737,737,737,737,737,737,737,737,737,737,737,737,737,737,737,737,737,737,
737,737,737,737,737,737,737,737,737,737,737,737,737,737,737,737,737,737,737,737,737,737,737,737,737,737,737,737,737,737,737,737,737,737,737,737,737,737,737,737,737,737,737,737,737,737,737,737,737,737,737,737,737,737,737,737,737,737,737,737,737,737,737,737,737,737,737,737,737,737,737,737,737,737,737,737,737,737,737,737,737,737,737,737,737,
737,737,737,737,737,737,737,737,737,737,737,737,737,737,737,737,737,737,737,737,737,737,737,737,737,737,737,737,737,737,737,737,737,737,737,737,737,737,737,737,737,737,737,737,737,737,737,737,737,737,737,737,737,737,737,737,737,737,737,737,737,737,737,737,737,737,737,737,737,737,737,737,737,737,737,737,737,737,737,737,737,737,737,737,737,
737,737,737,737,737,737,737,737,737,737,737,737,737,737,737,737,737,737,737,737,737,737,737,737,737,737,737,737,737,737,737,737,737,737,737,737,737,737,737,737,737,737,737,737,737,737,737,737,737,737,737,737,737,737,737,737,737,737,737,737,737,737,737,737,737,737,737,737,737,737,737,737,737,737,737,737,737,737,737,737,737,737,737,737,737,
737,737,737,737,737,737,737,737,737,737,737,737,737,737,737,737,737,737,737,737,737,737,737,737,737,737,737,737,737,737,737,737,737,737,737,737,737,737,737,737,737,737,737,737,737,737,737,737,737,737,737,737,737,737,737,737,737,737,737,737,737,737,737,737,737,737,737,737,737,737,737,737,737,737,737,737,737,737,737,737,737,737,737,737,737,
737,737,737,737,737,737,737,737,737,737,737,737,737,737,737,737,737,737,737,737,737,737,737,737,737,737,737,737,737,737,737,737,737,737,737,737,737,737,737,737,737,737,737,737,737,737,737,737,737,737,737,737,737,737,737,737,737,737,737,737,737,737,737,737,737,737,737,737,737,737,737,737,737,737,737,737,737,737,737,737,737,737,737,737,737,
737,737,737,737,737,737,737,737,737,737,737,737,737,737,737,737,737,737,737,737,737,737,737,737,737,737,737,737,737,737,737,737,737,737,737,737,737,737,737,737,737,737,737,737,737,737,737,737,737,737,737,737,737,737,737,737,737,737,737,737,737,737,737,737,737,737,737,737,737,737,737,737,737,737,737,737,737,737,737,737,737,737,737,737,737
</data>
 </layer>
 <layer id="1" name="图块层 1" width="85" height="60">
  <data encoding="csv">
2260,2260,2260,2260,2260,2260,2260,2260,2260,2260,2260,2260,2260,2260,2260,2260,2260,2260,2260,2260,2260,2260,2260,2260,2260,2260,2260,2260,2260,2260,2260,2260,2260,2260,2260,2260,2260,2260,2260,2260,2260,2260,2260,2260,2260,2260,2260,2260,2260,2260,2260,2260,2260,2260,2260,2260,2260,2260,2260,2260,2260,2260,2260,2260,2260,2260,2260,2260,2260,2260,2260,2260,2260,2260,2260,2260,2260,2260,2260,2260,2260,2260,2260,2260,2260,
2260,2260,2260,2260,2260,2260,2260,2260,2260,2260,2260,2260,2260,2260,2260,2260,2260,2260,2260,2260,2260,2260,2260,2260,2260,2260,2260,2260,2260,2260,2260,2260,2260,2260,2260,2260,2260,2260,2260,2260,2260,2260,2260,2260,2260,2260,2260,2260,2260,2260,2260,2260,2260,2260,2260,2260,2260,2260,2260,2260,2260,2260,2260,2260,2260,2260,2260,2260,2260,2260,2260,2260,2260,2260,2260,2260,2260,2260,2260,2260,2260,2260,2260,2260,2260,
2260,2260,2260,2260,2260,2260,2260,2260,2260,2260,2260,2260,2260,2260,2260,2260,2260,2260,2260,2260,2260,2260,2260,2260,2260,2260,2260,2260,2260,2260,2260,2260,2260,2260,2260,2260,2260,2260,2260,2260,2260,2260,2260,2260,2260,2260,2260,2260,2260,2260,2260,2260,2260,2260,2260,2260,2260,2260,2260,2260,2260,2260,2260,2260,2260,2260,2260,2260,2260,2260,2260,2260,2260,2260,2260,2260,2260,2260,2260,2260,2260,2260,2260,2260,2260,
2260,2260,2260,2260,2260,2260,2260,2260,2260,2260,2260,2260,2260,2260,2260,2260,2260,2260,2260,2260,2260,2260,2260,2260,2260,2260,2260,2260,2260,2260,2260,2260,2260,2260,2260,2260,2260,2260,2260,2260,2260,2260,2260,2260,2260,2260,2260,2260,2260,2260,2260,2260,2260,2260,2260,2260,2260,2260,2260,2260,2260,2260,2260,2260,2260,2260,2260,2260,2260,2260,2260,2260,2260,2260,2260,2260,2260,2260,2260,2260,2260,2260,2260,2260,2260,
2260,2260,2260,2260,2260,2260,2260,2260,2260,2260,2260,2260,2260,2260,2260,2260,2260,2260,2260,2260,2260,2260,2260,2260,2260,2260,2260,2260,2260,2260,2260,2260,2260,2260,2260,2260,2260,2260,2260,2260,2260,2260,2260,2260,2260,2260,2260,2260,2260,2260,2260,2260,2260,2260,2260,2260,2260,2260,2260,2260,2260,2260,2260,2260,2260,2260,2260,2260,2260,2260,2260,2260,2260,2260,2260,2260,2260,2260,2260,2260,2260,2260,2260,2260,2260,
2260,2260,2260,2260,2260,2260,2260,2260,2260,2260,2260,2260,2260,2260,2260,2260,2260,2260,2260,2260,2260,2260,2260,2260,2260,2260,2260,2260,2260,2260,2260,2260,2260,2260,2260,2260,2260,2260,2260,2260,2260,2260,2260,2260,2260,2260,2260,2260,2260,2260,2260,2260,2260,2260,2260,2260,2260,2260,2260,2260,2260,2260,2260,2260,2260,2260,2260,2260,2260,2260,2260,2260,2260,2260,2260,2260,2260,2260,2260,2260,2260,2260,2260,2260,2260,
2260,2260,2260,2260,2260,2260,2260,2260,2260,2260,2260,2260,2260,2260,2260,2260,2260,2260,2260,2260,2260,2260,2260,2260,2260,2260,2260,2260,2260,2260,2260,2260,2260,2260,2260,2260,2260,2260,2260,2260,2260,2260,2260,2260,2260,2260,2260,2260,2260,2260,2260,2260,2260,2260,2260,2260,2260,2260,2260,2260,2260,2260,2260,2260,2260,2260,2260,2260,2260,2260,2260,2260,2260,2260,2260,2260,2260,2260,2260,2260,2260,2260,2260,2260,2260,
2260,2260,2260,2260,2260,2260,2260,2260,2260,2260,2260,2260,2260,2260,2260,2260,2260,2260,2260,2260,2260,2260,2260,2260,2260,2260,2260,2260,2260,2260,2260,2260,2260,2260,2260,2260,2260,2260,2260,2260,2260,2260,2260,2260,2260,2260,2260,2260,2260,2260,2260,2260,2260,2260,2260,2260,2260,2260,2260,2260,2260,2260,2260,2260,2260,2260,2260,2260,2260,2260,2260,2260,2260,2260,2260,2260,2260,2260,2260,2260,2260,2260,2260,2260,2260,
2260,2260,2260,2260,2260,2260,2260,2260,2260,2260,2260,2260,2260,2260,2260,2260,2260,2260,2260,2260,2260,2260,2260,2260,2260,2260,2260,2260,2260,2260,2260,2260,2260,2260,2260,2260,2260,2260,2260,2260,2260,2260,2260,2260,2260,2260,2260,2260,2260,2260,2260,2260,2260,2260,2260,2260,2260,2260,2260,2260,2260,2260,2260,2260,2260,2260,2260,2260,2260,2260,2260,2260,2260,2260,2260,2260,2260,2260,2260,2260,2260,2260,2260,2260,2260,
2260,2260,2260,2260,2260,2260,2260,2260,2260,2260,2260,2260,2260,2260,2260,2260,2260,2260,2260,2260,2260,2260,2260,2260,2260,2260,2260,2260,2260,2260,2260,2260,2260,2260,2260,2260,2260,2260,2260,2260,2260,2260,2260,2260,2260,2260,2260,2260,2260,2260,2260,2260,2260,2260,2260,2260,2260,2260,2260,2260,2260,2260,2260,2260,2260,2260,2260,2260,2260,2260,2260,2260,2260,2260,2260,2260,2260,2260,2260,2260,2260,2260,2260,2260,2260,
2260,2260,2260,2260,2260,2260,2260,2260,2260,2260,2260,2260,2260,2260,2260,2260,2260,2260,2260,2260,2260,2260,2260,2260,2260,2260,2260,2260,2260,2260,2260,2260,2260,2260,2260,2260,2260,2260,2260,2260,2260,2260,2260,2260,2260,2260,2260,2260,2260,2260,2260,2260,2260,2260,2260,2260,2260,2260,2260,2260,2260,2260,2260,2260,2260,2260,2260,2260,2260,2260,2260,2260,2260,2260,2260,2260,2260,2260,2260,2260,2260,2260,2260,2260,2260,
2260,2260,2260,2260,2260,2260,2260,2260,2260,2260,2260,2260,2260,2260,2260,2260,2260,2260,2260,2260,2260,2260,2260,2260,2260,2260,2260,2260,2260,2260,2260,2260,2260,2260,2260,2260,2260,2260,2260,2260,2260,2260,2260,2260,2260,2260,2260,2260,2260,2260,2260,2260,2260,2260,2260,2260,2260,2260,2260,2260,2260,2260,2260,2260,2260,2260,2260,2260,2260,2260,2260,2260,2260,2260,2260,2260,2260,2260,2260,2260,2260,2260,2260,2260,2260,
2260,2260,2260,2260,2260,2260,2260,2260,2260,2260,2260,2260,2260,2260,2260,2260,2260,2260,2260,2260,2260,2260,2260,2260,2260,2260,2260,2260,2260,2260,2260,2260,2260,2260,2260,2260,2260,2260,2260,2260,2260,2260,2260,2260,2260,2260,2260,2260,2260,2260,2260,2260,2260,2260,2260,2260,2260,2260,2260,2260,2260,2260,2260,2260,2260,2260,2260,2260,2260,2260,2260,2260,2260,2260,2260,2260,2260,2260,2260,2260,2260,2260,2260,2260,2260,
2260,2260,2260,2260,2260,2260,2260,2260,2260,2260,2260,2260,2260,2260,2260,2260,2260,2260,2260,2260,2260,2260,2260,2260,2260,2260,2260,2260,2260,2260,2260,2260,2260,2260,2260,2260,2260,2260,2260,2260,2260,2260,2260,2260,2260,2260,2260,2260,2260,2260,2260,2260,2260,2260,2260,2260,2260,2260,2260,2260,2260,2260,2260,2260,2260,2260,2260,2260,2260,2260,2260,2260,2260,2260,2260,2260,2260,2260,2260,2260,2260,2260,2260,2260,2260,
2260,2260,2260,2260,2260,2260,2260,2260,2260,2260,2260,2260,2260,2260,2260,2260,2260,2260,2260,2260,2260,2260,2260,2260,2260,2260,2260,2260,2260,2260,2260,2260,2260,2260,2260,2260,2260,2260,2260,2260,2260,2260,2260,2260,2260,2260,2260,2260,2260,2260,2260,2260,2260,2260,2260,2260,2260,2260,2260,2260,2260,2260,2260,2260,2260,2260,2260,2260,2260,2260,2260,2260,2260,2260,2260,2260,2260,2260,2260,2260,2260,2260,2260,2260,2260,
2260,2260,2260,2260,2260,2260,2260,2260,2260,2260,2260,2260,2260,2260,2260,2260,2260,2260,2260,2260,2260,2260,2260,2260,2260,2260,2260,2260,2260,2260,2260,2260,2260,2260,2260,2260,2260,2260,2260,2260,2260,2260,2260,2260,2260,2260,2260,2260,2260,2260,2260,2260,2260,2260,2260,2260,2260,2260,2260,2260,2260,2260,2260,2260,2260,2260,2260,2260,2260,2260,2260,2260,2260,2260,2260,2260,2260,2260,2260,2260,2260,2260,2260,2260,2260,
2260,2260,2260,2260,2260,2260,2260,2260,2260,2260,2260,2260,2260,2260,2260,2260,2260,2260,2260,2260,2260,2260,2260,2260,2260,2260,2260,2260,2260,2260,2260,2260,2260,2260,2260,2260,2260,2260,2260,2260,2260,2260,2260,2260,2260,2260,2260,2260,2260,2260,2260,2260,2260,2260,2260,2260,2260,2260,2260,2260,2260,2260,2260,2260,2260,2260,2260,2260,2260,2260,2260,2260,2260,2260,2260,2260,2260,2260,2260,2260,2260,2260,2260,2260,2260,
2260,2260,2260,2260,2260,2260,2260,2260,2260,2260,2260,2260,2260,2260,2260,2260,2260,2260,2260,2260,2260,2260,2260,2260,2260,2260,2260,2260,2260,2260,2260,2260,2260,2260,2260,2260,2260,2260,2260,2260,2260,2260,2260,2260,2260,2260,2260,2260,2260,2260,2260,2260,2260,2260,2260,2260,2260,2260,2260,2260,2260,2260,2260,2260,2260,2260,2260,2260,2260,2260,2260,2260,2260,2260,2260,2260,2260,2260,2260,2260,2260,2260,2260,2260,2260,
2260,2260,2260,2260,2260,2260,2260,2260,2260,2260,2260,2260,2260,2260,2260,2260,2260,2260,2260,2260,2260,2260,2260,2260,2260,2260,2260,2260,2260,2260,2260,2260,2260,2260,2260,2260,2260,2260,2260,2260,2260,2260,2260,2260,2260,2260,2260,2260,2260,2260,2260,2260,2260,2260,2260,2260,2260,2260,2260,2260,2260,2260,2260,2260,2260,2260,2260,2260,2260,2260,2260,2260,2260,2260,2260,2260,2260,2260,2260,2260,2260,2260,2260,2260,2260,
2260,2260,2260,2260,2260,2260,2260,2260,2260,2260,2260,2260,2260,2260,2260,2260,2260,2260,2260,2260,2260,2260,2260,2260,2260,2260,2260,998,2260,2260,2260,2260,934,934,934,934,934,934,934,934,934,934,934,934,934,2260,2260,2260,2260,2260,2260,2260,2260,2260,2260,2260,2260,2260,2260,2260,2260,2260,2260,2260,2260,2260,2260,2260,2260,2260,2260,2260,2260,2260,2260,2260,2260,2260,2260,2260,2260,2260,2260,2260,2260,
2260,2260,2260,2260,2260,2260,2260,2260,2260,2260,2260,2260,2260,2260,2260,2260,2260,2260,2260,2260,2260,2260,2260,2260,998,998,998,998,998,998,998,998,998,998,998,998,998,998,998,998,998,998,998,998,998,934,934,934,2260,2260,2260,2260,2260,2260,2260,2260,2260,2260,2260,2260,2260,2260,2260,2260,2260,2260,2260,2260,2260,2260,2260,2260,2260,2260,2260,2260,2260,2260,2260,2260,2260,2260,2260,2260,2260,
2260,2260,2260,2260,2260,2260,2260,2260,2260,2260,2260,2260,2260,2260,2260,2260,2260,2260,2260,2260,2260,2260,998,998,998,998,998,998,998,998,998,998,998,998,998,998,998,998,998,998,998,998,998,998,998,998,998,998,998,998,2260,2260,2260,2260,2260,2260,2260,2260,2260,2260,2260,2260,2260,2260,2260,2260,2260,2260,2260,2260,2260,2260,2260,2260,2260,2260,2260,2260,2260,2260,2260,2260,2260,2260,2260,
2260,2260,2260,2260,2260,2260,2260,2260,2260,2260,2260,2260,2260,2260,2260,2260,2260,2260,2260,2260,2260,2260,998,998,998,998,998,998,998,998,998,998,998,998,998,998,998,998,998,998,998,998,998,738,738,738,738,738,738,738,2260,2260,2260,2260,2260,2260,2260,2260,2260,2260,2260,2260,2260,2260,2260,2260,2260,2260,2260,2260,2260,2260,2260,2260,2260,2260,2260,2260,2260,2260,2260,2260,2260,2260,2260,
2260,2260,2260,2260,2260,2260,2260,2260,2260,2260,2260,2260,2260,2260,2260,2260,2260,2260,2260,2260,2260,2260,2260,2260,2260,2260,998,998,998,998,998,998,998,998,998,998,998,998,998,998,998,998,998,998,998,2260,2260,2260,2260,2260,2260,2260,2260,2260,2260,2260,2260,2260,2260,2260,2260,2260,2260,2260,2260,2260,2260,2260,2260,2260,2260,2260,2260,2260,2260,2260,2260,2260,2260,2260,2260,2260,2260,2260,2260,
2260,2260,2260,2260,2260,2260,2260,2260,2260,2260,2260,2260,2260,2260,2260,2260,2260,2260,2260,2260,2260,2260,2260,2260,2260,2260,2260,2260,2260,998,998,2260,2260,2260,998,998,2260,2260,2260,2260,2260,2260,2260,2260,2260,2260,2260,2260,2260,2260,2260,2260,2260,2260,2260,2260,2260,2260,2260,2260,2260,2260,2260,2260,2260,2260,2260,2260,2260,2260,2260,2260,2260,2260,2260,2260,2260,2260,2260,2260,2260,2260,2260,2260,2260,
2260,2260,2260,2260,2260,2260,2260,2260,2260,2260,2260,2260,2260,2260,2260,2260,2260,2260,2260,2260,2260,2260,2260,2260,2260,2260,2260,2260,2260,998,998,2260,2260,2260,998,998,2260,2260,2260,2260,2260,2260,2260,2260,2260,2260,2260,2260,2260,2260,2260,2260,2260,2260,2260,2260,2260,2260,2260,2260,2260,2260,2260,2260,2260,2260,2260,2260,2260,2260,2260,2260,2260,2260,2260,2260,2260,2260,2260,2260,2260,2260,2260,2260,2260,
2260,2260,2260,2260,2260,2260,2260,2260,2260,2260,2260,2260,2260,2260,2260,2260,2260,2260,2260,2260,2260,2260,2260,2260,2260,2260,2260,2260,2260,998,998,2260,2260,2260,998,998,2260,2260,2260,2260,2260,2260,2260,2260,2260,2260,2260,2260,2260,2260,2260,2260,2260,2260,2260,2260,2260,2260,2260,2260,2260,2260,2260,2260,2260,2260,2260,2260,2260,2260,2260,2260,2260,2260,2260,2260,2260,2260,2260,2260,2260,2260,2260,2260,2260,
2260,2260,2260,2260,2260,2260,2260,2260,2260,2260,2260,2260,2260,2260,2260,2260,2260,2260,2260,2260,2260,2260,2260,2260,2260,2260,2260,2260,2260,998,998,2260,2260,2260,998,998,2260,2260,2260,2260,2260,2260,2260,2260,2260,2260,2260,2260,2260,2260,2260,2260,2260,2260,2260,2260,2260,2260,2260,2260,2260,2260,2260,2260,2260,2260,2260,2260,2260,2260,2260,2260,2260,2260,2260,2260,2260,2260,2260,2260,2260,2260,2260,2260,2260,
998,998,998,998,998,998,998,998,998,998,998,998,998,998,998,998,998,998,998,998,998,998,998,998,998,998,998,998,998,998,998,2260,2260,2260,998,998,2260,2260,2260,2260,2260,2260,2260,2260,2260,2260,2260,2260,2260,2260,2260,2260,2260,2260,2260,2260,2260,2260,2260,2260,2260,2260,2260,2260,2260,2260,2260,2260,2260,2260,2260,2260,2260,2260,2260,2260,2260,2260,2260,2260,2260,2260,2260,2260,2260,
998,998,998,998,998,998,998,998,998,998,998,998,998,998,998,998,998,998,998,998,998,998,998,998,998,998,998,998,998,998,998,2260,2260,2260,998,998,2260,2260,2260,2260,2260,2260,2260,2260,2260,2260,2260,2260,2260,2260,2260,2260,2260,2260,2260,2260,2260,2260,2260,2260,2260,2260,2260,2260,2260,2260,2260,2260,2260,2260,2260,2260,2260,2260,2260,2260,2260,2260,2260,2260,2260,2260,2260,2260,2260,
2260,2260,2260,2260,2260,2260,2260,2260,2260,2260,2260,2260,2260,2260,998,998,2260,2260,2260,2260,2260,2260,2260,2260,2260,2260,2260,2260,2260,2260,2260,2260,2260,2260,998,998,2260,2260,2260,2260,2260,2260,2260,2260,2260,2260,2260,2260,2260,2260,2260,2260,2260,2260,2260,2260,2260,998,998,998,998,998,998,998,998,998,998,998,2260,2260,2260,2260,2260,2260,2260,2260,2260,2260,2260,2260,2260,2260,2260,2260,2260,
2260,2260,2260,2260,2260,2260,2260,2260,2260,2260,2260,2260,2260,2260,998,998,2260,2260,2260,2260,2260,2260,2260,2260,2260,2260,2260,2260,2260,2260,2260,2260,2260,2260,998,998,2260,2260,2260,2260,2260,2260,2260,2260,2260,2260,2260,2260,2260,2260,2260,2260,2260,2260,998,998,998,998,998,998,998,998,998,998,998,998,998,998,998,998,998,2260,2260,2260,2260,2260,2260,2260,2260,2260,2260,2260,2260,2260,2260,
2260,2260,2260,2260,2260,2260,2260,2260,2260,2260,2260,2260,2260,2260,998,998,2260,2260,2260,2260,2260,2260,2260,2260,2260,2260,2260,2260,2260,2260,2260,2260,2260,2260,998,998,2260,2260,2260,2260,2260,2260,2260,2260,2260,2260,2260,2260,2260,2260,2260,2260,998,998,998,998,998,998,998,998,998,998,998,998,998,998,998,998,998,998,998,998,998,2260,2260,2260,2260,2260,2260,2260,2260,2260,2260,2260,2260,
2260,2260,2260,2260,2260,2260,2260,2260,2260,2260,2260,2260,2260,2260,998,998,2260,2260,2260,2260,2260,2260,2260,2260,2260,2260,2260,2260,2260,2260,2260,2260,2260,2260,998,998,2260,2260,2260,2260,2260,2260,2260,2260,2260,2260,2260,2260,2260,2260,2260,2260,998,998,998,998,998,998,998,998,998,998,998,998,998,998,998,998,998,998,998,998,998,2260,2260,2260,2260,2260,2260,2260,2260,2260,2260,2260,2260,
2260,2260,2260,2260,2260,2260,2260,2260,2260,2260,2260,2260,2260,2260,998,998,2260,2260,2260,2260,2260,2260,2260,2260,2260,2260,2260,2260,2260,2260,2260,2260,2260,2260,998,998,2260,2260,2260,2260,2260,2260,2260,2260,2260,2260,2260,2260,2260,2260,2260,2260,2260,2260,998,998,998,998,998,998,998,998,998,998,998,998,998,998,998,998,998,2260,2260,2260,2260,2260,2260,2260,2260,2260,2260,2260,2260,2260,2260,
2260,2260,2260,2260,2260,2260,2260,2260,2260,2260,2260,2260,2260,2260,998,998,2260,2260,2260,2260,2260,2260,2260,2260,2260,2260,2260,2260,2260,2260,2260,2260,2260,2260,998,998,2260,2260,2260,2260,2260,2260,2260,2260,2260,2260,2260,2260,2260,2260,2260,2260,2260,2260,2260,2260,2260,998,998,998,998,998,998,998,998,998,998,998,2260,2260,2260,2260,2260,2260,2260,2260,2260,2260,2260,2260,2260,2260,2260,2260,2260,
2260,2260,2260,2260,2260,2260,2260,2260,2260,2260,2260,2260,2260,2260,998,998,2260,2260,2260,2260,2260,2260,2260,2260,2260,2260,2260,2260,2260,2260,2260,2260,2260,2260,998,998,2260,2260,2260,2260,2260,2260,998,998,998,998,998,998,998,998,998,998,998,998,998,998,998,998,998,998,998,998,2260,2260,2260,2260,2260,2260,2260,2260,2260,2260,2260,2260,2260,2260,2260,2260,2260,2260,2260,2260,2260,2260,2260,
2260,2260,2260,2260,2260,2260,2260,2260,2260,2260,2260,2260,2260,2260,998,998,2260,2260,2260,2260,2260,2260,2260,2260,2260,2260,2260,2260,2260,2260,2260,2260,2260,2260,998,998,2260,2260,2260,2260,2260,2260,998,998,998,998,998,998,998,998,998,998,998,998,998,998,998,998,998,998,998,998,2260,2260,2260,2260,2260,2260,2260,2260,2260,2260,2260,2260,2260,2260,2260,2260,2260,2260,2260,2260,2260,2260,2260,
2260,2260,2260,2260,2260,2260,2260,2260,2260,2260,2260,2260,2260,2260,998,998,2260,2260,2260,2260,2260,2260,2260,2260,2260,2260,2260,2260,2260,2260,2260,2260,2260,2260,998,998,2260,2260,2260,2260,2260,2260,998,998,2260,2260,2260,2260,2260,2260,2260,2260,2260,2260,2260,2260,2260,2260,2260,2260,2260,2260,2260,2260,2260,2260,2260,2260,2260,2260,2260,2260,2260,2260,2260,2260,2260,2260,2260,2260,2260,2260,2260,2260,2260,
2260,2260,2260,2260,2260,2260,2260,2260,2260,2260,2260,2260,2260,2260,998,998,2260,2260,2260,2260,2260,2260,2260,2260,2260,934,934,934,934,934,934,934,934,934,998,998,934,2260,2260,2260,2260,2260,998,998,2260,2260,2260,2260,2260,2260,2260,2260,2260,2260,2260,2260,2260,2260,2260,2260,2260,2260,2260,2260,2260,2260,2260,2260,2260,2260,2260,2260,2260,2260,2260,2260,2260,2260,2260,2260,2260,2260,2260,2260,2260,
2260,2260,2260,2260,2260,2260,2260,2260,2260,2260,2260,2260,2260,2260,998,998,998,998,998,998,998,998,934,934,934,934,934,934,934,934,934,934,934,934,934,934,934,2260,2260,2260,2260,2260,998,998,2260,2260,2260,2260,2260,2260,2260,2260,2260,2260,2260,2260,2260,2260,2260,2260,2260,2260,2260,2260,2260,2260,2260,2260,2260,2260,2260,2260,2260,2260,2260,2260,2260,2260,2260,2260,2260,2260,2260,2260,2260,
2260,2260,2260,2260,2260,2260,2260,2260,2260,2260,2260,2260,2260,2260,998,998,998,998,998,998,998,998,934,934,934,934,934,934,934,934,934,934,934,934,934,934,998,998,998,998,998,998,998,998,2260,2260,2260,2260,2260,2260,2260,2260,2260,2260,2260,2260,2260,2260,2260,2260,2260,2260,2260,2260,2260,2260,2260,2260,2260,2260,2260,2260,2260,2260,2260,2260,2260,2260,2260,2260,2260,2260,2260,2260,2260,
2260,2260,2260,2260,2260,2260,2260,2260,2260,2260,2260,2260,2260,2260,2260,2260,2260,2260,2260,2260,2260,2260,2260,2260,2260,934,934,934,998,998,934,934,934,934,934,934,998,998,998,998,998,998,998,998,2260,2260,2260,2260,2260,2260,2260,2260,2260,2260,2260,2260,2260,2260,2260,2260,2260,2260,2260,2260,2260,2260,2260,2260,2260,2260,2260,2260,2260,2260,2260,2260,2260,2260,2260,2260,2260,2260,2260,2260,2260,
2260,2260,2260,2260,2260,2260,2260,2260,2260,2260,2260,2260,2260,2260,2260,2260,2260,2260,2260,2260,2260,2260,2260,2260,2260,2260,2260,2260,998,998,2260,2260,2260,2260,2260,2260,2260,2260,2260,2260,2260,2260,998,998,2260,2260,2260,2260,2260,2260,2260,2260,2260,2260,2260,2260,2260,2260,2260,2260,2260,2260,2260,2260,2260,2260,2260,2260,2260,2260,2260,2260,2260,2260,2260,2260,2260,2260,2260,2260,2260,2260,2260,2260,2260,
2260,2260,2260,2260,2260,2260,2260,2260,2260,2260,2260,2260,2260,2260,2260,2260,2260,2260,2260,2260,2260,2260,2260,2260,2260,2260,2260,2260,998,998,2260,2260,2260,2260,2260,2260,2260,2260,2260,2260,2260,2260,998,998,2260,2260,2260,2260,2260,2260,2260,2260,2260,2260,2260,2260,2260,2260,2260,2260,2260,2260,2260,2260,2260,2260,2260,2260,2260,2260,2260,2260,2260,2260,2260,2260,2260,2260,2260,2260,2260,2260,2260,2260,2260,
2260,2260,2260,2260,2260,2260,2260,2260,2260,2260,2260,2260,2260,2260,2260,2260,2260,2260,2260,2260,2260,2260,2260,2260,2260,2260,2260,2260,998,998,2260,2260,2260,2260,2260,2260,2260,2260,2260,2260,2260,2260,998,998,2260,2260,2260,2260,2260,2260,2260,2260,2260,2260,2260,2260,2260,2260,2260,2260,2260,2260,2260,2260,2260,2260,2260,2260,2260,2260,2260,2260,2260,2260,2260,2260,2260,2260,2260,2260,2260,2260,2260,2260,2260,
2260,2260,2260,2260,2260,2260,2260,2260,2260,2260,2260,2260,2260,2260,2260,2260,2260,2260,2260,2260,2260,2260,2260,2260,2260,2260,2260,2260,998,998,2260,2260,2260,2260,2260,2260,2260,2260,2260,2260,2260,2260,998,998,2260,2260,2260,2260,2260,2260,2260,2260,2260,2260,2260,2260,2260,2260,2260,2260,2260,2260,2260,2260,2260,2260,2260,2260,2260,2260,2260,2260,2260,2260,2260,2260,2260,2260,2260,2260,2260,2260,2260,2260,2260,
2260,2260,2260,2260,2260,2260,2260,2260,2260,2260,2260,2260,2260,2260,2260,2260,2260,2260,2260,2260,2260,2260,2260,2260,2260,2260,2260,2260,998,998,2260,2260,2260,2260,2260,2260,2260,2260,2260,2260,2260,2260,998,998,2260,2260,2260,998,998,998,998,998,998,998,998,2260,2260,2260,2260,2260,2260,2260,2260,2260,2260,2260,2260,2260,2260,2260,2260,2260,2260,2260,2260,2260,2260,2260,2260,2260,2260,2260,2260,2260,2260,
2260,2260,2260,2260,2260,2260,2260,2260,2260,2260,2260,2260,2260,2260,2260,2260,2260,2260,2260,2260,2260,2260,2260,2260,2260,2260,2260,2260,998,998,2260,2260,2260,2260,2260,2260,2260,2260,2260,2260,2260,2260,998,998,2260,998,998,998,998,998,998,998,998,998,998,998,998,2260,2260,2260,2260,2260,2260,2260,2260,2260,2260,2260,2260,2260,2260,2260,2260,2260,2260,2260,2260,2260,2260,2260,2260,2260,2260,2260,2260,
2260,2260,2260,2260,2260,2260,2260,2260,2260,2260,2260,2260,2260,2260,2260,2260,2260,2260,2260,2260,2260,2260,2260,2260,2260,2260,2260,2260,998,998,2260,2260,2260,2260,2260,2260,2260,2260,2260,2260,2260,2260,998,998,998,998,998,998,998,998,998,998,998,998,998,998,998,998,2260,2260,2260,2260,2260,2260,2260,2260,2260,2260,2260,2260,2260,2260,2260,2260,2260,2260,2260,2260,2260,2260,2260,2260,2260,2260,2260,
2260,2260,2260,2260,2260,2260,2260,2260,2260,2260,2260,2260,2260,2260,2260,2260,2260,2260,2260,2260,2260,2260,2260,2260,2260,2260,2260,2260,998,998,2260,2260,2260,2260,2260,2260,2260,2260,2260,2260,2260,2260,998,998,998,998,998,998,998,998,998,998,998,998,998,998,998,998,2260,2260,2260,2260,2260,2260,2260,2260,2260,2260,2260,2260,2260,2260,2260,2260,2260,2260,2260,2260,2260,2260,2260,2260,2260,2260,2260,
2260,2260,2260,2260,2260,2260,2260,2260,2260,2260,2260,2260,2260,2260,2260,2260,2260,2260,2260,2260,2260,934,934,934,934,934,934,934,998,998,2260,2260,2260,2260,2260,2260,2260,2260,2260,2260,2260,2260,998,998,2260,998,998,998,998,998,998,998,998,998,998,998,998,2260,2260,2260,2260,2260,2260,2260,2260,2260,2260,2260,2260,2260,2260,2260,2260,2260,2260,2260,2260,2260,2260,2260,2260,2260,2260,2260,2260,
2260,2260,2260,2260,2260,2260,2260,2260,2260,2260,2260,2260,2260,2260,2260,2260,2260,2260,934,934,934,934,934,934,934,934,934,934,934,934,934,2260,2260,2260,2260,2260,2260,2260,2260,2260,2260,2260,998,998,2260,2260,2260,998,998,998,998,998,998,998,998,2260,2260,2260,2260,2260,2260,2260,2260,2260,2260,2260,2260,2260,2260,2260,2260,2260,2260,2260,2260,2260,2260,2260,2260,2260,2260,2260,2260,2260,2260,
2260,2260,2260,2260,2260,2260,2260,2260,2260,2260,2260,2260,2260,2260,2260,2260,2260,934,934,934,934,934,934,934,934,934,934,934,934,934,934,934,2260,2260,2260,2260,2260,2260,2260,2260,2260,2260,998,998,2260,2260,2260,2260,2260,998,998,2260,2260,2260,2260,2260,2260,2260,2260,2260,2260,2260,2260,2260,2260,2260,2260,2260,2260,2260,2260,2260,2260,2260,2260,2260,2260,2260,2260,2260,2260,2260,2260,2260,2260,
2260,2260,2260,2260,2260,2260,2260,2260,2260,2260,2260,2260,2260,2260,2260,2260,2260,934,934,934,934,934,934,934,934,934,934,934,934,934,934,934,2260,2260,2260,2260,2260,2260,2260,2260,2260,2260,998,998,998,998,998,998,998,998,998,2260,2260,2260,2260,2260,2260,2260,2260,2260,2260,2260,2260,2260,2260,2260,2260,2260,2260,2260,2260,2260,2260,2260,2260,2260,2260,2260,2260,2260,2260,2260,2260,2260,2260,
2260,2260,2260,2260,2260,2260,2260,2260,2260,2260,2260,2260,2260,2260,2260,2260,2260,2260,934,934,934,934,934,934,934,934,934,934,934,934,934,2260,2260,2260,2260,2260,2260,2260,2260,2260,2260,2260,998,998,998,998,998,998,998,998,998,2260,2260,2260,2260,2260,2260,2260,2260,2260,2260,2260,2260,2260,2260,2260,2260,2260,2260,2260,2260,2260,2260,2260,2260,2260,2260,2260,2260,2260,2260,2260,2260,2260,2260,
2260,2260,2260,2260,2260,2260,2260,2260,2260,2260,2260,2260,2260,2260,2260,2260,2260,2260,2260,2260,2260,934,934,934,934,934,934,934,2260,2260,2260,2260,2260,2260,2260,2260,2260,2260,2260,2260,2260,2260,2260,2260,2260,2260,2260,2260,2260,2260,2260,2260,2260,2260,2260,2260,2260,2260,2260,2260,2260,2260,2260,2260,2260,2260,2260,2260,2260,2260,2260,2260,2260,2260,2260,2260,2260,2260,2260,2260,2260,2260,2260,2260,2260,
2260,2260,2260,2260,2260,2260,2260,2260,2260,2260,2260,2260,2260,2260,2260,2260,2260,2260,2260,2260,2260,2260,2260,2260,2260,2260,2260,2260,2260,2260,2260,2260,2260,2260,2260,2260,2260,2260,2260,2260,2260,2260,2260,2260,2260,2260,2260,2260,2260,2260,2260,2260,2260,2260,2260,2260,2260,2260,2260,2260,2260,2260,2260,2260,2260,2260,2260,2260,2260,2260,2260,2260,2260,2260,2260,2260,2260,2260,2260,2260,2260,2260,2260,2260,2260,
2260,2260,2260,2260,2260,2260,2260,2260,2260,2260,2260,2260,2260,2260,2260,2260,2260,2260,2260,2260,2260,2260,2260,2260,2260,2260,2260,2260,2260,2260,2260,2260,2260,2260,2260,2260,2260,2260,2260,2260,2260,2260,2260,2260,2260,2260,2260,2260,2260,2260,2260,2260,2260,2260,2260,2260,2260,2260,2260,2260,2260,2260,2260,2260,2260,2260,2260,2260,2260,2260,2260,2260,2260,2260,2260,2260,2260,2260,2260,2260,2260,2260,2260,2260,2260,
2260,2260,2260,2260,2260,2260,2260,2260,2260,2260,2260,2260,2260,2260,2260,2260,2260,2260,2260,2260,2260,2260,2260,2260,2260,2260,2260,2260,2260,2260,2260,2260,2260,2260,2260,2260,2260,2260,2260,2260,2260,2260,2260,2260,2260,2260,2260,2260,2260,2260,2260,2260,2260,2260,2260,2260,2260,2260,2260,2260,2260,2260,2260,2260,2260,2260,2260,2260,2260,2260,2260,2260,2260,2260,2260,2260,2260,2260,2260,2260,2260,2260,2260,2260,2260
</data>
 </layer>
 <layer id="2" name="houses" width="85" height="60">
  <data encoding="csv">
0,0,0,0,0,0,0,0,0,0,0,0,0,0,0,0,0,0,0,0,0,0,0,0,0,0,0,0,0,0,0,0,0,0,0,0,0,0,0,0,0,0,0,0,0,0,0,0,0,0,0,0,0,0,0,0,0,0,0,0,0,0,0,0,0,0,0,0,0,0,0,0,0,0,0,0,0,0,0,0,0,0,0,0,0,
0,0,0,0,0,0,0,0,0,0,0,0,0,0,0,0,0,0,0,0,0,0,0,0,0,0,0,0,0,0,0,0,0,0,0,0,0,0,0,0,0,0,0,0,0,0,0,0,0,0,0,0,0,0,0,0,0,0,0,0,0,0,0,0,0,0,0,0,0,0,0,0,0,0,0,0,0,0,0,0,0,0,0,0,0,
0,0,0,0,0,0,0,0,0,0,0,0,0,0,0,0,0,0,0,0,0,0,0,0,0,0,0,0,0,0,0,0,0,0,0,0,0,0,0,0,0,0,0,0,0,0,0,0,0,0,0,0,0,0,0,0,0,0,0,0,0,0,0,0,0,0,0,0,0,0,0,0,0,0,0,0,0,0,0,0,0,0,0,0,0,
0,0,0,0,0,0,0,0,0,0,0,0,0,0,0,0,0,0,0,0,0,0,0,0,0,0,0,0,0,0,0,0,0,0,0,0,0,0,0,0,0,0,0,0,0,0,0,0,0,0,0,0,0,0,0,0,0,0,0,0,0,0,0,0,0,0,0,0,0,0,0,0,0,0,0,0,0,0,0,0,0,0,0,0,0,
0,0,0,0,0,0,0,0,0,0,0,0,0,0,0,0,0,0,0,0,0,0,0,0,0,0,0,0,0,0,0,0,0,0,0,0,0,0,0,0,0,0,0,0,0,0,0,0,0,0,0,0,0,0,0,0,0,0,0,0,0,0,0,0,0,0,0,0,0,0,0,0,0,0,0,0,0,0,0,0,0,0,0,0,0,
0,0,0,0,0,0,0,0,0,0,0,0,0,0,0,0,0,0,0,0,0,0,0,0,0,0,0,0,0,0,0,0,0,0,0,0,0,0,0,0,0,0,0,0,0,0,0,0,0,0,0,0,0,0,0,0,0,0,0,0,0,0,0,0,0,0,0,0,0,0,0,0,0,0,0,0,0,0,0,0,0,0,0,0,0,
0,0,0,0,0,0,0,0,0,0,0,0,0,0,0,0,0,0,0,0,0,0,0,0,0,0,0,0,0,0,0,0,0,0,0,0,0,0,0,0,0,0,0,0,0,0,0,0,0,0,0,0,0,0,0,0,0,0,0,0,0,0,0,0,0,0,0,0,0,0,0,0,0,0,0,0,0,0,0,0,0,0,0,0,0,
0,0,0,0,0,0,0,0,0,0,0,0,0,0,0,0,0,0,0,0,0,0,0,0,0,0,0,0,0,0,0,0,0,0,0,0,0,0,0,0,0,0,0,0,0,0,0,0,0,0,0,0,0,0,0,0,0,0,0,0,0,0,0,0,0,0,0,0,0,0,0,0,0,0,0,0,0,0,0,0,0,0,0,0,0,
0,0,0,0,0,0,0,0,0,0,0,0,0,0,0,0,0,0,0,0,0,0,0,0,0,0,0,0,0,0,0,0,0,0,0,0,0,0,0,0,0,0,0,0,0,0,0,0,0,0,0,0,0,0,0,0,0,0,0,0,0,0,0,0,0,0,0,0,0,0,0,0,0,0,0,0,0,0,0,0,0,0,0,0,0,
0,0,0,0,0,0,0,0,0,0,0,0,0,0,0,0,0,0,0,0,0,0,0,0,0,0,0,0,0,0,0,0,0,0,0,0,0,0,0,0,0,0,0,0,0,0,0,0,0,0,0,0,0,0,0,0,0,0,0,0,0,0,0,0,0,0,0,0,0,0,0,0,0,0,0,0,0,0,0,0,0,0,0,0,0,
0,0,0,0,0,0,0,0,0,0,0,0,0,0,0,0,0,0,0,0,0,0,0,0,0,0,0,0,0,0,0,0,0,0,0,0,0,0,0,0,0,0,0,0,0,0,0,0,0,0,0,0,0,0,0,0,0,0,0,0,0,0,0,0,0,0,0,0,0,0,0,0,0,0,0,0,0,0,0,0,0,0,0,0,0,
0,0,0,0,0,0,0,0,0,0,0,0,0,0,0,0,0,0,0,0,0,0,0,0,0,0,0,0,0,0,0,0,0,0,0,0,0,0,0,0,0,0,0,0,0,0,0,0,0,0,0,0,0,0,0,0,0,0,0,0,0,0,0,0,0,0,0,0,0,0,0,0,0,0,0,0,0,0,0,0,0,0,0,0,0,
0,0,0,0,0,0,0,0,0,0,0,0,0,0,0,0,0,0,0,0,0,0,0,0,0,0,0,0,0,0,0,0,0,346,347,348,349,350,351,352,0,0,0,0,0,0,0,0,0,0,0,0,0,0,0,0,0,0,0,0,0,0,0,0,0,0,0,0,0,0,0,0,0,0,0,0,0,0,0,0,0,0,0,0,0,
0,0,0,0,0,0,0,0,0,0,0,0,0,0,0,0,0,0,0,0,0,0,0,0,0,0,0,0,0,0,0,0,0,358,359,360,361,362,363,364,365,366,367,0,0,0,0,0,0,0,0,0,0,0,0,0,0,0,0,0,0,0,0,0,0,0,0,0,0,0,0,0,0,0,0,0,0,0,0,0,0,0,0,0,0,
0,0,0,0,0,0,0,0,0,0,0,0,0,0,0,0,0,0,0,0,0,0,0,0,0,0,0,0,353,354,355,356,357,390,391,392,393,394,395,396,397,398,399,0,0,0,0,0,0,0,0,0,0,0,0,0,0,0,0,0,0,0,0,0,0,0,0,0,0,0,0,0,0,0,0,0,0,0,0,0,0,0,0,0,0,
0,0,0,0,0,0,0,0,0,0,0,0,0,0,0,0,0,0,0,0,0,0,0,0,0,0,0,0,385,386,387,388,389,422,423,424,425,426,427,428,429,430,431,0,0,0,0,0,0,0,0,0,0,0,0,0,0,0,0,0,0,0,0,0,0,0,0,0,0,0,0,0,0,0,0,0,0,0,0,0,0,0,0,0,0,
0,0,0,0,0,0,0,0,0,0,0,0,0,0,0,0,0,0,0,0,0,0,0,0,0,0,0,0,417,418,419,420,421,454,455,456,457,458,459,460,461,462,463,0,0,0,0,0,0,0,0,0,0,0,0,0,0,0,0,0,0,0,0,0,0,0,0,0,0,0,0,0,0,0,0,0,0,0,0,0,0,0,0,0,0,
0,0,0,0,0,0,0,0,0,0,0,0,0,0,0,0,0,0,0,0,0,0,0,0,0,0,0,0,449,450,451,452,453,486,487,488,489,490,491,492,493,494,495,0,0,0,0,0,0,0,0,0,0,0,0,0,0,0,0,0,0,0,0,0,0,0,0,0,0,0,0,0,0,0,0,0,0,0,0,0,0,0,0,0,0,
0,0,0,0,0,0,0,0,0,0,0,0,0,0,0,0,0,0,0,0,0,0,0,0,0,0,0,0,481,482,483,484,485,518,519,520,521,522,523,524,525,526,527,0,0,0,0,0,0,0,0,0,0,0,0,0,0,0,0,0,0,0,0,0,0,0,0,0,0,0,0,0,0,0,0,0,0,0,0,0,0,0,0,0,0,
0,0,0,0,0,0,0,0,0,0,0,0,0,0,0,0,0,0,0,0,0,0,0,0,0,0,0,0,513,514,515,516,517,550,551,552,553,554,555,556,557,558,559,0,0,0,0,0,0,0,0,0,0,0,0,0,0,0,0,0,0,0,0,0,0,0,0,0,0,0,0,0,0,0,0,0,0,0,0,0,0,0,0,0,0,
0,0,0,0,0,0,0,0,0,0,0,0,0,0,0,0,0,0,0,0,0,0,0,0,0,0,0,0,545,546,547,548,549,582,583,584,585,586,587,588,589,590,591,0,0,0,0,0,0,0,0,0,0,0,0,0,0,0,0,0,0,0,0,0,0,0,0,0,0,0,0,0,0,0,0,0,0,0,0,0,0,0,0,0,0,
0,0,0,0,0,0,0,0,0,0,0,0,0,0,0,0,0,0,0,0,0,0,0,0,0,0,0,0,577,578,579,580,581,614,615,616,617,618,619,620,621,622,623,0,0,0,0,0,0,0,0,0,0,0,0,0,0,0,0,0,0,0,0,0,0,0,0,0,0,0,0,0,0,0,0,0,0,0,0,0,0,0,0,0,0,
0,0,0,0,0,0,0,0,0,0,0,0,0,0,0,0,0,0,0,0,0,0,0,0,0,0,0,0,0,0,0,0,0,0,0,0,0,0,0,0,0,0,0,0,0,0,0,0,0,0,0,0,0,0,0,0,0,0,0,0,0,0,0,0,0,0,0,0,0,0,0,0,0,0,0,0,0,0,0,0,0,0,0,0,0,
0,0,0,0,0,0,0,0,0,0,0,0,0,0,0,0,0,0,0,0,0,0,0,0,0,0,0,0,0,0,0,0,0,0,0,0,0,0,0,0,0,0,0,0,0,0,0,0,0,0,0,0,0,0,0,0,0,0,375,376,377,378,379,380,381,382,383,384,0,0,0,0,0,0,0,0,0,0,0,0,0,0,0,0,0,
0,0,0,0,0,0,0,0,0,0,0,0,0,0,0,0,0,0,0,0,0,0,0,0,0,0,0,0,0,0,0,0,0,0,0,0,0,0,0,0,0,0,0,0,0,0,0,0,0,0,0,0,0,0,0,0,0,0,407,408,409,410,411,412,413,414,415,416,0,0,0,0,0,0,0,0,0,0,0,0,0,0,0,0,0,
0,0,0,0,0,0,0,0,0,0,0,0,0,0,0,0,0,0,0,0,0,0,0,0,0,0,0,0,0,0,0,0,0,0,0,0,0,0,0,0,0,0,0,0,0,0,0,0,0,0,0,0,0,0,0,0,0,0,439,440,441,442,443,444,445,446,447,448,0,0,0,0,0,0,0,0,0,0,0,0,0,0,0,0,0,
0,0,0,0,0,0,0,0,0,0,0,0,0,0,0,0,0,0,0,0,0,0,0,0,0,0,0,0,0,0,0,0,0,0,0,0,0,0,0,0,0,0,0,0,0,0,0,0,0,0,0,0,0,0,0,0,0,0,471,472,473,474,475,476,477,478,479,480,0,0,0,0,0,0,0,0,0,0,0,0,0,0,0,0,0,
0,0,0,0,0,0,0,0,0,0,0,0,0,0,0,0,0,0,0,0,0,0,0,0,0,0,0,0,0,0,0,0,0,0,0,0,0,0,0,0,0,0,0,0,0,0,0,0,0,0,0,0,0,0,0,0,0,0,503,504,505,506,507,508,509,510,511,512,0,0,0,0,0,0,0,0,0,0,0,0,0,0,0,0,0,
0,0,0,0,0,0,0,0,0,0,0,0,0,0,0,0,0,0,0,0,0,0,0,0,0,0,0,0,0,0,0,0,0,0,0,0,0,0,0,0,0,0,0,0,0,0,0,0,0,0,0,0,0,0,0,0,0,0,535,536,537,538,539,540,541,542,543,544,0,0,0,0,0,0,0,0,0,0,0,0,0,0,0,0,0,
0,0,0,0,0,0,0,0,0,0,0,0,0,0,0,0,0,0,0,0,0,0,0,0,0,0,0,0,0,0,0,0,0,0,0,0,0,0,0,0,0,0,0,0,0,0,0,0,0,0,0,0,0,0,0,0,0,0,567,568,569,570,571,572,573,574,575,576,0,0,0,0,0,0,0,0,0,0,0,0,0,0,0,0,0,
0,0,0,0,0,0,0,0,0,0,0,0,0,0,0,0,0,0,0,0,0,0,0,0,0,0,0,0,0,0,0,0,0,0,0,0,0,0,0,0,0,0,0,0,0,0,0,0,0,0,0,0,0,0,0,0,0,0,599,600,601,602,603,604,605,606,607,608,0,0,0,0,0,0,0,0,0,0,0,0,0,0,0,0,0,
0,0,0,0,0,0,0,0,0,0,0,0,0,0,0,0,0,0,0,0,0,0,0,0,0,0,0,0,0,0,0,0,0,0,0,0,0,0,0,0,0,0,0,0,0,0,0,0,0,0,0,0,0,0,0,0,0,0,631,632,633,634,635,636,637,638,639,640,0,0,0,0,0,0,0,0,0,0,0,0,0,0,0,0,0,
0,0,0,0,0,0,0,0,0,0,0,0,0,0,0,0,0,0,0,0,0,0,0,0,0,0,0,0,0,0,0,0,0,0,0,0,0,0,0,0,0,0,0,0,0,0,0,0,0,0,0,0,0,0,0,0,0,0,663,664,665,666,667,668,669,670,671,672,0,0,0,0,0,0,0,0,0,0,0,0,0,0,0,0,0,
0,0,0,0,0,0,0,0,0,0,0,0,0,0,0,0,0,0,0,0,0,0,0,0,0,0,0,0,0,0,0,0,0,0,0,0,0,0,0,0,0,0,0,0,0,0,0,0,0,0,0,0,0,0,0,0,0,0,695,696,697,698,699,700,701,702,703,704,0,0,0,0,0,0,0,0,0,0,0,0,0,0,0,0,0,
0,0,0,0,0,0,0,0,0,0,0,0,0,0,0,0,0,0,0,0,0,0,0,0,0,0,0,0,0,0,0,0,0,0,0,0,0,0,0,0,0,0,0,0,0,0,0,0,0,0,0,0,0,0,0,0,0,0,727,728,729,730,731,732,733,734,735,736,0,0,0,0,0,0,0,0,0,0,0,0,0,0,0,0,0,
0,0,0,0,0,0,0,0,0,0,0,0,0,0,0,0,0,0,0,0,0,0,0,0,0,0,0,0,0,0,0,0,0,0,0,0,0,0,0,0,0,0,0,0,0,0,0,0,0,0,0,0,0,0,0,0,0,0,759,760,761,762,763,764,765,766,767,768,0,0,0,0,0,0,0,0,0,0,0,0,0,0,0,0,0,
0,0,0,0,0,0,0,0,0,0,0,0,0,0,0,0,0,0,0,0,0,0,0,0,0,0,0,0,0,0,0,0,0,0,0,0,0,0,0,0,0,0,0,0,0,0,0,0,0,0,0,0,0,0,0,0,0,0,0,0,0,0,795,796,797,798,799,800,0,0,0,0,0,0,0,0,0,0,0,0,0,0,0,0,0,
0,0,0,0,0,0,0,0,0,0,0,0,0,0,0,0,0,0,0,0,0,0,0,0,0,0,0,0,0,1041,1042,1043,1044,1045,0,0,0,0,0,0,0,0,0,0,0,0,0,0,0,0,0,0,0,0,0,0,0,0,0,0,0,0,827,828,829,830,831,832,0,0,0,0,0,0,0,0,0,0,0,0,0,0,0,0,0,
0,0,0,0,0,0,0,0,0,0,0,0,0,0,0,0,0,0,0,0,0,0,0,0,0,0,0,0,0,1073,1074,1075,1076,1077,0,0,0,0,0,0,0,0,0,0,0,0,0,0,0,0,0,0,0,0,0,0,0,0,0,0,0,0,0,0,0,0,0,0,0,0,0,0,0,0,0,0,0,0,0,0,0,0,0,0,0,
0,0,0,0,0,0,0,0,0,0,0,0,0,0,0,0,0,0,0,0,0,0,0,0,0,0,0,0,0,1105,1106,1107,1108,1109,0,0,0,0,0,0,0,0,0,0,0,0,0,0,0,0,0,0,0,0,0,0,0,0,0,0,0,0,0,0,0,0,0,0,0,0,0,0,0,0,0,0,0,0,0,0,0,0,0,0,0,
0,0,0,0,0,0,0,0,0,0,0,0,0,0,0,0,0,0,0,0,0,0,0,0,0,0,0,0,0,1137,1138,1139,1140,1141,0,0,0,0,0,0,0,0,0,0,0,0,0,0,0,0,0,0,0,0,0,0,0,0,0,0,0,0,0,0,0,0,0,0,0,0,0,0,0,0,0,0,0,0,0,0,0,0,0,0,0,
0,0,0,0,0,0,0,0,0,0,0,0,0,0,0,0,0,0,0,0,0,0,0,0,0,0,0,0,0,1169,1170,1171,1172,1173,0,0,0,0,0,0,0,0,0,0,0,0,0,0,0,11,12,0,0,0,0,0,0,0,0,0,0,0,0,0,0,0,0,0,0,0,0,0,0,0,0,0,0,0,0,0,0,0,0,0,0,
0,0,0,0,0,0,0,0,0,0,0,0,0,0,0,0,0,0,0,0,0,0,0,0,0,0,0,0,0,0,0,0,0,0,0,0,0,0,0,0,0,0,0,0,0,0,0,0,0,43,44,45,0,0,0,0,0,0,0,0,0,0,0,0,0,0,0,0,0,0,0,0,0,0,0,0,0,0,0,0,0,0,0,0,0,
0,0,0,0,0,0,0,0,0,0,0,0,0,0,0,0,0,0,0,0,0,0,0,0,0,0,0,0,0,0,0,0,0,0,0,0,0,0,0,0,0,0,0,0,0,0,0,0,74,75,76,77,78,0,0,0,0,0,0,0,0,0,0,0,0,0,0,0,0,0,0,0,0,0,0,0,0,0,0,0,0,0,0,0,0,
0,0,0,0,0,0,0,0,0,0,0,0,0,0,0,0,0,0,0,0,0,0,0,0,0,0,0,0,0,0,0,0,0,0,0,0,0,0,0,0,0,0,0,0,0,0,0,105,106,107,108,109,110,111,0,0,0,0,0,0,0,0,0,0,0,0,0,0,0,0,0,0,0,0,0,0,0,0,0,0,0,0,0,0,0,
0,0,0,0,0,0,0,0,0,0,0,0,0,0,0,0,0,0,0,0,0,0,0,0,0,0,0,0,0,0,0,0,0,0,0,0,0,0,0,0,0,0,0,0,0,0,0,137,138,139,140,141,142,143,144,0,0,0,0,0,0,0,0,0,0,0,0,0,0,0,0,0,0,0,0,0,0,0,0,0,0,0,0,0,0,
0,0,0,0,0,0,0,0,0,0,0,0,0,0,0,0,0,0,0,0,0,0,0,0,0,0,0,0,0,0,0,0,0,0,0,0,0,0,0,0,0,0,0,0,0,0,0,169,170,171,172,173,174,175,176,0,0,0,0,0,0,0,0,0,0,0,0,0,0,0,0,0,0,0,0,0,0,0,0,0,0,0,0,0,0,
0,0,0,0,0,0,0,0,0,0,0,0,0,0,0,0,0,0,0,0,0,368,369,370,371,372,373,374,0,0,0,0,0,0,0,0,0,0,0,0,0,0,0,0,0,0,0,201,202,203,204,205,206,207,208,0,0,0,0,0,0,0,0,0,0,0,0,0,0,0,0,0,0,0,0,0,0,0,0,0,0,0,0,0,0,
0,0,0,0,0,0,0,0,0,0,0,0,0,0,0,0,0,0,0,0,0,400,401,402,403,404,405,406,0,0,0,0,0,0,0,0,0,0,0,0,0,0,0,0,0,0,0,233,234,235,236,237,238,239,240,0,0,0,0,0,0,0,0,0,0,0,0,0,0,0,0,0,0,0,0,0,0,0,0,0,0,0,0,0,0,
0,0,0,0,0,0,0,0,0,0,0,0,0,0,0,0,0,0,0,0,0,432,433,434,435,436,437,438,0,0,0,0,0,0,0,0,0,0,0,0,0,0,0,0,0,0,0,265,266,267,268,269,270,271,272,0,0,0,0,0,0,0,0,0,0,0,0,0,0,0,0,0,0,0,0,0,0,0,0,0,0,0,0,0,0,
0,0,0,0,0,0,0,0,0,0,0,0,0,0,0,0,0,0,0,0,0,464,465,466,467,468,469,470,0,0,0,0,0,0,0,0,0,0,0,0,0,0,0,0,0,0,0,297,298,299,300,301,302,303,304,0,0,0,0,0,0,0,0,0,0,0,0,0,0,0,0,0,0,0,0,0,0,0,0,0,0,0,0,0,0,
0,0,0,0,0,0,0,0,0,0,0,0,0,0,0,0,0,0,0,0,0,496,497,498,499,500,501,502,0,0,0,0,0,0,0,0,0,0,0,0,0,0,0,0,0,0,0,329,330,331,332,333,334,335,336,0,0,0,0,0,0,0,0,0,0,0,0,0,0,0,0,0,0,0,0,0,0,0,0,0,0,0,0,0,0,
0,0,0,0,0,0,0,0,0,0,0,0,0,0,0,0,0,0,0,0,0,528,529,530,531,532,533,534,0,0,0,0,0,0,0,0,0,0,0,0,0,0,0,0,0,0,0,0,0,0,0,0,0,0,0,0,0,0,0,0,0,0,0,0,0,0,0,0,0,0,0,0,0,0,0,0,0,0,0,0,0,0,0,0,0,
0,0,0,0,0,0,0,0,0,0,0,0,0,0,0,0,0,0,0,0,0,560,561,562,563,564,565,566,0,0,0,0,0,0,0,0,0,0,0,0,0,0,0,0,0,0,0,0,0,0,0,0,0,0,0,0,0,0,0,0,0,0,0,0,0,0,0,0,0,0,0,0,0,0,0,0,0,0,0,0,0,0,0,0,0,
0,0,0,0,0,0,0,0,0,0,0,0,0,0,0,0,0,0,0,0,0,592,593,594,595,596,597,598,0,0,0,0,0,0,0,0,0,0,0,0,0,0,0,0,0,0,0,0,0,0,0,0,0,0,0,0,0,0,0,0,0,0,0,0,0,0,0,0,0,0,0,0,0,0,0,0,0,0,0,0,0,0,0,0,0,
0,0,0,0,0,0,0,0,0,0,0,0,0,0,0,0,0,0,0,0,0,624,625,626,627,628,629,630,0,0,0,0,0,0,0,0,0,0,0,0,0,0,0,0,0,0,0,0,0,0,0,0,0,0,0,0,0,0,0,0,0,0,0,0,0,0,0,0,0,0,0,0,0,0,0,0,0,0,0,0,0,0,0,0,0,
0,0,0,0,0,0,0,0,0,0,0,0,0,0,0,0,0,0,0,0,0,0,0,0,0,0,0,0,0,0,0,0,0,0,0,0,0,0,0,0,0,0,0,0,0,0,0,0,0,0,0,0,0,0,0,0,0,0,0,0,0,0,0,0,0,0,0,0,0,0,0,0,0,0,0,0,0,0,0,0,0,0,0,0,0,
0,0,0,0,0,0,0,0,0,0,0,0,0,0,0,0,0,0,0,0,0,0,0,0,0,0,0,0,0,0,0,0,0,0,0,0,0,0,0,0,0,0,0,0,0,0,0,0,0,0,0,0,0,0,0,0,0,0,0,0,0,0,0,0,0,0,0,0,0,0,0,0,0,0,0,0,0,0,0,0,0,0,0,0,0,
0,0,0,0,0,0,0,0,0,0,0,0,0,0,0,0,0,0,0,0,0,0,0,0,0,0,0,0,0,0,0,0,0,0,0,0,0,0,0,0,0,0,0,0,0,0,0,0,0,0,0,0,0,0,0,0,0,0,0,0,0,0,0,0,0,0,0,0,0,0,0,0,0,0,0,0,0,0,0,0,0,0,0,0,0,
0,0,0,0,0,0,0,0,0,0,0,0,0,0,0,0,0,0,0,0,0,0,0,0,0,0,0,0,0,0,0,0,0,0,0,0,0,0,0,0,0,0,0,0,0,0,0,0,0,0,0,0,0,0,0,0,0,0,0,0,0,0,0,0,0,0,0,0,0,0,0,0,0,0,0,0,0,0,0,0,0,0,0,0,0
</data>
 </layer>
 <objectgroup id="7" name="houses">
  <object id="11" x="480" y="224" width="48" height="128"/>
  <object id="12" x="448" y="256" width="32" height="96"/>
  <object id="13" x="464" y="240" width="16" height="16"/>
  <object id="24" x="465.5" y="612.25">
   <polygon points="0,0 0.75,43.25 15.5,55.75 51.25,58 71.25,48 75.75,38.5 75,-2.25 59.75,-15 50.75,-18.25 38.75,-22.25 31.25,-21.25 25.25,-20 22.75,-17.5 9,-11.5"/>
  </object>
  <object id="26" x="527.5" y="223.875">
   <polygon points="0,0 0.5,-7.25 25,-31.75 96.5,-31.875 114,-14.5 124,-14.125 124.375,-4 158.875,-3.625 159.5,56.375 156.125,56.375 156.864,126.852 0.5,128.125"/>
  </object>
  <object id="28" x="336.667" y="798.333">
   <polygon points="0,0 -1,47 2.33333,46 2.66667,96.3333 108.333,97.6667 109.333,45.3333 111.667,-2.66667 66,-47 45.3333,-50.3333"/>
  </object>
  <object id="29" x="755.667" y="831">
   <polygon points="0,0 121.333,-0.333333 122,-34.6667 125.667,-96.3333 52,-166 40.2083,-153.25 41.5833,-159.75 41.4583,-161.875 37.9583,-163.375 34.3333,-163.375 31.9583,-161.375 32.0833,-157.875 33.5833,-154.25 33.5833,-151.5 33.2083,-147.625 -4.29167,-110.625 -3.66667,-48.0909 -1.66667,-47.3636"/>
  </object>
  <object id="30" x="958.667" y="575">
   <polygon points="0,0 -13.6667,-0.666667 -15.3333,-14.3333 -19,-16.6667 -30,-15.3333 -30.3333,-32.6667 -29.6667,-36 -28,-81.6667 -31.3333,-84 -30.6667,-141.667 -20.6667,-149.667 -19.6667,-158.667 -11.6667,-158.667 40,-208.667 43.6667,-207.667 66.3333,-185 66.3333,-195.667 82.6667,-194.333 83.6667,-165 114,-139.333 113.333,-84.6667 110.333,-81 111.333,-34.6667 113,-31.3333 113,15.6667 32,17.6667 33,-14.6667 35.3333,-16 -2.33333,-15.6667"/>
  </object>
 </objectgroup>
 <objectgroup id="8" name="hospital_door">
  <object id="31" x="494.545" y="319.909" width="18.9091" height="31.6364"/>
 </objectgroup>
 <objectgroup id="4" name="shop_door">
  <object id="8" x="608" y="320" width="32" height="32"/>
 </objectgroup>
 <objectgroup id="6" name="car"/>
 <objectgroup id="5" name="homeway">
  <object id="1" x="0" y="384" width="32" height="160"/>
 </objectgroup>
</map>
